piano: (tempo! 40) o6 d2/g2/e4/b/e4/d < g4 f/g2/a a2/d4 o7 e4/g2 a2 a4 g4/f o10 b4/b2/b2/c4/g/d o10 e2 b4/g/f4/f2 e4 o8 d f2 f4/e2 e2/d2 o10 c d b2 d2/c2 a o7 d2/d2 a4/g4/e/a4 < e4 a4 d/a b a4 o9 b g/c2/c b4 g o9 e4/b f2 a4 e/e o10 c2/b4/g/g4/a e2 o7 g4/b2/d2/d/d4 a o6 e2/e4/c4 c2/f2 g2 o8 c/d2/d/g/c2/g < e2/d f4/e2/a b2 o10 b2 c d4/a2 b4 e o7 a4 c2/f/e/e4 f2 o8 c4/g/a/f2/f2 a4 o8 a b2 a2 a2/a4/f o10 d2 g4 a d e2/f2 o7 a4 d2/d2/c2/f4/f < b/g2/e/b4/a2 a > c2/d g4/e2 g2 b2 < c2/e/c2/b4/e2/e4 o9 e/g2/f4 f4 d4 b2 > f4 d2 d f/d/d o6 c4/c2 b2 d4/c/g2 o7 d g4 b2 c/e2/f2 > a4/f2/a4 f4 f/e2 o6 e4 e4/a4 e2/d2 f4 o8 c2/e2 c2/d4 g4 b2 o8 f/a2/g4/a/g4 f4 < f2/g4/b e2/c4/b4 o8 f2 c4/g4/g c2/a2 o10 e2 f2/d2 g2 b2/a2 o6 a b/f4/e2 g/e4 o8 g2 a4/e/a2/g2/a4 o7 b e/d/c/c/a < d4/c2 c2/b d2 g > f4/b2 a/b/e4/e4 o6 c2/b4/d2/c2/b b2 o8 g2 e2/b4/f/f2 b o8 g4 e4 a4/a f g2 > d a4/g2 a4 a g2 > g2 c4 c2 d4/d e2 o8 b2 a2/b2/a c4/b2 > f2 e2/d4 d4 f4/g o8 a4/e/e4 b f c4 o6 a2 b4 g2 a2/e2/f4 o10 f4 g4/c/c2 g/d < d2/a/f4/f/g4 b2 o8 f b2 d/d4 f f > a d2/d/d2 f2 f4 < e4 c2/c4 b/f2/g2 o8 a2 g2/f/d2/g2/b2 < a2 b/e c4/c4/a o8 d/g2/c g4 d/b o9 d4 f4 f4/c c/f4 o8 f e2/e2/f2 f2 c2 o9 g2/e/c4 b4 g2/b > e2/a/c2 d f4/e o7 e4 c4/c2 b4 a/f o8 b2/a/d4 e4 d4/e4 o8 c c e/f2/b2 f2 o8 b/c2 e2/b/g b o8 f e2 c2 d4/a2 e2 o6 c/c c d a a4 o8 c2/g4/a f g2/b o9 f2/e f e2/d e o7 e f2 g e/c4 e4 o6 c4/c b/c4/e4 a4 o8 e g4/c2 c2/e4/a o10 c2 b2 a4/b4 b4 b2 o7 d4/e g a2/g2/a2 o10 d4 e4 a/e b e2 < f2 a4/g2 f b2 e o9 d2 f2/b2 d4/d a4 o10 b4/e4/f4 b/g/e4 o10 f2/d/b4 f/a/e4 o6 g2 d4 e c4 e4/d4 > c4 d2/b2 d c4 b4 o6 f2/a4 b2 b4 a4/f o6 e4/a4/d f2/b4 b4 < b2/b4/d4 d4 f c > d f2 c/c/a f4 o7 b/g/e4/e f/b4 o10 b4 f2 d d2/g2/a2 > d4 a a2 c2 g a4 o10 a2/f2 d b2/b b o10 b/c2 g4 a/d2 d o8 a f2/b b4 f2/d2 o6 c b d d4/b4/c2 o6 e4/d4 c/e d2 g2 o6 e c4/g/g2 e4/c o8 b2 e2 g2/f4/c/e o10 f2/e2/g/e b/e4 o10 e/f/e a4/c4 d4 o8 d4/d f4 a2/f4/d4 o10 d4/c4/b2 g/b2/b2 > d4/b2 b4/a2 c2 e4 o8 d f2/a/a2/e4/b2 o6 e4/c f a2/d4/g o10 d2 e g d a2 g2 < d2 e/d2 f2 a/b2 o6 c/a4 g g f/a4 > d4 e4/g4 b2 f2/g2 o7 c g4 f2 a4/f2/b2 o9 e4/d4 d2/c/d2/d4 o9 b4 d4/g/e a4/c4 o10 b2 d b2 d c2 c o9 f4/f/d2 d4/e4 e > a2 d4/a/g4/g2/f4 o6 g4 c/e e/f d2 o7 e2 e2 e/a/b4 b4 > g a4 e/b e4/d4 < c2/a b a e2 d o7 c/g/c/f2/a4/g4 o6 f2/a/f4/d/e b4 o10 d/a2 e4 a4 a2 f o8 g2 c4/a2/d2/a2 e4 o8 g4/c2/g2/a4/a2/a o10 a g2 a4 e4 a4/d2 o8 c/e/g4/a2 a d o8 g2 c4 f f/a a2 > f g/d f4/a/d2 o9 a4/f4/g4/f4/d2/e2 o6 c4 a4/g/e2/f4/c o9 e2/c/d4/c2 e/c2 o7 f4/b4 b/g2/e/e o9 e b4/b/f4/d/e4 > d/d/a4 c4/a/b > c4/d2 g2/e2/a4 c o8 f e/d4 f2/b2/f4 o10 a4/d4/d4/a4/f g4 o9 g2/d4/g2/a b2 a4 o10 c2/d4 g2 a4/c2 f o8 d2 g4/c g b/e4 > a2 e2 e2 d/b4 d o10 f f/d2/a f2/d2 o9 f/g e a d4/e o8 d2 e2 b4/d2/c2 c o9 d b4 b4/g/f2 g4 o9 c/b2 a a g4/f4 o7 d/b e4/d/d4 a4 o7 e/a4/g4/f4 c4/b4 > g2 f2 f2 f b4/f o6 b2 e a4 e/a4/d4 o6 c2/a2/b4 f c2/f4 o10 e4/a2/d4 g/b4 g4 o9 e2/c g4 a a4/c4 > e2 f e e/f4 f2 o10 c4 c2 b f2 g/f4 o7 g/g4/c4 d2/f4 b4 o7 e c4 b4 g/g d2 o8 a d2/g c4/b2/f2 o10 d2/d2 g a/e/g2 o6 a/c2/c2/c2 f2/a2 o7 g2/d e c2 g/g4 o9 c g2 c e2/c4 a4 