piano: (tempo! 40) o8 b2/d2/c2/e/d g2 > e b/a2/a2 f2/f4 < f/d2/f2/a4/a4/c2 > d/b4 c g b/a2 o8 f/c4 a2/c4/e4/g o7 b/f2/e/g/b g o9 g2 g/c c e4/f4 o9 e/a4 g2/e4 f2/g o10 a4/d4 c2 c4/f4 g2 o8 c/d g4 g4 a2/b2 < g2/b2 a2 c/g2 f4 o8 c2/a4 g/f/c/e4 o9 d4/e4/a4 c2/d4 d o10 f/a e e4 c4 f o9 a4 a2 g4/d4/e4 g4 < e4 g4 f2/d2/d2/c o6 a2 c4 c/c/c4/f2 o8 a d2/b4/b c/g o6 e2 e4 a4/f4/f4/f4 o9 b2/c2/a2 a g4/d2 > b/c4 e2/b2 c2/b < b4 c4 c4/b4 c d4 o8 e/b2/d4/f4 f2 b2 o9 b/d4 d2/d/a4 d > f c2/a2/a2 c2 f2 o7 e c2 a2/f2/g4/a < c2/g4 g a4 f f2 o9 g2/f2 e2 g4 a/f4 o8 g2 c4 e2 a2/g e4 o8 b/g2/g2/a2/f g o7 e2 e2 a4 e2/f4 f4 o10 g4/c/b4/d/b2/g4 o10 f4/b g2/d2 f2 d4 > c f g2 e2/c b4 o8 c4/f4/c2/e2 b/d o7 b2 g/f4/b2/a2/e2 < f4/d g2 f4 f/f4 o7 f4 c2/d2/f b d4 o9 a2 e g/b2/a4 c4 < g2/a b b2 b/e4 o10 c4/d4 g2/e2 b4 c2 o10 c e g2 b2/b/c2 < e g2 c2 g/d4 b4 o8 e4 e/f f2 e2/e2 o7 b4 a2/g4 c2 a/f2 o6 b4 a g2 g2 c e o10 b4 a2/b2/f2 d2 e o9 b2 e4 a g/b4 c o9 e2/b4 c2 c4 b4/b2 o8 e e4/d4 f g2/d2 o9 b4/b/b/d e4/a o7 a2 f2 b4/a2/e2/g > b4 a2/a2 e4 f2 e2 o10 c/a/g/b/g/c4 o8 c2/e/e2 b4 d/g o6 a4 g4 f b f4/a o9 b e b4 d4/f4/g o10 f2 g b4 a2/g/b4 < e4/d4 b2 b2/f2 f o10 b f/a4/b4 e2/f2 > f4/d4 a4 e f f2 < b4 b2/a2/e2 a4 d4 o6 c2 g2/g2/g4 c4 f4 o8 c4/b4 e2 b2/f4/c4 o6 e2/b/b2 a2/f2/g4 o7 c4/d4/b/b2/b4 d o9 a2/e2 b f2/f2 g < g/d4 a4/f2/a2 e2 o6 g2/g2/c4 f2 e/d2 o9 c2 b/g/f2 g2 g4 o10 a/d2 e g/g a4 o10 a e2 e2 f2 a4 g4 o7 b2/b4/g e g2/c2 > e4/b4 e4/c4/c/f4 o10 b b4/c2/c/e2/b2 o9 a2 f2/f d4/b4/f4 o8 b/a/c4 g2/g2/e2 o10 e2/g4/g/f/g/g4 o7 e c2 d2/a/f/a o10 d4/a4 c/c/a g o8 b/a d/e2 d2/e2 o8 c4 f c2 e2 c c > e2/d4/d4/d/f4 a4 o10 g2 c2 a4/f g4/g o7 f4 f4/d4 f2 e/f4 > c g4/a4/a4 b4 a4 > c2/c4 a/b4 g c2 o9 g e2/b2/b2 d4 f2 o6 f2 e/a2 d a/c2 > c4/f2 e2/b4 a4/g4 > d4 f2/c/g4/e2 a2 o6 f b e4/a/f4/e2 o8 d/f e/g/f/f o10 c4 g a/d c/e4 o10 g/a2 a2/b b d4 o7 c/g4 c/f2/f c o6 c4 d2/f/g/f e4 o7 c4 b2/a f2/g4/b4 o7 c2/d4 g2 a2 f2/d4 o10 a4/d c b e4 g o6 d2 c2/b g2/e2/f2 < g2/g4/a/g4 g4 d4 o8 c d4 c4 d4/f4 e2 o8 a2 b/g/b2 g2/e4 o6 f4/d2/d4 b2/c4/a2 o8 b2/f2 f2 e2/f4 c2 o8 d2/e4 e4/f4/b4/f4 o9 b4 f2/e2/f e2/b4 o9 f2/a2 g2/e/b a4 o9 e4 e/c2 f/f/e2 o10 f2/e e2/c b/a o6 c4 d4 d2/c4/f4/g4 o8 d4/g2/b4/d b4 b2 o6 a2/a d2 f4 g2 a o8 b2 f2/f/a b2 c4 o7 d4/e/a4/a/a2 c > e e f2/g4/f/a o10 e4/b b/c2 c g > g/f/a g/c4/e4 > a2/b/a2 d2 e2/c4 o10 b2 b4/f/c/g2 f o8 g d2 d2/a2 d4 a4 o10 g2 d b4/e4 b2 d2 < a/b2/b4 f/d d4 o10 b4/c4 b2 b2/c4/b o6 a/d4 f4 g4 b d4 < g2/g g b/f4 g4 o8 b2 a/a2/a2/c4/d4 o8 c2 e/f2/d4 g4 a4 o10 d4/f2 a4/f4/b2 a4 o8 d4/a/a2/d4/c2 g2 o6 a g4/f2 b4/a/b4 o9 b/b4/e/d4/e/b o8 g/b4 d2 c2/d b o10 c a c4/e/g2/a < d a4/d2 d c4/b o9 d2/g e4 e2 g/c2 o6 f/a4/g4 f2/c4/a o7 e2 a4 e2 c2/e4 e < g2/c f4/b2 g4/b2 o10 g4/b2/c4/d/f4 c4 < g4 c e/e4 g2/b4 o6 d2/a2/c4 c4/b/b2 o8 d2/b4/g4 g e4 c2 o6 b4/g4 f2 e2/b4 f2 o6 e2/a2 f4 d2/g e o9 f2/g/a2/d4/g2 d4 o7 d2/b2/a b/f4/c4 o8 b2/c4 g4/f4/b4/g o7 c2 e4 d4 b2/e d4 o9 a4/g4 b2/g2 e4 c2 > f2 f/a/g4 d c2 < f d2 b4 b a2/d o6 a4 a/a4/f4 g4/c4 o10 g4 d2 e4 g2/g2/e4 > f4 e2/e4/d/f/f2 o8 d2/a4 b4 g2/b4 c2 o7 c/a/a2/a4 g4/b2 o9 e2/g4 b/c2 a/g4 o10 f4/b4 e4 b f4 a4 