piano: (tempo! 40) o10 a4 a b4/a2/c2/g4 o7 f/d4/f4/a2 b4 a4 o6 b2 d f2 f2 a/e4 > c c b/e/d/f2 o8 e2/c2/c4 a2 e/d4 o9 c f4 d2/b4 a4 g < c4/g2 c4/a2/d4 d4 o6 d4/g d2 f2 e2 c2 o7 d2/g/c/g2 g4/b4 o10 a2/b2 c4 b2/e/e2 o7 f4/e2 f4 b/b4 f4 o8 b4 e2/a4 d4/e/c o10 g e2/e/b2 f2/g4 o10 b4/b/b4/e/f/f2 o7 d/d4/a4 e4 e c2 o6 e2/f4/c d d4 b4 < c c/g2 g g2/g o6 e4 b f/c/b4 g4 o8 f4 e b4 f4 f2 a4 o8 f/b2/e a4 e/f4 < e4/e f2/b2 f2 c2 o8 g/b g2 c b/e4 o7 a4 g4 f/b4/b2/a > a4/e4/a4/e e2 e o6 g/d/b/f/f/d < b2 b4 a4 a2/b/e4 o9 f g4/e2/g/g4 d < e2 a/e4/e2 c2 e2 o9 g/f2 b2 b2/f2/e o8 a a c2 b2 a2 d o7 a2/g2/d2/e2 f4/c o8 e2 a c2/e2 b c4 o10 f/g4 d4 a g2/d2 o10 c c2 f2/f2/g/d4 o9 d2/e4 a c4/b d2 o9 c f2/b d2 c/d4 o9 d4 g4/b2/f2 d/d4 o8 f/e4/c2/d/e2 g2 < g4 a2 f d4 a/a4 o10 b4/f4/c c4 d2/f < d4 a2/g2 d4/e2/d o7 f/e2 d f b d < c4 b4/e4/c2 f2 e o6 c2 g2/e2 c d4/e2 o10 c4 f/a2 f2 a2 b o10 e2 d4 f/a2/d/d o8 e4 e4 b2/g/g2/g4 o7 f2 e2 e e/f4/d o8 a e e/a4 g4/f2 o6 b2/c c4 g4/f4/g o8 a/a f c2/g2 g > a4 g a e4 e4/a2 o10 c4 d/g/a2 f g o8 a a4/b4 d2 a/g o7 a2 c4 b4 a2/a4 d2 < g4/a g4 d4 g4 a > c4 c c g4/a4 a > g2/c2 d2/c4 a4 f < f4 e2 a2/b4/d f < b4/a4/b2 a c/e4 o8 g2 f4/f4/a e d2 < g f4/c2 f e4 f4 o6 d4 c4 e4 f/d2 f o10 b4 d2 e2 c e4/g2 o6 f2/d g2/a4 b/e2 < g2 c/f4/e/a2/b o9 a4/a2/e2/g2/a4/f o7 a2/a/c2 g2 b a4 o10 a4/d4/d/g2 c c o8 a4 a2 d4 d4/c4/a4 o10 a/a4/f/g4 e4 e o6 c/e/c2/b2/g4 g2 < d4 b/e4 a4 a2 a4 o10 f4 a2/e4/f/b4/g o6 e4 b4/d2/c2/e4/e4 o6 e2 b4 d2/f4/f2 g2 > a4 d b/a/g a2 < e4/a4/g2 c4 b2 b2 o10 a2/d4/g4/f4/f4/a o7 g2 e2 b4/a2 f4/g o6 a/e b4 b/f2/f2 o10 a2/d2 f4 a b e2 o8 e2 f4/f4 f2/d2 f o10 g2/b4/b2 b4/b2 g4 o6 a2/f/a d2/b/g4 o8 b4 f b4/a2 d f2 o9 g4 a/d2 a4 d4 g4 o6 a4 c4/g/f b/e > b2 c2/d/g/a/f2 < e4/a c4/g/c4 e < a4 b/g/a f4 g o6 f4/d4/b4 f4/f/f4 o8 d4 f2/b/c2/g2/d o8 f/a b/g/e a4 o6 f g4 g2/b4 c2 g4 o8 f2 c4/g2/c4 f2 d2 o7 d/a2/c2/b4/a/a2 o10 d/b4 e4/d2 d4/f4 o6 f4 e2 g2 b2/f/f o9 d/a4 f4 c d/b2 o6 f a2/b4/f2 f2/g2 o8 g2 a2/d/f g4/d4 o9 d/b4 f2/b2 g2/d4 o6 g d/d2/f2 b a2 o6 g c4/d4/a2/d4/g2 o7 b f/d2/d4/g4/d4 o6 c4 a4 a2 a2/e2 g o7 d2 b2 d4/f2/b c2 > e f4/a2/e f/d2 < g/g/e2/e2 e4/b4 o9 b2/d2/d4/e e/e o10 a2 e g4 d/c/a4 o8 g2 c f4/f d g o9 c2 b4/d2 b/a4/b o8 a/g2 g/e2 g f o10 b4 f/d4 f4/g2 d < f2/e e/a2/d2/b2 o9 a4/b4 c4 b4 d/g4 o9 g2 a2/g2/d4 e2 f2 o10 d2/a2/f f f2/f2 o7 d/c b4/g2/e/f o10 d/d4 e/a2/b2 e2 o6 f2 b2 g4/c c c2 o10 e/c4 d d4 a/f4 o6 g e2/c4 c f/f4 < f2 b2 d e2 c2 d2 > b4 g2 a2 b2/f/e4 < g c d2 g2/a b o8 f/f4/b2/g4/c/d2 o8 f4 b c d4/e4 f4 o8 b/g2 b4/e2/b4 c2 o6 c4/b2 d2 d4 d4/c2 o9 e4 b4 f4/g4/g4 e2 o9 d2/d4/e4/f2 b2 c4 o7 d e/a2/e4/a/c < b/f4 g4 g/g2 c o9 d/b2/g e g b o10 c a g4/d4 a g2 o6 b4/c e4 a2 b2 f2 o7 f c4 d4 e c4/c2 o6 e a2 e2 b2 c/g4 o9 d4/g4/b4 a2 d a4 o10 f4 f4 f4/a2/g2 g4 < e2/a4/g c f4/c2 < d4/e/e2/b2 c/g2 < f2/a4/b4 g4 e4 d4 o6 d a2/a/a2 b d4 > g2/g c4/g2 f4 f4 < a4/b2/d a f4/e4 o7 f2/d/e2/g2/a2/b o8 c2 b4/c4/e/g e4 o6 b2 d b b2 f2/a < f4/d4 d/e4/g4/d2 > f2/a2 a e4 a4 d o7 e4 c4 e2 c4 a f4 o9 a4 e2 g2 g/g/b4 o6 a4 a e b4 a2/f o10 f2 e d2/d2 c/c4 o9 c4/c4/b/c4 f/f o10 f2/g2/e/b2/d4/g < g/b4 g4/c2/d2 e2 o8 b4/d4 g4/e4 d f4 o10 c4 c2 a4 f/e a4 o6 e b4 g/b b/c o9 f g2/b4/b/d/g > e4 b a4 e4/e b4 o8 d4/f/b4 c2/b4/c4 o6 e2/g4/d/g/c2 d > e4 d/e4 d4/a4/e < a a4 a4 f d2 g o9 c/a2 a2 g2/f4/a2 < f2 c2 a4/a/c2/b4 o10 c4/f c2 a2/c2/e2 > g2 f/c f/a4/f4 o7 a b/f4/e2 b/b o6 g/d2 f4/e2/g2 c4 o10 d2/e/a4/b4 e4 c o8 e4 a2 b2/f2 a c4 > a a4/f4/g2/b g4 o7 d2 c2 e b4 g d2 o10 a4/b4/f4 b d4/f4 < b2/b2/d/b4 e/b4 o8 c4 g4 f2 a4 g g2 o7 c4 g4/g2 f2/d/c2 o8 g d2/f4/g4 g4 a2 o7 c2/f2 d2 c2/c4/e2 o6 a4 d2/a b2/g4/d4 o6 c4/e2/g4 a c b < f2 f4/e/e4/e2 e2 < e2/e2 c4/g2 e4 d4 o9 f4/b4/d2/g4/b2/f4 o7 c2/c d4/c4/b/b4 < d4/c4/f/a2 c2 b2 o6 b/a/f2 d c b o10 f/g4 a4/f a/b2 o9 g2/b2/e2 d4/a2 g o7 b/b2 b4/f2/a/g o6 a2/c/f2/c/e a2 o9 d4 f2 b4 d e d4 o10 a4/d2/a2/c4 a4/e > b4/a2/c4/g/c c2 o8 b g2 e4/b/c2/e4 o8 d4 f4 b4/a/e e2 o6 e4/d2/g/d2/g g2 < c4 d2 c g2/g2 g2 o10 a/a/e c4/d2 a o6 a2 b4 d/f g4 c2 < b/d2 e4/g4/c4 e4 o9 d/a4 d/a2 f4 c2 o8 a b4 e c a4 a4 o10 b2 a/g f4/d4 e2 o10 f4/a4/d/f2 b/f o9 b4/g2 e2 g2/d2 b2 o6 g c/c2 e2/b2 f4 o10 e/e4 d4/e e d o6 b2/a4/c2 a2 e c o9 e2/d4 d e4/b2 a4 > g4/a4 e2/b2/g/a2 o10 f/d2/c d2/e/e4 o8 e4 f4 g2/e4/d2/f2 o10 g c2/a/f2 g4/b4 < c/d2 b4/a2 f4 a4 < g2 f4/g2/d2/d4 e4 < f g4 d2 f2 a4/e4 < a4 d2 e/c4/d e4 o8 b2/d2/e/b2 e2 g4 o6 d c2 g2/g2 c d4 o8 g2 b c4 d2 d/f2 > b4/a d4 f4/g2/d2 < c4/d b2 d/b g o7 g2/c2 e/b4/c/d4 > g2/d4/a2/c4/f4/b2 o7 a4/b2 e2 b/a4 e4 o9 a4/d/d4/d4/f2 g o9 a/g4 f/d b2 b4 o10 d2/f a/f4/d2 c2 o8 g2/a4/g4/g2/a a o10 e2 e/g4/d4 a2 f2 > a2 b2/e2 b/d/f o9 f2 c4 f b4 e2 g4 