piano: (tempo! 51) o2 d-32 o3 b+ o9 b-8 o4 a- o4 e-8 o0 f32 o0 d16 > c+16 > g o5 a-8 o0 b8 o3 g32 o7 a16 o1 f < e+16 o2 g32 o4 a o6 d8 o9 g4 o5 g > a-32 o8 e+4 o9 a32 o2 d+ o8 b32 o8 a32 o5 c8 o2 a o5 e32 o8 b16 o3 a8 o8 g-8 > a-4 o6 d-4 o1 b4 o4 a-16 o8 c+32 o1 b-4 o9 c+4 o9 b-4 o4 a+8 o9 a-8 o3 e32 o3 d32 o6 f-4 o2 f+8 < d+ < e-8 o0 c+ o1 f16 > d32 > a32 o0 e4 o6 g < d+16 o7 f8 o5 g- o9 d-32 o0 d32 o1 c-8 o4 c32 o8 g16 o0 c32 o5 g+8 o0 g-8 o9 f16 o3 a o4 b o0 a-8 o3 c4 o9 c-16 o7 e32 o9 e+ < d-8 o6 g4 < f- o1 a+32 o3 c16 o1 g4 < b-8 o9 d+8 o3 f+16 o6 d+4 o1 g- o1 b4 o8 e+4 o3 b+ o7 b o0 c8 o6 a+32 o6 f- o4 f8 o3 f32 < e-4 o4 e+16 o8 f4 o2 e-16 o4 d-32 o9 e8 o7 a32 o3 f16 o8 g32 > d8 o1 f+16 < b-32 o7 d o2 a32 o0 c+ o5 e16 o6 d32 o1 e+4 > b16 o5 d+16 o1 d-4 o4 g-8 o0 f4 > g16 o9 e32 o3 c-4 o9 e- o7 e16 o6 f+8 > c-8 o1 c16 < a+4 o7 d-4 o2 d4 o9 f-4 > g- o6 c8 o3 b4 > d8 o8 c16 < g8 o4 f+ o4 c+16 o5 g+32 < g4 o2 b8 o7 d+16 o8 c8 o8 b-8 < e o2 d+32 o5 e-4 > d-32 > f-32 o2 f16 < f+8 o0 a-4 o5 b32 o7 e o6 f-32 o4 c4 o3 c+8 o0 a-4 < a8 o7 d4 o4 e8 o2 a32 > b16 o9 b o6 e32 o1 c4 o3 c-8 o1 a-8 < c o3 g+32 o7 b+ o3 g4 o4 b+8 o2 c+ o0 b+ o5 b8 o8 e o7 b+4 > a16 o1 g-32 o1 g-4 < f16 o5 d+4 o0 c+16 o7 a+16 o3 g-8 o8 a4 o5 f o1 a8 o1 g+16 o3 b-4 o0 e+4 o8 a32 o9 c16 o4 c32 o7 d32 o4 e-16 o2 e+4 o0 f4 o6 a+ > b-16 o4 e o4 b-32 o3 b4 o2 b16 o6 g4 o5 d+8 o6 c-4 o8 d4 o5 c-16 o1 c+32 < a32 o6 f+4 o1 d8 o6 e32 o6 d+32 > f16 o2 e+ o0 a- o5 f8 o5 f+ o4 f o4 b+32 o7 b-32 o9 e+8 o2 e-16 o5 e+8 o7 c4 o3 a8 o9 g16 o3 b-16 o6 f32 o7 f16 o4 g o9 e+8 o7 g+ o8 c+ o7 f+32 o5 b+4 o9 a-4 o8 e+16 > b4 o4 a16 o2 d4 o1 g8 o6 g4 o2 e-8 o9 c32 o7 c8 o2 d4 o7 d16 o3 b4 o4 e4 o1 c-8 o2 a o1 g32 o6 c16 o7 a o9 g8 < b o5 a8 o2 f o5 b+16 o7 a8 o9 c8 o9 d o7 a8 o9 a32 o1 e16 o8 c16 o0 e-16 o2 a+16 o6 d+8 o1 c32 o7 e+32 o0 a-8 o1 e-16 o5 g- o1 f32 o2 g- o1 b-32 o8 c+32 o4 e-4 o9 g16 o2 c+8 o9 c32 o6 a-4 o5 g4 o9 f32 o8 f+4 o6 c-16 o5 e4 o9 g+32 o3 g-16 o4 b8 > a- o9 b4 o4 b+8 o5 g-32 o8 d > d-32 o1 e8 o2 g16 o8 e4 < f+16 o4 e4 o1 b-16 < c o1 b-8 o6 a-16 o6 f+ o0 e8 o9 f4 o9 f+16 > b32 o3 d16 o9 e+ o8 e4 o6 d-32 o2 g-4 o1 d4 o4 g+16 o1 d+8 o8 d+4 o9 g+16 o4 g16 o5 a4 < g32 o6 c-4 o2 e16 o9 a- o5 d+32 o3 f+ o7 c- o1 a4 o4 e-8 o6 f-32 o1 a16 > a16 < g4 o4 a+4 o4 b4 o5 e-8 o4 f-32 o7 e > g32 o5 c o2 e16 o8 d-8 > b32 o9 c-8 o6 c-32 o6 g- o9 g4 o2 e+32 o2 b+ < a- o6 a+4 o2 d o5 b16 o5 a+16 o3 d32 o5 f-16 o0 e-16 o4 d-32 < a4 o9 f o4 d- < e- o8 c16 o1 b-8 o5 d-32 o5 g o8 f16 o6 e+8 > e8 o2 a+32 o4 d+16 o9 b-32 o9 c32 o3 f o7 a+8 < b16 o5 g o5 d4 o8 f- o0 a o7 a32 o0 f8 o3 d-8 o6 a32 o9 f-4 o1 b+4 o9 f4 > g32 o1 e o8 e16 o3 a+16 o0 f8 o2 a-8 o1 c o0 c-4 o4 e+32 o0 e+16 > c4 > d-32 o3 d32 o9 g32 o2 e32 o4 f- o2 g+16 o6 a4 o3 g- o9 b+16 < c16 o5 e8 o4 b4 o3 d16 o7 b8 o8 d+32 o9 f16 o6 g+4 o7 g-16 o6 e4 o6 f+16 > g-16 o0 g-8 o0 c o4 d+4 o5 a-4 o7 d8 o2 b o9 c4 o9 c > f+32 o8 f-32 o4 a+ < f+32 o9 f+4 o2 e8 o0 g- o9 c+8 o9 e o2 e o3 a+16 o6 c8 < b32 o9 b4 o3 g16 > e+ o0 d16 o9 f- < g8 o1 d+16 o2 g+32 o7 f4 o9 f16 o4 b16 o2 d-8 o9 e-8 < c-8 o6 d8 o1 g4 < f o4 b+ o3 a8 o6 d+16 o5 f16 o5 f+4 o9 c4 o6 e > e+16 < b16 o6 d-16 o0 d16 o3 a-32 o5 d- o6 b- o3 g8 o7 e-4 o5 g8 o9 d+4 o8 d8 o2 e-8 o4 d+32 o9 d+32 o4 a+ o9 e- > g16 > f-16 < d o6 b32 < e+16 o1 f+4 o0 b o7 f+4 o3 f4 o2 b+16 o0 g o5 a32 o6 g+ o4 a8 > a o2 c16 < d+16 < a+32 o9 c-4 o0 d-8 o9 a-16 o5 b16 < b16 o1 e-16 > g4 o6 b o6 e+4 o6 c > f o9 f4 > g-16 o3 e+4 o4 b+ o4 d8 o1 b+ o0 e16 o7 c- o6 d+32 o9 e o9 e+ o0 e+16 o5 c+4 o6 b-8 o2 a+32 o7 b4 > e32 o7 a o3 d-8 o3 a+16 o1 e16 o5 g o1 d32 o6 e32 o5 c o5 a32 o9 g8 o2 d8 o2 c-8 o0 d8 o9 c-32 o1 b4 o6 b32 o5 g+ o7 b+16 o3 a+8 o8 d16 o7 d-4 o9 a+4 o9 d-32 > f+8 o8 c8 o9 d+8 o4 e-32 o6 a-32 o3 b16 o5 b8 o6 c4 o6 a32 o1 c > b4 o0 f8 o5 a > a o8 a16 o9 c+16 o5 a32 o1 d+16 o4 d+32 o8 c-16 o0 g- o8 e-4 o9 a+8 o8 a32 o0 d4 o6 g-4 o9 a-8 o0 e o8 b32 > a4 o9 d-4 < a4 o7 b o6 b8 o8 g8 o7 b8 o1 b o5 b-4 o5 a8 o8 g-4 o6 e4 o2 f-16 o0 c > f-8 o6 b+16 o2 g32 o4 e16 o8 g o7 a4 < f-16 o4 e o2 b+8 o0 a4 > a8 o1 e-32 o5 f+ o9 d4 o9 b-4 o8 g- > a8 o6 g8 o4 g-16 o7 a-8 o8 f16 o1 g4 o5 d-16 o2 f16 > a-8 o0 c o6 a-16 o8 c32 o0 f+16 o9 d+4 o7 a16 o2 a < e-16 o0 d+4 > b+16 o8 c32 o4 g+16 < c4 < d-8 o0 e-16 o2 g > f16

midi-string-ensemble-1: o4 d-32 o6 c o2 e-4 o1 f o8 d4 o1 a- o0 e16 o9 f- o0 c4 o7 a+16 > f+8 o2 a+32 o9 e32 o9 a > a o2 g+16 o8 b8 o0 b8 > b+8 o8 a8 o2 c o6 e+32 o5 d+16 o7 d8 o4 g+ o1 b4 o1 f- o7 d-16 o5 c8 o8 a-4 o9 b+8 o8 f o8 e+ o3 b+8 o2 b-32 o6 g- o6 c+32 > a32 > d8 o7 d-32 o1 g o4 g4 o0 a32 o4 b o2 c8 o5 f32 o3 b4 o4 a+4 o7 e+ o6 c+ < d+16 o3 f-16 o9 f-8 o1 b+16 o5 d4 > a+16 < f- o7 b4 o4 f < d-4 o2 e4 o2 g+16 o7 c+8 o7 a32 o2 d4 o7 d-8 < a+16 o9 a-32 o5 d+16 o7 d-16 o2 a+32 o0 b8 o4 b16 o7 e- o1 b+4 o8 c o5 d16 o6 a+16 o0 e32 < g16 o5 e-32 o6 b16 o6 f4 o2 d-8 o4 a16 o8 b- o9 f32 o9 e+8 o0 e+ o6 g8 > b16 o4 c o3 a16 < b+4 o3 c32 o3 a+32 < c+4 o0 e-32 o4 e+8 < b+8 o2 d-8 o0 g+16 o7 b-4 o0 f4 > f-32 o0 e-4 o8 e8 o7 f-32 o1 g-4 o6 d+8 o3 c32 < a-16 o0 d-4 o2 f+32 o8 f+ o8 c-16 o8 c4 o8 b16 o3 a-8 o9 b32 o2 c-32 > d+8 o6 f16 o6 f8 o3 e- o0 e-32 o0 c < g-8 o4 d-8 > g+8 o2 f-4 o5 d4 o9 a+ o8 c16 o8 c- > f o3 b8 > c32 > g o6 g+8 o4 g8 o3 f o9 g+32 o7 d32 o5 g+8 o6 g32 o3 f4 o8 a8 o7 f+16 o4 e8 o4 b-4 < d-8 < f-4 o9 f+8 o8 f+16 o8 d-4 < b-8 o2 b8 > e-16 o3 b-8 o9 c-8 o2 a < a8 o3 c < f-8 o6 a-32 o7 d+8 < f16 o2 g+8 o5 f16 o2 a32 o1 c+8 o9 e8 o8 a- o0 c4 o2 c- > g32 o3 f o8 d4 o7 b-32 o2 d o3 b32 o7 a+8 o4 f16 o7 b o7 g+ o5 e-32 o4 c o9 e+8 o2 a+8 o7 d4 o7 g+16 o5 g-4 < d4 o2 a-8 o6 f4 o2 b16 o6 d-16 > a4 o5 c-4 o5 f4 o5 d8 < f32 o7 c+32 o0 g4 o0 b- o1 e4 o0 b o0 b32 o4 a o8 g8 o4 d < g+16 o0 c8 o6 c8 o9 f4 > f+ o1 a+4 o3 d16 o1 c16 o0 c16 o7 d+8 < f4 o5 d+8 o0 e+8 > g+32 o5 d4 o5 a4 o1 c16 o1 a+32 < a16 o1 a-8 o7 e8 > d+32 o2 c16 o6 g+ o8 a o5 c- o9 f+ o7 f-16 o7 g- o0 g32 o8 d32 o8 g-16 > b4 o3 f32 o6 a- > f4 o8 f8 o1 g+32 o3 a4 o4 g-8 < e32 o1 e+32 o0 g8 o6 b+16 o0 c32 o4 g16 o0 e4 o1 c4 o4 f+16 o3 f4 < d-16 o3 f16 o5 d32 o9 b32 o0 c4 > b+8 o0 c16 o0 e-4 o8 g-16 o2 c+32 o1 a32 o6 f16 o0 d o6 g32 < d16 > f16 o0 g-16 o5 c4 o4 d8 > g16 o0 d16 o9 d8 o1 c+32 o3 c+16 o3 b+16 > b32 o1 b+16 > b-8 o7 b+16 o4 c-32 o9 c+16 o2 f16 o6 e32 o9 c+16 o4 f+ o8 c-8 o3 e4 o9 d32 o0 f-4 o3 d-32 o3 g8 o0 d-16 o4 g+4 o5 f+4 < a4 o4 e-4 o3 b o8 a32 > e+8 o7 d+8 > c-4 o1 c+ o7 b+ o9 a+16 o4 d+4 o9 g-32 o4 c-4 o5 b4 o8 c+4 o7 a-8 o1 d+16 o2 f32 o0 e- < g+16 o3 d32 < b-32 o6 d-4 < g+32 o1 e-32 > a-8 < f+16 > c4 o3 c o6 a- o8 f- o7 e+8 o9 b- o1 d-4 o5 b+ o8 g+16 o0 f4 o9 a-16 o5 e o2 b16 o9 c- o9 c+4 o6 f-16 o9 g o9 f- o0 f16 o5 a+8 o9 d16 < g+ o6 e-16 o9 c+32 o5 a16 o8 b16 o9 b4 o5 f4 o2 d o4 d32 < a+4 o7 f- o6 c-32 o8 e16 o0 f-32 o2 a o1 e8 o8 b8 o9 c8 o1 a8 o0 b < b16 o6 f o3 a+8 o7 b4 < e+32 o4 a16 o9 d o3 c32 o0 g- o4 g+4 o7 f o6 e+4 o6 g+16 o0 b16 o2 e-32 > b+16 o7 b-4 > e4 o9 b+4 o3 c+16 o1 f-16 o8 g-4 o1 g+16 o6 c+16 o2 c o7 c8 o5 b+8 o8 a- o9 g32 o8 f+8 < a-32 o8 f+32 o7 d16 o9 e-8 o0 g4 o8 b8 o8 f+ < g- o1 f+32 o3 a-8 o6 d32 o8 c16 o7 a+4 o4 d+32 < c8 o8 e+16 o9 b+8 o4 d+8 o8 f+32 o5 e16 o8 e+16 o3 b+32 o4 g+8 o1 f-32 o2 a o7 a+32 o2 c32 o6 a-8 < e o6 d4 o2 g+8 o5 g o0 e4 o6 g4 o4 d8 o4 a4 o2 e+8 o8 g8 < b-8 o4 c16 o1 e+ o4 a4 o4 b+16 o5 g o7 c-16 o7 f4 o4 a+ > d-8 o5 b4 o1 b4 < c32 o1 e+16 < a16 o7 e+4 o0 e+ o5 c-32 o1 g16 o0 c > f+8 o8 c- o2 g+8 o1 c+8 o5 a+4 o7 c32 o1 f8 o3 b+ o6 b32 o9 g+8 o4 g- o9 b8 o2 a < b+32 o5 f4 > c32 o1 f-8 o4 c+16 o0 d+16 o4 b o5 d-8 o6 g8 o9 c32 o1 g+ < f+32 o2 b-32 o5 f+4 o6 g+8 o5 d8 o0 g+32 > b-32 o9 d-8 o6 a-4 o8 f > e- o9 c8 o7 c+8 o0 a+8 > f8 o3 f8 o9 a-8 o2 e8 o6 g32 o5 c- o1 g4 o2 b- o6 c-32 > f+32 o2 b4 o9 a+16 o6 f4 o9 c-32 o0 g-32 o5 f8 o0 g16 o1 c+ o0 b+4 o4 d32 > g+16 o5 b16 o7 f- o5 b+32 o0 d32 o4 c-8 o8 a8 > b o2 a8 o1 f32 < f16 o6 f32 o5 a+4 > d-8 > f+8 o9 f8 o1 e+8 o4 b-4 o1 d4 o4 b-4 > e4 < a8 o2 g-8 o4 d+4 o7 d32 o2 a32 o6 e+32 o0 e16 < b-16 > e-8 o8 f4 o1 a < a32 o1 c o9 d16 o7 g+ o3 g+4 o8 c o4 e16 o7 b+16 o0 a4 < b+4 o2 e+32 o8 e8 > c+4 o1 d+4 o0 d o0 d-4 > c+8 o9 g+16 o3 e4 < c+16 o8 d+4 o9 b16 o6 b8 o4 d o5 b16 o0 c+32 o0 f+32 > g o2 b8 o6 a-4 o2 c+ o7 a+4 o9 a16 o4 d4 o8 g8 o6 a+32 o4 g16 o7 d16 o9 a+4 o0 e-16 o6 c-8 o4 b8 o6 g-8 o9 c+16 o5 a4 < e-32 o5 a32 o2 g o0 f- o9 g o0 b o4 f+ o1 f16 > e4 o8 e-16 < f-4 o5 g+8 o6 g+4 > e+8 < c4 > e-4 o9 e o5 c8 o0 d+32 o9 g16 o6 g o7 d8 o8 c-4 o0 d4 o9 d8 o8 b32 o6 b32 o0 b o9 f+16 o3 g o2 b+4 < e+ o8 g+16 o7 e > d+8 o6 e- o5 e+32 > f > a-16 o1 d32 o4 f+8 o3 b-32 o6 f-16

midi-string-ensemble-2: o4 a16 o6 g32 o1 a-32 o8 a8 o2 d-16 > a-32 o8 c o5 a4 o6 f+32 o2 f+32 o0 f8 o1 g-4 > g+8 o0 c16 o7 e16 o1 f+4 o0 e+32 < f-8 o9 c o8 g8 o5 d32 < a < g+32 o5 b4 o1 d o3 g+4 o5 a32 o2 c32 o7 a < f+8 o6 f32 o6 b-16 o1 e16 o0 f-16 o6 d+8 o6 e16 o6 b16 o2 d8 < b+16 o1 a-32 > a32 o2 b+4 o5 g+32 o4 d-4 o5 b- o9 b+4 > g16 o4 g+16 o8 a-4 o3 f32 o8 f16 > d8 o6 c-8 < b32 o5 b o8 b-32 o8 b8 o1 f o4 a-4 o9 a-4 o3 a-16 o7 d-16 o6 c o5 d o7 a o7 d-8 o1 b4 o3 d-8 o8 e-8 o4 a4 o7 c4 o8 f-16 o0 g+4 o3 e-16 o9 e-16 > f- o4 a16 o2 g8 o8 g4 o0 f32 o1 a16 > f+8 o3 c-16 o0 e-8 o9 c+4 o5 c-32 > d+8 o7 a+8 o5 d-16 o6 a o1 f+4 o4 e+8 < g-16 o7 f32 o2 a o9 c+32 < d-16 o1 e o9 b4 < c-32 o0 a+16 o5 d8 o7 g16 o2 e4 o3 a < a+4 < a4 o0 g+8 o6 g-8 o8 b-16 < g- o0 d8 o5 e4 o4 c+4 o5 e-32 o2 f16 > g16 o5 b-4 o0 g o5 c16 o7 f4 o5 f- o0 c+ o4 c8 < g-16 o0 d32 o5 a-32 o8 a4 > g-32 o6 a8 > g-4 o6 b- o5 b+8 o7 b+ o0 e4 o4 e+4 o8 g4 o3 b-16 o2 c-4 < c- o6 e+ o8 e o9 d+4 o5 e-4 o1 e+32 o4 f-16 o2 d+16 o9 d8 o9 a16 o4 e4 o9 f16 o9 a-4 > a < b-32 o3 a+8 o4 a16 o6 c+32 o4 e o8 b-4 o5 e-4 > d-8 o8 f16 < b-4 o0 a- o6 g16 o5 d32 o8 f+ o9 f+ o3 g+8 o9 c-8 o9 f o0 g+16 o7 c16 o7 e+4 o6 a4 o9 e-8 o5 b4 o5 g-16 o5 b-8 o5 c32 > g-32 o2 f+4 o7 f o6 f-8 o0 b32 o5 d32 o8 a o4 d16 o6 b < e8 o1 f4 o5 d- o4 e32 o0 f4 o2 g-16 o6 g- o7 e8 o7 d4 < e-4 o0 d+8 > b- o4 f- < c o8 g16 o9 f-4 o0 b32 o1 e-8 o9 b+32 o8 e32 o0 f+32 o1 f+8 o4 e+16 o0 f-32 o5 d+4 o0 e+ o6 f-32 > e- o7 g o0 f+ o9 b+16 o4 g8 o2 c4 o2 g- o6 g+ o3 e32 < b+4 o6 d+ o9 d o9 b8 o8 g8 o5 d+16 o7 a- o6 c- o6 e o7 e-16 o2 g-32 o3 g+16 o4 g+ o7 f32 o2 a+16 o9 b-4 o7 a32 o5 f16 o5 f+32 o0 b32 o1 b8 o2 e-32 o7 a o5 f-16 o5 a-8 o0 e+16 o7 a-16 o9 a+8 o4 c-8 o0 d-32 o3 g4 o1 g16 o2 b+4 > b16 o6 b8 > c+ o3 g-8 o2 d-32 < g- o3 d o7 b- o5 c4 o4 c32 o4 g4 o4 b+8 < d8 o6 f16 o9 g4 o2 c32 o5 g8 o0 g16 o6 d o4 c+ o5 e o8 f8 o4 g4 o0 c4 o5 f- o2 a < e-4 o8 d-32 o8 d32 < a4 o4 g4 o2 e8 o0 f+4 o4 b+ o7 c+ o6 e+16 o3 f > g+ o5 f8 o9 a+8 o1 c32 o9 c32 o6 d+16 o6 b16 o1 a o9 e8 o4 b+16 o3 d-4 o8 g16 o2 f o1 b4 o1 a o6 g8 o2 c8 o4 a-8 o1 e o5 a o5 b32 o8 e-8 o3 e32 > c o7 e8 o1 g-16 o3 a32 < f4 o0 g-16 < b+4 < g8 o0 c4 o2 g8 o4 d+16 o6 g- o3 c+16 o6 a16 > g- o0 a-32 o6 g- o7 e < a4 o0 c+4 o8 d o3 g16 o0 d+16 o9 b8 o0 c-8 o2 a4 o6 d o8 f+16 o1 f-4 o6 e32 o1 a- o1 f4 < c16 o3 b+16 o4 c o9 g-8 o4 g32 o7 g-4 o6 c16 o9 b16 o1 c4 o8 c16 o3 c8 o2 b16 o4 a o2 f+ o7 a-8 > d32 o8 a32 o7 a32 o6 c16 o2 c+ o4 e-16 o6 c+16 o6 a o5 g o4 g o7 e o7 g-16 o9 e+8 > f o1 g16 o7 d-8 o0 b32 o4 f+32 o6 g32 o8 g32 o0 c8 o4 e-16 o4 e o6 c+4 o1 d4 o9 b o2 e-4 o9 f-32 o4 c16 o4 a16 o4 c+ o8 a+ o6 e32 o0 b+16 < a+32 o6 d-32 o2 g+4 o9 e+16 o3 c8 o5 d32 o8 a+4 o6 b4 < f+16 o9 e-16 o6 d4 o2 d32 o3 e16 > b+32 o0 f-8 o8 e4 o6 d-8 o8 f+8 > e32 o4 b+4 o0 a16 < f+8 < a-4 o6 b8 o2 c8 o3 d-32 > g-4 o6 b-16 o3 g8 o7 c- o8 a16 o2 e32 o7 d- o3 e+16 o9 f16 o9 d8 o1 b+4 > e+8 o9 b32 o3 a8 > f+ o8 c4 o0 a-16 o8 a- o6 d o6 c-4 > d16 o8 b32 o5 d+ o2 e-4 o6 d o2 e+16 o7 e16 o2 c+4 o4 f4 > e16 o0 e8 o3 b16 < g+16 o8 e- o5 g-4 o7 a32 o2 g8 > g-4 o0 a-8 o1 e-32 o6 c+16 o8 a- o7 e16 o6 g- o7 f16 o3 e-4 o5 b-32 o6 e-16 o7 e4 o0 f- o7 g+ o3 d32 o9 c o1 g-4 o7 d32 o0 f16 > b16 o7 a+ < b o7 e+8 o4 d-16 o8 d o4 f4 < f4 o2 d+16 < b-8 o5 e-16 o5 f-32 o1 f+16 > d+16 o1 b8 o8 a o9 b16 o2 d+ < f4 o1 b8 o1 a32 o5 a-4 o4 b16 o0 e4 o3 f4 o9 g+8 > d-8 o0 g o9 a16 o9 g- o7 f16 > b8 > d o2 g32 o3 g+ o5 d-8 o1 a o0 e o8 c+8 < c+8 o1 g32 o9 b4 o8 g o4 a+ o9 f+32 o0 g8 o5 b32 o0 e32 < g-8 o7 c32 o6 b+4 o7 c-4 o3 d16 o7 b-32 o8 e4 o7 c8 o1 a+8 o4 b-32 o4 b-4 o5 f+32 o7 e+16 o0 g-8 o3 d-8 o4 b+ o3 f-4 o9 b+ < d > b16 o0 f+32 o9 a-4 o7 b+32 o5 f-8 o5 f+8 o3 b o2 b o0 b16 o5 c32 o9 f16 o1 a16 < f-8 o6 g+4 o0 a4 o2 d4 > g+8 o7 a+8 o8 a4 o6 g8 o9 g8 o0 e-4 o2 e+16 o5 c+8 o7 c-8 < g o6 a16 o1 a4 o6 e+16 o6 g32 o2 b32 < b32 o8 g+16 o4 d-16 o7 a+16 o7 a- o8 b-4 > g+16 o0 b+32 < e- o2 a-8 o1 b+32 o5 b < c-8 o4 f4 o1 d8 o9 e+8 o3 a4 o4 d-16 o5 b- > c16 o1 c o8 e-8 o0 b-4 o9 d16 > b+8 o2 d-4 < e-16 o7 c+16 o3 a+8 o1 c4 o4 d-16 o7 g+8 o5 d16 o3 f-8 o3 e+8 > c8 o3 c32 o8 e-32 o3 a-4 o4 g4 o7 g8 o8 d4 o5 e32 o3 d+4 < f- o2 g+ o8 g32 o6 e-32 o9 a8 o1 e32 o1 a-4 o2 c-32 o9 g- < e4 o3 e+32 o8 a32 o9 a-32 < g32 o9 b4 o2 d4 o1 a16
