piano: (tempo! 45) o0 f4 o6 d-16 o7 f8 o3 g-4 o6 f+4 > e4 o3 d-8 o6 a- o0 a-16 o7 e o3 f8 > b-32 > c8 o4 b8 o1 c-32 < f-8 o9 a-4 o9 c+16 o5 b16 o0 b-4 o6 g+16 o1 e8 o1 f o1 c+4 o6 e o9 d-4 o4 b+4 o3 d4 > g- o2 d8 o1 g o6 e4 o3 g o5 e8 > f o2 a+16 o5 d o5 b16 o2 e16 o6 f o9 b16 > g-16 o7 a o2 d16 o5 f8 o0 e16 o5 b o8 c4 o1 c- o2 f+ o6 c-4 o3 g-32 o2 d+4 o6 a-8 o3 b-32 > g+32 o4 a+ o4 e < b16 o9 a8 o3 c-16 o9 b- > a+4 o6 b8 o8 c o7 a+8 o4 e-16 < c+16 o4 e o7 a+16 o6 d4 o7 g+ o2 b+ o3 g8 o7 d32 o3 g- o9 f32 o5 e- o9 f+ o2 g32 > e-8 < b8 > e+4 o1 d8 o3 d- o1 c > e+32 o7 d4 o3 g o0 a+32 o8 g-32 o7 d+4 o8 b4 o1 g o6 c-32 o5 g+16 o8 e8 o4 g+32 o7 c o4 d16 o1 e4 > b32 o7 e-8 o4 f32 o8 f8 o3 d32 o4 a4 o6 g32 < f32 < b32 o4 a-16 o1 a-32 o1 e32 o6 e8 o5 d- o7 f32 < g-8 o6 e4 < f+16 o2 f32 o9 e+16 o2 c8 < d+16 o1 a o3 b o9 d-4 < d+4 o6 g4 o0 a+8 o5 d o1 g-16 o2 d+4 o4 a o4 f o4 c32 > e+ o9 d-4 o6 g-32 o2 a-4 o5 b4 o5 b16 o4 e32 o0 b32 o0 b-4 < e16 o8 f > a+4 o3 a-32 o6 a+32 o1 f+4 > a- o5 f8 o0 a+ o9 b+32 o4 e16 o9 e+8 o9 f- o4 b+ o5 b+4 o8 f o2 a > d16 o7 d8 o9 d4 o3 g+16 o6 e32 o4 a-16 o7 f+ o7 a-32 o6 a4 > b16 o2 b+4 > b8 o5 b o5 c8 o5 b8 > f-16 o9 c < g- o0 g8 o7 c-32 o0 f16 o7 f8 o6 c o4 g-8 o7 g+4 o8 d-4 o2 c+8 o9 b- o4 c-4 o6 g+8 o2 e+8 o9 b-8 o6 b4 o3 e16 o8 d32 o1 d-8 o6 b4 o4 c-4 o3 f16 o7 f-32 o0 e4 o9 f o0 g+32 o2 d-8 o8 e4 o7 e-32 o8 c16 < g32 < b+16 o3 b+8 o1 b-8 > e32 o8 a-4 o7 f16 o8 g8 o7 f16 o9 f+32 o0 c16 o2 f32 o6 d+4 o0 a4 > g8 o3 a8 o4 b+ o5 f+ o6 d+ o0 d16 < b o7 a- > g+8 o6 e4 > c-32 o2 c+32 o6 e16 o6 c8 o3 a+32 o2 a-4 o6 c-4 o0 c+ o1 a- o4 b16 o8 e8 o2 b-4 o7 a-8 > c4 o4 d > g-4 o8 e+8 < f- > a-32 o8 f-4 o1 f+8 o4 g-16 < e32 o8 c-32 o7 f+32 o0 g32 o1 b-4 o7 e8 o8 c16 > a-4 o6 e8 o3 c-32 o8 g+ o7 f- < f-16 o4 c4 o1 a+32 > d o5 b8 o3 f8 o6 e < c- o4 e32 o4 a-16 o7 b o0 e+16 o5 c8 o5 g16 o9 c8 o7 a16 o2 e-16 o4 f+4 o8 d-8 o7 c+16 o9 f16 o3 a8 o1 g8 o2 d-4 o9 f8 o1 b-8 o1 a+16 o3 b16 o2 g+4 o3 c o2 b32 < d16 > d8 o0 c+8 o7 c-4 > c32 o7 g32 < g+16 o2 g o7 e+ o3 e32 o1 c- o1 g32 o7 c+8 o0 b o1 f-32 o9 g-4 > c- o4 g8 o5 a-16 o8 d < a4 < b+8 > e+ > c-4 o5 g8 < d-32 < e+32 o4 b4 o3 d-4 o6 c4 > d-16 o5 f+8 o5 a+4 o9 c- o5 e+16 > f8 o5 g+8 o5 e16 o5 f+32 o5 d16 o0 g+16 o4 a16 o9 d8 o9 a8 o0 g-32 o2 f4 o9 a4 o6 f+16 o1 f+16 o4 a+32 o5 d+4 < b16 < f8 o4 e+4 o8 a-16 o9 c+4 o4 a+8 o0 g16 o6 a+32 o0 g32 o3 a4 o2 d8 > d-4 < g-16 o3 d4 o4 b o5 e o6 d+8 o7 g-16 o4 e+4 o9 d+16 o6 b-8 o8 a32 o1 g32 o9 c4 o6 c+4 o5 g o7 e o7 e-32 o3 f4 < d32 o7 b16 o2 d o6 g o4 c > b16 o8 g4 o4 e+4 o5 d-4 o9 b16 o4 d-4 o0 c o4 c-32 o4 a8 o4 b32 o1 a4 > c-4 o2 a o8 a o0 a8 < a4 o2 b8 o6 a8 o9 c-8 o8 e-16 o3 c+4 o4 b+8 o8 e-16 o0 c+8 > c-32 < e-4 > f16 o1 c16 o0 b16 o0 g16 < d-8 o7 d-16 o9 g+16 o2 c-16 o7 b4 o1 e4 o6 g4 o5 f-32 o3 c-8 > g- o1 b+16 o1 f+8 o2 a8 > a32 o9 d-8 o6 a+32 o6 f-8 o5 a16 o3 f32 o3 f32 o3 g-8 > g+16 o7 e-32 < e-16 o4 a32 o8 f+ o7 a4 o7 d-32 < f8 o7 c-4 < e16 o2 f-32 o4 b-16 > a-8 o5 f+8 o3 b16 o6 c32 o9 a+8 o4 b32 o5 f4 o6 e8 o6 c8 o8 c o8 f+ o6 d32 > d- o9 b4 o2 c-16 o1 f-32 < d4 o8 d8 < b < b+4 o5 c8 > a32 o4 c+ o9 g+4 o7 b+8 o8 g-32 < f+8 o8 a32 o5 b+4 < f4 < c o1 c+32 o0 f+32 o5 d+4 o1 g16 o9 a-8 o3 d4 o2 g32 o7 d-16 o2 c+4 o7 f16 o1 e16 o9 a+16 > a+16 o6 g-32 o4 f4 o5 e+32 > f32 o9 a o1 b-16 o7 e+ o0 e16 o1 g32 o7 b32 > e16 o1 e+ o7 c-8 o7 a32 > f32 o1 a-8 < a32 o8 b+16 o5 a-4 o9 a16 o8 a+ o8 e-32 o9 c-4 o5 d-32 o0 d o9 a- o6 d+4 o3 a- o2 d+ o2 a+32 < b-8 o9 a+4 < c+4 o3 d16 o8 d-32 > b-32 o3 b+ o7 a4 o0 a32 o3 b+32 o0 b o6 e+4 o4 a- o3 g4 o1 c4 o2 b o1 d-32 o1 f16 o7 d+ o3 g-8 o8 d4 o9 f8 o5 c+ < c8 o6 a o8 d4 o0 g16 o8 d+32 o7 g-8 o2 g8 o5 e8 < a-8 o7 d4 o7 g+4 > e16 o0 e16 o2 b o3 c32 o7 b-4 o7 b > d32 o1 c+16 o4 e4 o0 a8 o3 a32 o1 c8 o6 e32 o7 d o7 b32 < a16 o4 a32 o8 b16 o6 d-32 o2 g4 o3 b32 o5 e-16 o0 a16 o6 a8 o0 f-8 o9 f16 o0 b4 o1 c32 o9 d8 o8 d16 < g4 o5 c-32 o4 d16 o8 a-16 o5 g-32 < c-8 o5 b-32 o2 a+4 o3 g+4 o1 a+16 o5 c-32 o0 a o4 c+ o6 f+ > c32 > c o9 d+32 o0 b-4 o3 g+16 o2 c4 o8 g4 o5 b+32 o6 g8 < a o8 c4 o9 f8 o4 c+16 o8 c32 o1 b16 o9 a4 o0 g32 o2 c16 o6 d+ o4 c8 o6 e+ o9 d8 o7 b8 < c+8 < c- o7 a-8 o1 g4 o2 d+16 o8 c-16 o2 e+ < d8 o6 g+ o5 g-8 < b+16 < g16 o0 f- o0 d- < c-32 o1 e- < b- o5 b+32 o4 e+16 o1 b32

midi-string-ensemble-1: o5 c+16 o4 f o3 e+ o0 b- o4 a o4 d4 o8 b+4 o6 g16 o0 c4 o0 g16 o9 e o6 f+4 o1 e+4 o1 g32 o5 e32 o9 e+ o9 g+32 o5 a4 o0 b o8 g16 o0 c32 o5 a+16 o6 e16 o2 d32 o3 c32 o4 g-32 o4 e16 o9 a- o9 d+16 > d-32 o6 g4 o5 e-16 o4 d+16 o2 f16 o8 f-4 o4 f-16 > a-16 o1 d o0 d-4 > g o7 e+4 o3 g+4 o7 e+4 o6 e o5 d+32 o4 f8 < f-4 o9 f16 o0 a- o5 b o9 e-4 o0 e4 o7 a8 < d+4 o3 f o1 e+4 > d8 o2 a- o3 c16 o4 e-32 o9 g > e16 o2 c+ o1 f+ o0 a+8 o1 b+32 o0 b+16 o9 e+16 o6 g8 > b+4 o0 d o3 d4 o1 g+4 o3 e- o8 d- o1 f+4 o2 c-32 o4 f8 > b16 o3 d32 o9 f4 < d-16 o2 c- o1 d32 o7 f o2 g- o9 g32 o4 b+8 o2 d o8 a8 < b+4 o4 a+32 o2 b+8 o5 d-32 o9 a16 o0 e- > c+4 o7 c8 o7 g32 o0 a- o2 d-8 o8 d-8 o0 e8 > d32 o0 g o6 d+ o1 g32 o2 c-32 o8 c- > c-8 o5 d- o1 g- o7 c4 o0 d-4 o7 f+8 o1 c+ o5 c4 o1 f+ o3 a8 < b-8 o0 g32 < a+32 o7 c-16 o2 b o4 b+16 o8 g+32 o8 g32 o4 a8 o6 b+16 o1 g+4 o6 d-4 > c+16 o6 f4 o1 f+4 o7 f-4 < e4 o3 c+8 o9 e+ o2 c4 > d o5 g-8 o8 a+8 o6 f- o9 b-16 o3 b-4 o0 c4 o9 g+8 o1 d- o3 e+8 o0 c+16 < f+8 o5 e16 < e+16 o4 f8 o4 d o4 d-16 > g+32 o8 f4 o0 c32 o8 a-8 o0 c+32 o5 f o5 e-32 > e32 o6 d o5 a-4 > a16 < c8 o4 g8 o2 g+4 > b+4 o6 b o3 g32 o2 c o6 e < c-4 o0 b4 o4 d+4 o7 e32 o9 d+8 o5 e-16 o9 b32 o7 b32 o7 e-16 o8 e16 o3 d4 o4 e-4 o3 d o2 a4 o0 d16 < a8 o6 e-16 o1 c16 o4 e+ o1 g4 o2 d4 o9 c4 > f+32 o0 e-4 o7 g+ < f4 o8 c16 o1 e+ o9 d16 o3 f32 o4 f4 o9 d-4 o2 b32 o2 a16 o1 a- o6 a- o6 g-4 o9 f32 o0 g-4 o3 e-4 < b+16 o9 e+4 o2 d-8 o6 e32 o2 b+32 o6 f32 o2 e4 o9 d-16 o3 b- o8 a-32 o1 e-4 o7 c+ < c+16 o9 b4 o2 b8 o1 g8 o1 g4 o9 a16 o6 g8 o6 a8 o1 d32 o6 a8 o1 f-4 o3 c32 o6 c+16 o0 g8 o1 d32 o4 g- o9 a4 o8 b-16 o8 c-32 o8 c-32 o5 e+32 o1 d-16 o0 d-4 o9 d o0 b-4 < f+ > b+4 o0 f+16 o3 b8 > a- o9 e4 < b32 o0 a+ o5 g8 o7 e-32 o7 d o1 f32 o3 b o2 c4 o3 a-16 o8 f-32 o8 e- o8 g-32 o3 c- o0 f+8 o2 d+32 o5 e+ o5 f32 o2 g-16 > c+4 o5 f+ > g+4 o2 e4 o1 f-32 o5 f o8 g4 > a- o5 a < a16 o1 a+32 o6 f+16 o5 c+ o6 a8 o9 g-4 o0 f8 o2 a32 o8 d8 o5 g o4 f-8 > e- < g o9 b-8 o4 f32 < e16 o3 f+4 o7 c+16 o1 a32 o1 d-4 o2 f- o7 e8 o9 d o8 g+8 o0 d+ o4 e o8 d-32 o8 c+8 o3 d+32 o0 b4 < c-8 > d16 o4 f+4 o6 f4 o7 e- < f-16 o6 f-8 < g+16 > a4 o5 b o0 a+4 o1 e-32 < c32 o8 f-16 o9 c-32 < f+16 < c+32 > g-16 o3 d-4 o2 d8 o5 c-32 o6 e o6 e+ o6 e16 o6 f-16 o4 e4 < b16 o4 d+32 > a+8 o1 g4 o4 g4 < d-32 o7 e-16 < a32 o5 c4 o5 c16 o7 f+4 o9 e-16 o4 g+16 o3 a-4 o0 a+4 o6 g- o9 b+32 o0 c- o4 c- o7 f16 o5 b+8 o1 e8 o2 e o9 a32 o3 a-32 o2 g+16 o7 f32 o0 c+4 o7 g16 o6 d- o4 f+32 o2 b4 o8 f+8 o9 g32 > e32 o6 c-8 o9 e-16 < a8 o7 g8 o6 a+4 > a- o0 d+ o8 g4 < d32 o2 b4 o6 g > e+32 o3 e4 o7 a8 o2 f-4 o6 b+ o4 d16 < c-8 > g4 o9 e16 > c16 > c8 o1 c-8 o2 d32 o1 c4 o4 f+ o0 e-4 o8 f+4 o9 b4 o0 b-8 o9 g+4 o6 c8 o5 c o5 f-8 o3 a- > d- o7 c o4 a o6 g8 o3 a+32 o3 g16 o0 e8 o8 b-8 o0 b+8 o7 b32 o4 c-32 o4 a+16 o2 g-16 o6 d+16 o7 b+8 o4 b-16 < d4 < a32 o7 f-8 o3 d+32 o5 b32 o6 a- o8 f o1 b8 o0 e+16 o4 b16 > g-4 < b o6 d o0 g16 o6 g16 o0 g+4 o4 a-8 o5 g4 o1 c-32 o9 e16 o0 f32 o7 d8 o7 f32 o6 c o4 d-16 o1 c16 o9 e o3 f16 o0 e+8 o1 d32 o5 f+4 o2 f-8 o4 c+4 o4 g4 o1 a+16 o6 g16 o3 b+32 o7 f+4 o8 a16 o5 e+ < f o0 d4 o1 g4 o0 g4 o8 b+8 o1 c o5 c o0 b-4 o1 g4 o0 e-32 o7 d32 o6 c-16 o8 d-32 o8 f+32 > c16 o9 f8 o5 c32 < c4 o6 f32 > e-8 o9 f32 o0 g16 > g+8 o5 e- o5 g32 o0 g8 o0 b32 o2 f16 o6 e+32 o5 d-8 o5 g-32 o4 e8 o3 c4 o5 c > e+32 o6 d32 o3 e o4 g8 o9 f4 o0 f o1 e+32 o6 d-4 > e > b+16 o8 g8 o5 d+8 o2 g-8 o5 e+16 o7 f+32 o5 a-4 o6 f+16 o0 g- o3 g-32 < f-8 o4 e32 o6 f+8 o7 g o9 c-8 o1 e o7 c32 > a32 o3 c16 o3 g4 o5 e o5 f o0 d-8 o2 f4 o6 e+8 o5 e+16 > e8 o7 d+8 o2 f- o0 a-32 o4 g8 o5 a8 o2 c- > f16 o6 f+16 o4 d16 o6 g8 o3 g8 < a4 o9 e4 o0 a o3 g8 o2 d-8 o6 c16 < g+8 < a+16 o5 e o1 f-4 o0 a32 o7 g4 < f32 o6 a16 o5 c16 < a-8 o7 c+8 o2 f16 o9 b32 o1 g > e o9 c8 > f-32 o5 g4 > g16 o3 g16 o9 a o3 e o5 d4 > c16 o8 g-4 o3 g4 o5 a8 o5 e32 o9 c16 o0 f o0 f- o3 a o5 f-4 o1 g-16 < d+4 o0 b8 o4 e-4 o2 b8 o8 e+ o2 c4 o4 a o3 f+8 o7 g16 o2 a+4 o6 g16 o0 g+4 o7 g+8 o9 a+4 o4 b8 o2 a-8 > d+4 o6 c+32 o0 f+8 o0 b+ < b-16 o0 c8 o7 f8 o0 e o4 e o7 d16 o6 c o2 f4 o7 f16 < b+16 o8 a o8 c o4 a16 o0 c-32 o8 e16 o5 f-32 o1 a+4 o2 g o1 f+8 o7 g8 o0 g32 o4 d8 o2 a+ o4 b32 o7 c+4 o6 e32 o3 c+4 o9 b o6 a32 < b o3 a-8 o6 e16
