piano: (tempo! 20) o2 e/d16/g+16/e+8/c-4/c+8 o6 f-4/d-4/c+4/c-/c+32/a32 o6 f16/g32/b32/f/e8/a4 o5 d4/e+/e-32/d+4/b+32/b32 > e16/c8/a16/e+16/c8/e o2 a-16/d+16/b8/b32/d+/b- o5 c/c-/f16/e-32/a4/f8 o6 e16/b8/a16/a-4/b+4/b- o7 f8/f-8/b-32/a8/f16/g+8 o7 d/b16/f/f/d8/d+16 > c-32/b4/a32/c+8/g-8/c-32 o5 e8/b+4/b8/e+8/f32/a-16 < a16/f+/b32/f-8/c+8/c32 o2 d4/e8/g-16/g8/d-32/b-4 o2 c/b-/a32/a4/g4/c+16 o6 a-4/c-/g16/g+4/b16/a-32 o4 c4/d4/f-16/f+16/g-32/b-4 o2 e32/a-/a-/g+32/e/d32 o3 g4/f+16/f+16/e16/g-/a+4 o2 d+32/c-/d+8/b/g+/f+16 > a/f/a8/g-4/c-4/e-8 < a8/e8/c4/d-16/g-16/f+32 o3 c-4/f32/g+32/e-/b32/e16 > b/e4/c/f-8/d8/a o7 f-32/f8/d-/b4/a8/f32 o7 d8/g-32/a-8/g16/g4/a+8 o7 b8/a-8/g+8/a-32/a8/f8 < c+16/a16/a4/d4/d-4/f+8 o2 f+8/c-32/d8/d-/e+/e-32 o2 c+/b-8/e4/d32/d16/d32 o4 b+4/f+32/a32/f+16/f+4/a o3 d8/c16/a-4/a-32/e+8/f- o7 g-16/e8/e-/c/d16/f4 o2 e32/f-16/b+8/g-/a32/f-16 o4 b8/c/a-/d4/d16/a- o6 g-8/g4/e-8/e-8/g-/b o6 d-/g-32/b4/b16/a-/b4 o2 c-/f-/e4/c+8/e-/d8 o2 d4/c/f+16/a+/b-16/f+32 o2 b8/f16/d8/d/f-4/f o4 f-16/b+32/a+4/a-16/e/g-8 o4 c/a+32/d+4/d/b4/f+32 o6 e8/d8/g-16/c+32/d4/c+32 < c/e+32/d/c+32/e-4/f4 o4 g4/a+/g+16/f-32/a-/d-8 o5 e-16/b+8/a/f+/a-4/b+16 o6 d8/c-4/d-8/b8/a-8/e+16 o4 e-16/e/d/f/b+8/g4 < a16/a+/a+8/c+16/f16/d+32 o4 c+/f32/g/b+32/c-/g16 o5 b+32/b4/b-16/d+4/g+/b > e/b/f-8/d+8/g+16/b4 > g16/a+8/c-8/g+16/g32/b4 o4 g8/d+8/g-8/g8/f+32/e8 > f32/c4/d/d8/b4/b32 o2 a/e4/c16/e/c+8/f32 o5 a/d8/e8/d32/c32/a+ o6 f+16/c-4/f32/c4/g/b-8 < f8/e16/b8/b-8/d-32/f8 o2 a-8/a4/g/a-/a+4/d-8 o7 f4/f/e4/g+/a8/g+32 > a-4/b-16/f-16/e-32/b8/f32 o3 c16/g-32/g-8/c16/a+/f-32 o5 g-16/a8/e+16/d32/d4/c4 o6 b/e8/d/d+16/g-32/e- > a-4/g-16/d+4/g4/e+4/f32 o4 e-4/b+4/a-4/b-8/c8/d16 o6 b4/b4/b/c32/b+16/f-32 o4 f+/c4/e+16/d+32/b-32/g4 o7 f16/e32/g/c+32/e8/g+32 o4 g8/c-4/a8/b4/d32/d16 o6 g+32/e+4/c-32/e/f+/f- o3 a-/b32/g-32/c-8/a-16/g+32 o6 c8/c+8/f+8/e+8/c16/c16 > e32/b-/b-/f+8/d-8/f-32 > a+/g8/c/g8/a+8/d+16 o2 d32/b4/e+/d8/a16/f-16 o4 g/e+/c16/e4/d32/d8 o4 e+8/b8/f4/f-16/d/a32 o4 f8/b32/b32/b-/d+/c+16 o7 g+16/a+/e16/c-8/c+32/e4 o6 c4/b32/g8/b-/g32/a4 o3 e4/e4/c-32/b4/f32/b8 o3 d+/e32/d4/f+32/b+8/e-4 o6 d16/g/b4/g/b32/f+16 o7 a8/a8/f8/b-4/d/g8 o4 f8/g-/c-/e8/c8/e-8 o2 a16/d-32/g+4/g32/f+8/b+4 o2 f16/a16/b+4/g16/c-16/e8 o2 g32/f-/g-16/g+8/f-/e+8 o2 c-/g-/f8/d-/d+32/c8 o5 c16/c/b32/g+4/c-8/c < d+32/b+16/e-16/d-8/d+/f16 o7 c+/a+/c4/c-/d32/c4 o4 b16/g16/b16/d4/c+8/a-32 o2 e-/d-8/a/f8/g+4/e+4 o6 c4/f+4/b+4/a+8/f16/f-8 < f16/g+16/g16/b+4/a+4/e+ o3 e+16/c+4/g+8/g-/d-8/c+4 o4 c32/f/e+8/b+4/f+16/e16 o4 b32/b-/a32/a32/f8/f-16 o2 g-32/g-32/c8/b16/f16/d-32 o6 g-32/e+4/b+16/a-4/g16/b4 o7 e+/d4/f-/b/g16/f8 o5 c+32/f-8/c-8/e/d/b+8 o5 a+4/c-32/f4/e+4/d16/a4 < e32/a+32/d-8/c-16/c+16/g16 o7 g+4/e/g+4/g32/e/c+16 o7 d4/e4/g4/a/a4/g-4 o6 c/a-/e+8/b4/f-16/f-4 o4 d8/b-32/e8/f/a4/a8 o4 g16/b16/b-/f8/a-/g+8 o4 f+16/c+16/b+4/f4/a16/a8 o5 g-/f+/d-16/f+16/g-32/d o2 b-4/f4/f16/f16/g/f- o7 d-4/c/g+/d+8/f+32/d- > d8/c-16/f-/a/e32/c8 o3 e-8/e+8/a+8/g16/d/a- o2 d+16/d+8/f4/e/d4/b16 o5 a-4/b+8/b16/d-/b32/e4 o7 g+/f+/c-32/g16/c/d4 > g+8/c-16/a+16/a-32/f-8/d8 < c+/a4/c-4/a-4/c32/f16 o7 b-8/f32/f-4/c+8/b4/a+8 o2 g8/c16/c-/d32/a4/g8 o5 e-/b8/c+16/f+4/d4/a+ o4 f-32/b8/a4/g+/d+16/f+32 o3 c8/a-32/e16/d+32/c-8/d o4 b-4/b-8/e16/g32/e-8/c4 o3 d+/f-/a+4/d+16/c-32/g8 o4 d32/f+16/b4/e4/d+16/e-4 o5 f16/c16/e-/g+8/g-4/g+16 o5 b/g/c+16/g+16/e/c32 o4 e+32/f+4/f-16/a-4/g4/g o7 d8/f-8/a8/e+16/d-/a-8 o3 g+32/c8/d+16/d-4/f+8/f16 < c-32/d8/f+4/g+/e-32/d+ < a-/b32/g-4/b32/b32/b32 o2 e/b4/f+/f-16/e32/f o7 f8/g-8/g32/b-32/g8/g-16 o4 d+4/e32/b+8/g8/f-32/f-16 o3 g+16/d-/g/c+4/g+8/b- o7 g-32/c32/b-8/b16/f+32/c+4 o4 b+4/g-/d8/a+32/c+8/d4 o5 f16/d16/c32/f16/g/c4 o3 b/d+32/d-4/d8/a+4/a+8 o4 e4/e/e/e-4/f+32/f8 o7 f32/d+8/d16/c/e-8/c8 o2 g32/g+32/a+32/a32/f8/g-8 o7 a+8/d32/b-16/f32/e+32/b o6 c32/d8/g32/d-/f4/c16 o4 a/g-4/d4/f+4/f+4/f-16 o3 g-4/b16/e16/d+32/b+32/b+ o4 f16/d4/c8/g-/c/b16 o2 e16/f-4/c+4/d/g-16/d16 o2 c-32/b16/f-8/g4/e+8/c+4 o6 f-4/c-8/e+16/g+32/e+32/g4 o2 e/g8/c-/a+/f-/f o3 c32/b4/b-16/g-16/d4/g8 o2 f-4/c-8/e32/g8/b+16/f-32
