piano: (tempo! 10) o5 b+16 o5 d+16 < c8 o3 b8 o4 f- < f o5 c16 < e+32 > a8 o4 g-16 o3 b+8 > g8 o4 b- > g+ < g o7 c-4 < d-32 < e+8 o5 b+16 > g-16 < g+ < c16 > g4 < g16 o5 a8 o6 c+32 o4 e-32 o7 b-32 > e16 o7 a- < d4 > d+ < g > a+16 > d32 o6 d+ o6 a-16 < g o7 c < f8 o5 c16 > c4 o5 e+32 o4 a32 o5 c+4 o5 e4 < a-4 o6 e8 o5 e+32 o4 a- o4 c+16 > a16 o5 e- < e+8 o7 f-8 o7 e16 o3 c-4 o3 d+16 > d-16 o6 f8 < d8 o7 f+ o5 a16 o7 e-4 o4 f-16 o3 b4 o6 f-32 > f-8 o5 d-32 o5 f4 o6 f+32 > c+ o7 d+4 > d8 > a+32 o4 f+16 o6 a+16 o4 d-8 > f16 > e-32 o5 c32 o4 a-4 o4 a o3 g+32 < a o3 c-4 o6 b-16 o7 d16 o4 d16 o4 d-16 o4 f-8 o6 f-16 > c+4 o3 e-8 o4 b+ < f-8 > g+32 o3 d16 o7 b+ o5 g+32 o4 f4 o5 f32 o3 g16 o6 d-16 o6 e+32 > f+32 o7 b-16 o3 d < e+16 o3 d4 < e+8 > f-4 o4 c-32 o5 g+4 o6 e32 o6 c-16 o4 e4 o7 d8 o7 b-32 o5 d-4 o3 b4 > b4 o5 a- < c4 o5 d4 o3 a32 > a o7 d32 > b8 o4 d16 o3 a+8 o4 e32 o6 d8 o7 a- < d > e16 o5 f16 o4 c-32 o6 g+4 o6 b8 o3 g > c+16 > c4 o7 c-32 < b8 o3 g-32 o6 f+32 o7 g-8 o5 d-16 o4 e8 o3 f o7 g-8 o4 f- > f+ o6 b-16 > e32 o7 d- > f4 o3 c+16 o4 a-8 o4 c16 o5 d4 o7 d-16 < f o5 g+4 o7 g o7 f8 o5 e+8 o4 d < c+ o4 f+8 < a-4 o7 a+4 o7 d+8 o7 d8 o3 a4 > g- o4 e-16 o7 b-16 o3 d+16 o3 d-32 o5 b+ o5 e+4 o4 d-8 o4 e- o6 d+4 > b32 o6 d16 o5 e4 o5 g+8 o3 e+16 o7 e16 > e32 < d-8 o3 e > b32 o6 a4 < a- o5 b+8 < f32 o4 a- < d4 o3 d o4 f-4 o6 a-8 o7 e+32 o7 g+8 o6 d-16 < a4 > e-8 o7 a32 o3 g+8 > f16 o3 f+8 < e-4 o6 e- < f16 < a+16 < a16 o4 g32 o6 e < e o4 a+16 < g8 o5 f-32 < b4 o3 b8 > d32 o6 d-16 o3 f32 o4 d+4 > c-16 o6 b > e+16 o7 d+ o6 c16 > c-8 o5 e8 o5 b+ o3 f-8 > d8 > d o4 d o7 g8 o3 g16 o5 a- o4 f4 o3 c-4 > g+8 o6 g o3 b-8 > g8 o7 c+16 o5 g o3 c16 o3 a+8 o7 c8 < g+8 > a+32 o6 g4 < a+16 > e o7 c+16 o6 c8 < c- < g+8 > e-32 o7 c > f8 < b-16 o4 f4 o4 d o3 f16 > f16 < a+32 o3 a-16 o3 b > a-32 < b > g8 > a-16 < b+4 < c4 o3 g+4 < e16 o6 a16 > a16 o5 b+ o4 a+8 < d-8 < g32 o3 g-8 > b- > f4 > f-8 > e-4 o7 g8 > f32 o6 a16 o3 g+8 o6 g-32 > c+16 < b16 o3 g32 o4 f o4 b32 > e-32 o4 e > e-4 > d4 o4 d- o5 c8 o3 c o5 f- o3 c32 > e+16 o4 b4 > c32 > c o7 g4 o5 d+32 o7 a16 < g o7 g+8 o7 e-32 o5 g+8 > b4 o4 g-32 o4 g8 o4 f+8 o5 d32 o3 f8 o7 f4 > b32 > c o7 d8 o7 d16 o5 b32 o6 a o7 b+4 < c8 > e+16 o4 f32 > c-32 o3 b-16 o3 b16 < d32 < e > f8 o5 g > d+4 o6 c32 o7 e-16 o6 d- o3 c-16 o3 c32 o5 e-8 < f-32 < b+32 o4 d-4 o7 b-32 o6 e-32 o7 e8 o3 g- o6 e+ o4 d o5 g o5 a+32 < a+ o6 b32 o7 c+ o6 d4 < b16 o4 c16 < b- o4 c-8 o4 g8 o5 f8 o5 a16 o5 e32 o3 g16 < e4 o7 g o6 e+32 < d16 o4 e+32 o7 d-32 o3 a32 o4 a8 > g16 o3 f o3 b8 o5 a o3 d+8 o4 g-8 > c o7 b8 o5 d+16 < c-4 o5 d+8 o6 g+16 o4 d > a+32 o7 f+ o3 c-32 o7 d-16 o5 c+16 > f+32 o7 g16 o4 b16 > d o6 g8 o4 f+16 < b+4 o4 f+ o6 f+8 o6 b+32 o4 e16 > d o6 a > d32 o7 f-16 o4 a32 o3 e4 < f+ o6 c-8 o5 c-32 o7 f+32 > g+32 o7 d4 > d8 o7 a+16 > b4 o7 c8 o7 e+4 o6 e o7 e32 o5 g+ o7 a-4 o5 c8 > a32 o4 a16 > g8 > d-16 < g32 o7 c+4 o3 e8 o3 f4 < f-8 o4 b32 o4 f-32 > g16 < d-4 o3 g- o3 e8 o6 f16 o4 f o7 e o7 f+4 o7 f8 o3 d o7 a16 o5 f+16 > b+8 < f+ o6 a+ o7 d8 o4 g+ o6 c4 o4 e-4 < e8 o7 c32 o4 b+ o5 a+32 o7 e16 < b-32 o5 b+ o5 f4 o3 e+16 > e8 o3 e8 < c4 o7 g16 o6 f-32 < f+ o6 c+16 o5 f32 o7 e- o4 a4 o5 a16 > c- o3 d8 o6 a o4 c-16 o7 g o4 a4 o7 e-16 o7 b+16 o5 e+32 o5 c4 o4 d+8 > a-8 < d16 > c8 o6 a8 o6 d4 > g8 o4 c-4 > g-16 < f4 o5 e8 o7 c+8 o6 b8 o7 e o7 a16 o7 f+32 o4 g8 < d o6 a+ o5 g-16 < e8 > a- o6 a-8 o4 a32 o5 b4 < b8 o3 e+8 o3 g8 o5 f4 o4 f16 o6 f16 o4 c o4 f+8 o3 g+8 o5 c+4 o4 c+32 o3 c < e-32 o5 f16 o3 d-8 o6 e o4 c4 o4 g-8 o4 b32 o6 a-8 < e-4 > d4 o5 b o7 a+ o3 f+ > b o7 e8 o4 f o5 g16 < c+16 o3 g-32 o3 g-16 o6 c+8 < g- o6 a8 o3 f+4 o3 d o6 c+16 o5 g-16 o3 e-4 o6 f+ > g+16 < g8 o5 d o5 d32 < c32 o4 d+32 o4 f16 o3 a8 o6 g+4 o6 e8 o6 d+32 > e+16 o3 d-4 o5 d4 o3 d16 o5 b16 o3 a o3 e-4 o4 f o6 e16 o7 b8 > f+ o3 c16 o5 e- < g-16 < f32 o5 f o7 g16 o5 a32 < f+32 o4 a32 < g- o4 a-32 < f+ o7 a4 o6 g+32 o7 c-8 < a16 < a-8 < a8 o6 c+8 o7 a-16 o3 e16 o3 e > d-16 o7 d4 o5 e-32 o6 b16 o6 c-8 > d16 o3 f4 o6 d8 o4 f+8 o5 c+4 < b-16 o4 a4 > c4 o7 b+4 > a o3 d- o3 g o6 g8 o4 a32 o4 g o6 a+8 > e8 o5 g-32 o6 f16 o5 f8 o3 b+8 < b+8 o5 g+16 o6 g8 > d+ 

midi-honky-tonk-piano: (tempo! 10) o7 a4 o6 c16 > d32 o5 b32 o6 a8 o6 f+4 > d+32 o5 g32 > d < b+ o7 a8 o5 e8 < b-16 o7 b+8 o4 d8 o6 a o3 b+16 o6 d16 o3 e+8 o7 b+4 o3 a o7 g16 o3 c16 o4 g < a+ o6 c8 > c16 o3 e4 o6 b32 o5 b32 o6 g+16 < d+16 > b-4 < d- > d4 o4 d16 o4 c-32 o3 g+ o7 c16 o3 d+16 o5 b4 o7 f4 o3 d16 > a- o5 e+8 o4 e+8 o5 a+4 o7 f+16 > e-4 o5 g+4 o3 b8 o7 d32 o6 b+4 o3 a32 > a+4 o7 b o7 d16 o4 f32 o3 a o5 e-8 o6 a- < e+32 o3 d+16 > g4 o3 g+8 o5 e+16 < e4 o3 f-16 < g o5 b8 o4 b-16 o7 b32 o6 g < d-16 o7 b8 o7 c32 o6 c+ < a4 o4 e8 o7 e4 o5 f+4 < c16 o5 a8 o5 g+16 o4 c-16 o7 d-4 < f32 o3 g16 o7 d+4 o7 c+8 o6 a4 o3 a+32 > d-4 o3 g+8 o5 a+ o5 e o4 g32 o4 g8 > g-4 o7 e-32 < g32 < e-32 o3 e32 o3 e+32 > a+8 < b+32 < c+ o4 d o5 f8 o4 e+16 o4 b+4 o5 d < g-32 o7 g-32 > d o5 g+8 o3 g4 o7 f+16 o3 c16 o7 c o7 e16 > c4 o7 g+32 o7 c-4 < e+4 o7 b4 o4 a-4 o6 d16 < a8 o5 g+ o4 b+32 o6 d16 < g+8 o5 d+4 o3 d+4 o7 g4 > g-32 o4 a4 o5 g8 o5 g4 o6 a8 o4 e-4 o4 c+ o5 f+ > a16 > c < f o6 e-8 o7 f16 o7 g+32 < a+ o6 g+ o6 c- > c o3 e+ o7 a4 o5 a+ o5 d+16 > b16 o4 b4 o4 f8 > e32 o3 a+8 o6 a-32 o6 f o4 d+4 o4 a-32 o3 c+ o5 b-8 < d-16 o6 b-8 o3 c8 o4 c4 o4 e16 > a-8 o3 f o4 c o7 d+16 o5 a- o7 f+4 o5 a-32 > b16 o6 e-16 o7 b+4 o7 a+32 o4 d32 o7 e+ o7 c16 > b+4 o6 d+4 o4 c-8 o6 f < g16 o7 g32 o6 g o6 e-32 o7 c+ > d16 < g4 o4 g o6 b32 o5 c16 < f o6 g-16 > c8 o5 e+4 o4 a-16 o5 g32 o5 e8 < g+32 o3 b+16 o6 g+8 o4 e+ o5 e8 o4 f-32 > g o5 f4 > a+8 o7 c o4 c+8 o6 b-4 o4 b16 o5 g-4 o5 f4 o5 a16 > f8 o7 e8 o4 f32 > d32 > a- < d8 o6 d32 > g+16 > e16 o5 d-8 > c o6 b-16 o5 b32 o6 d-4 o7 e16 o5 d+4 o4 b32 o5 b o5 f8 o6 b16 > g o7 g+4 o6 c+16 < a16 < e o4 e o5 f4 o5 c+32 o3 d+4 > b-4 > f+8 < e4 > e4 o5 a+32 o7 e-16 > b-32 o7 e+32 < d16 o4 b8 o7 e16 o4 e-32 > e8 o5 a8 o3 c32 > b o7 f16 > a8 < f+ > c16 o6 a16 o5 d o5 d-8 o5 a+8 o7 c o4 b-8 o6 e8 > g4 < a4 > g o4 c > g4 o5 g32 o3 d-32 o7 e o3 c-16 o3 c-4 o5 g4 o3 c+ o5 e-16 o3 c+8 > d-4 o5 e+32 < g+32 < b32 > e32 o3 c > e+16 < f4 o7 g8 > b+32 o6 a16 o4 f+8 < f+32 o6 e-8 o6 c- o5 g o6 e-8 o6 f-32 o4 e32 o3 b32 o3 b-8 o3 f16 o5 c+32 o3 d < e+8 o4 a+4 o3 b8 > e4 o4 b- o5 g-16 < g4 o3 d4 o3 d+16 o5 c32 o4 c-32 o4 e+4 o4 g o7 b- o4 e o4 f+16 o3 e4 o6 d32 > e16 o4 c16 o3 e+ o5 d8 o5 d-4 o4 c16 o6 g o6 d8 < a4 > b8 o4 d- o5 a16 < e16 o6 f8 > a o6 b-16 > d+4 < g+4 o6 e32 o3 f+16 o5 a- o7 g4 o5 g+8 o7 f4 o7 c8 o3 c8 > b+16 o5 g+32 > b4 o7 g-16 > c+ > d- o6 a+16 o4 b4 o7 g-4 > b32 o3 f4 o4 e-16 o5 e4 o5 f-32 o4 f4 o6 g4 o3 f+32 > f32 o6 b32 o5 e- > g-16 o3 c32 < f+ o4 e+16 < e8 o6 f-32 < c+ < f4 o6 g16 o6 g-16 < c8 > a-4 o5 c-4 o5 b+ o3 f+32 o6 a8 o6 c-4 < d- o6 d8 o7 b- o4 f+8 o6 a16 o3 g32 o3 b+8 o6 d8 o3 g-4 o6 b+16 > b8 < g8 o6 a o4 b8 < b-32 o3 g4 > a8 o3 b+8 o6 g o4 c16 o5 a-8 < d+32 o6 c32 o3 c+4 > c16 o7 e16 o6 f8 o7 c8 > c+ o4 e+4 < a16 o5 g+ o4 d-8 < c- o6 b8 o7 c+8 o5 g8 o4 c o6 d o5 d+32 o7 b+8 < d8 o3 c+ o5 b-32 o3 e < e16 o6 a-8 o7 a16 o7 b4 o6 d+ o3 f+16 o4 a8 o4 g+16 o4 g4 o6 c4 < e < f32 o6 f-16 o3 c o4 e+4 o7 b o5 c16 o7 g+32 o7 g+32 o6 c32 < c+ o6 b+16 o6 e- o4 a+4 o7 b4 o4 c+8 < a+8 < c16 o6 g o7 c16 o5 a+8 > g4 o5 b16 o5 b+ o4 c4 < g o4 f4 o3 e+8 < c32 o6 b o4 g16 o3 b o3 f16 o5 c16 o3 d- o3 g8 o4 b-32 o6 g4 o3 e16 o4 a16 > e-4 o3 b-8 o7 a+4 o7 b8 > b-4 o6 d+ o6 b-4 o5 b+16 o5 g8 o5 e+4 > b+ < c32 o5 b-8 < g+8 o7 a < b8 < e8 o6 d+32 o3 c16 o6 g-8 o7 e-4 o7 a-16 o3 e4 o7 g+8 > d+4 o6 b < b4 o3 d+4 o4 d16 o7 f+32 o4 c+4 o6 g+32 o6 c- o6 f4 > a32 < c+4 > g+16 o5 e4 o7 e+8 o6 g-4 o4 c+ o3 a+16 o6 e32 o7 a8 < c+32 o7 b+32 o5 a+4 o5 e < c o4 e+8 o4 g32 o4 g+ o4 b32 > a+8 o4 f32 o5 d-4 > f-32 o4 a32 o4 f8 o7 b-32 < e8 o7 g16 o6 e-8 o7 c8 o4 d-32 o6 a32 o7 f+16 o3 d+32 o7 e8 o3 g16 o7 c-32 < e32 o3 d32 o6 g4 o4 f8 o6 e- o7 d+16 o5 g < e-8 o4 d8 o6 b+8 > d- > d-32 > e+ o3 a- o5 f8 > g o5 c- o7 c8 o4 e+32 < e-8 o4 a+4 > g8 o7 d- o6 a+16 > d- o6 e o5 e o6 c+ > b16 < f+8 o5 d16 > a+ o7 e o6 d+4 o6 c32 < g4 o5 f-32 > b+8 > a16 < b32 o7 c-4 o6 d8 o3 b- o7 f4 o5 f+32 o7 a32 o7 a o7 e-8 < c+ o4 a32 o7 a+8 < g o3 c+32 o3 g32 < e32 < g+16 o3 c4 o6 b8 o4 e-8 o7 d8 o6 c+32 o6 g16 o7 c+8 < b+32 < b8 > c+4 > a- < e+8 > f > f-8 o3 f+32 > a-16 > e+16 o3 c 

midi-bright-acoustic-piano: (tempo! 10) < e- o3 d- < d4 o5 a+32 o3 b4 o7 f+8 o7 a-8 o4 c-4 o3 f4 o5 f-4 o7 a8 o7 a8 o3 e-32 o3 d+8 o5 f < g-4 o3 g4 o3 e-4 o6 b < b-8 o6 d+8 > b+4 o6 e-32 o5 f16 < b8 o3 e-4 o3 f8 o5 b+8 o6 d8 o4 b+32 > f+8 < b32 o3 g+16 o7 b o4 e-4 < b < c-4 o7 e+8 o5 b+4 o6 d32 o3 d- < b8 > e+16 < d8 o3 f > b+4 > c16 o4 a32 o6 g+16 o4 a8 o7 a16 o7 f16 o3 c4 o4 g+16 o3 f16 < c > c-32 o3 c+4 o3 b-8 o4 g4 < b- o7 e32 > g+32 < b16 < f32 o7 b+4 < c8 > g < b-16 o4 g+16 o5 e32 o7 b4 < g-8 o7 d o7 a32 < f16 > d32 o3 c8 o4 f-8 o6 e32 o7 b-4 o5 f- o5 f16 > f+16 o4 e-16 o6 d4 o7 g o3 g8 o6 g32 < c- o6 c+ o5 f+4 > b+32 o4 d32 o3 a8 o4 a+8 o4 a+ o7 a8 o4 f o4 d32 o5 g16 o4 b32 < f8 > a8 < b+8 < a- > b4 o7 d-4 o5 b8 o6 g-32 o5 c-16 o6 f16 o3 g16 o5 g32 > c-32 o7 e+16 o6 d+16 o5 a+4 o3 f+8 > e-4 o3 e o6 d-4 o5 g-16 o6 b+8 o3 d4 o3 g8 o6 c-32 o5 c-32 o6 c+ o4 g32 > e+32 o6 c+16 o7 f-32 o6 e o7 b+ < a16 o6 d o5 f- < d+8 < a-16 < g < b-16 o5 f-16 o4 f+4 o3 f8 o3 b4 o4 c4 o7 b32 o3 b4 > a32 o6 b-32 o3 f8 o7 f+8 o5 f- o7 e16 o4 d-16 o5 g+4 > f32 < e4 o5 a-4 o4 f16 o5 a- < f- o6 b8 o6 c8 o5 b+ o4 c o3 a-16 > b4 o4 f4 o6 e-8 o5 d32 o5 e4 o4 b- o7 d- o7 b8 > e-32 > e8 o6 g8 o5 e+4 o3 g- o4 a-8 < e+16 o7 b > g+16 o6 c+32 o6 b8 < g-8 o7 f+ o3 d- o4 e16 > g-32 > f-8 o5 g32 o5 a-32 o4 d+32 > a32 o5 c+16 o3 f4 o7 c > b o7 e+4 o5 g > a-16 o7 f+32 o6 f-16 o5 c32 o7 c16 o6 d+8 o5 c-32 o3 d+8 o4 a+16 o4 c+32 o7 d4 < e+ o6 b+4 o6 g4 o7 f-16 o5 a+32 o7 f+ o7 b+32 o7 c- o3 b-8 o4 d4 > f-32 o5 e+16 o4 e+4 o3 d32 o6 b-4 o3 e+32 o5 b < b8 o7 f o6 f32 o4 f4 o7 c16 < e+32 o5 e+4 o4 b+8 < e-16 o6 e-32 > c32 > e8 o3 b+ o7 c32 o4 b+8 o3 a-8 o3 g+ > a32 < e+4 o4 d16 > d o7 c+32 o7 d o3 b+4 o5 f8 o7 f-4 o6 d-4 o6 a16 o3 a-16 o5 g+32 o4 f8 o7 g > e-16 < b4 o5 f4 o7 f4 o7 c < b+4 o4 a+8 o4 a-16 o6 d4 o6 d32 o6 c-16 o6 e32 o4 c-4 o4 a+32 o3 c-32 o6 c8 < d-32 o4 f4 < d+8 > d4 o3 b4 o5 a+8 > c32 o4 d-8 < d-16 o3 f-16 o5 d4 o4 g+32 o4 f8 o5 b32 o7 d16 < e4 < b < c-8 < g16 > g4 o5 c16 > a-16 o7 c-16 o6 f-4 o4 d4 o6 g-8 o6 g4 o7 b16 o4 g o6 g-4 o7 f8 < g32 o5 b4 o6 f+32 o5 b+16 < f+ o4 c-8 o4 b+ > b-8 o4 b- o5 a16 o3 f16 o4 d8 > g- > f o7 a4 o5 e4 o5 g+4 > e o3 c+4 < c4 o5 g8 o4 d > b16 < b+4 > g4 o3 d+16 o7 g16 o3 d+16 o6 c- > a o5 e+4 o4 f- o6 c o6 b o5 c-4 o7 c < b+32 o5 d32 > b8 > a16 o3 e- o3 d4 o4 g4 o5 a+32 o3 d4 o3 g4 o6 f+8 o6 b-16 < e4 o3 b-16 o3 d+16 o5 e o3 e+16 o3 c4 o7 g4 o7 a+4 < d32 o4 d+ o6 a8 < e < c-8 o3 c4 o7 f-32 o5 c16 o3 e-16 < c8 o5 a < e+8 > e+16 < b+16 o4 c < g32 o5 c-8 o5 a- o4 b o7 e+8 o6 e- o4 d o4 c32 o6 c16 o3 a8 o6 c+32 < d32 o3 c < d+32 < d o5 c-32 o4 g < d-16 o4 f o7 f+16 o6 e- > c16 o5 b-8 o3 d+8 o7 e32 > f+4 < g16 > b+16 o4 d8 o7 e-32 o4 b-8 < c o3 c16 < d+4 o4 e+4 > g > e- o5 b-4 o4 b- o6 f- o4 f16 o3 c4 o5 a+16 o4 c-4 o3 c8 o7 e-8 o3 a-32 o7 d o6 e-16 o7 f4 o5 a32 > b-4 o7 b4 o6 b-16 o3 g16 o7 c-16 o7 a o4 a16 o4 a o5 c+8 o4 g o7 g8 o3 e < b-16 < d-16 o6 a+32 o4 d32 o3 d-8 o3 b+ o5 d8 o5 e o4 b+32 > c4 o4 a32 o4 c4 < b+ < b+ o4 b-16 o7 g-4 o7 g o4 e16 o7 d- < a+ < e8 o7 d4 o3 d8 o7 f4 o3 d-32 o5 f4 o7 f32 o4 g-8 o4 g4 o5 c+4 o6 b4 < c4 o4 c- o3 f- o5 c32 o3 b- o6 b8 o6 d+4 o6 d4 o7 b32 o4 g+32 o3 f-4 < d o7 f-4 o4 a-8 o6 g+ o4 g-8 o3 a4 < d+ > f+8 o6 e+ o4 g4 > f+32 o5 c-4 o5 d o4 c-8 o6 f4 o3 d+ o7 a o5 g+16 o5 e- o4 d8 o4 e-4 o7 d+4 o6 a4 o6 g4 o4 c32 o5 b4 o3 e16 o7 a8 o3 b4 o3 a o5 b4 o5 g8 o5 b-32 < a32 o5 d32 > a8 > g+4 o7 f-32 o7 b8 o4 f32 > g32 o7 a-32 o6 a- o7 g32 < f+ > d4 o6 f+4 o3 a+8 < e16 o3 b+16 > g4 < f+8 > e32 o7 g-8 o6 a8 > b-16 o7 e- < e+ < f-8 o6 f8 o4 d32 o6 a16 o4 c4 < f16 o3 g-32 o5 f+32 o7 e+ > a16 o7 c-32 o3 c16 < b8 o7 c-16 o5 d-4 o3 a8 < c-4 o5 d+ > e+4 < g32 o5 d o7 c+4 o3 c < e16 < e > e-16 < a32 o5 d-32 o4 b16 < b8 o5 g32 o5 a4 < d8 o3 b+16 > b16 o4 c32 o4 c-4 o6 d-16 o3 g32 o7 c- o6 g4 > g32 o6 g-4 o3 e > g16 o7 f-32 > b-16 o5 b16 o7 b o7 c32 o6 a32 > b o4 d-8 o6 b+32 o4 b-32 o5 f o5 a4 o4 d-8 o3 f+8 o7 f4 o3 b-4 o4 b-32 > d-4 o7 a o5 e8 o3 d-4 o7 d32 > g-4 > g32 o6 c+32 o5 c+32 o7 d4 o4 f-32 o7 d+8 < c-8 < d16 o3 c8 < a16 > f o5 c8 < e o5 f- o5 b o4 a-32 < e o7 b16 o3 b32 o7 a-32 o5 g8 o4 e8 o5 g16 o3 e4 o7 c32 > c8 o3 g+ o4 d8
