piano: (tempo! 60) o4 b-32/a-/f32/e8/f4/f4 o7 e32/a-/f8/a8/e-4/d4 o2 f32/d+16/f32/a32/f-32/c32 o6 b4/c4/a+4/f8/f/f8 o7 f+/d8/c+32/a-4/e-/d-4 o3 f-/f+8/f/f-32/f8/c o5 d+32/b+/g16/f-16/g4/c4 o7 c-16/e-4/b8/d4/c+16/a16 o4 f4/e+32/e+4/c16/g/e- o2 g/f-8/g/c+16/c+4/a+4 o7 f-4/b32/c32/f4/b4/g8 o2 b-16/f-32/f4/g16/d-/e4 o2 d8/d/g+4/e+/d+/f4 > f16/c-4/d32/d-8/a+16/b-8 o4 a8/e+16/g16/c/e-32/d+4 o6 c-16/e32/d+/d8/c32/b8 o6 d-/f-/f+4/b4/e8/e+ o3 b-/e4/b-4/e4/e16/f-32 o5 c-16/c+/e8/g32/g/g-8 > d+16/e+8/d+4/d32/f-16/b32 > c+8/a+32/c-/f+8/d/e+16 o4 e-8/d32/b+4/d-8/e+32/d-8 o2 a+8/a+8/b+16/a8/g32/g32 o4 d16/f32/c4/b16/e-/e16 o3 d/a+/f16/e+16/g+8/g+8 o4 e-4/g+32/e+4/f16/b16/d32 o2 g-32/c-16/e+16/b8/b8/g-32 o3 c16/e32/b/e-8/c-4/c o6 d32/c-32/b32/c+4/e+/f4 o3 f/d16/c+8/f+/c-8/g+32 o7 e16/e-4/b/a-8/g+8/b8 o7 c-/a32/b+/a+/f/b o2 e16/a4/g8/a+/e+/g-4 o5 e8/a-/b+32/d-8/f4/b+32 > a-4/f+16/a-16/c4/f-/g+4 o4 e4/d-/b-/a+32/b4/d32 o4 b-32/c+16/d+/e-/g32/e16 > e/e/c/d-4/d-4/a-8 < e8/g4/e-4/f-8/c-32/b-16 o4 d-4/d+4/b+8/f+16/a4/f- o7 g16/a-16/c-8/c/c32/f16 o2 e+/e16/a8/g/c-32/e o6 a-32/c16/b/c8/g/d+16 < a32/a/f4/c16/d4/g- o2 e/c32/e+8/f-8/d+/a32 o4 e16/a32/d8/f+8/c+4/f32 o7 b8/b-/e4/c/g32/e-8 < b16/f32/g+16/e-4/g-8/d+32 o4 b+/a4/a32/g8/a+8/c+16 < d-8/a8/g-4/f/g+32/f o5 g4/c-/b8/c+/e16/f- o6 a+32/c8/c8/c8/d16/c+4 o5 g+32/c-4/b/b-16/e-/c+16 o4 e+8/d-16/f+4/a+16/g/d-32 o2 e8/f-4/d+/e8/e32/g4 > g-/c-32/c+32/f-/d-16/b+ o6 b16/d+16/g16/d4/c16/c16 > e16/f+16/c-8/d/a-/e-4 o3 f16/d+8/g16/d32/a+4/c-16 o2 d+4/f-8/b+32/e+8/b32/g8 < c-4/b4/g32/c-16/c16/c8 < d/a+16/c-16/b32/f/a+8 o3 f32/c+4/c/e8/f/c+ < f-4/d+/f8/a-32/a+4/e+16 o3 d8/d-16/d-8/f/g32/b4 > g16/a8/d8/b16/b-8/d+32 o2 b+16/f-16/a+16/e32/f-4/d+16 o2 a-8/c/c-/a+8/f+16/a-16 o2 g4/a/d+4/e/e+16/a4 > c32/f/c4/a/e4/d-8 > c-/e+4/d+32/b+4/f32/b-8 o7 d-8/d-8/c-32/c/c/f16 o4 d32/e+/f+8/c4/b32/a32 o7 d+32/a16/b-16/b-/f32/g16 o2 e/a/e32/f32/f-4/e- o3 g-4/e-32/g8/e8/g32/e8 o4 c/e/b+4/e/b-32/f+ o6 f4/b-8/c-4/d16/g+16/f16 o3 d4/c-16/e+/b-/b4/f+8 o4 b+4/a4/g4/g16/e8/f8 o5 c-4/c-4/g32/f/e-32/d4 > g4/f-32/d-/e4/a-16/e8 > c16/d+16/g+8/a+/c16/f8 o3 c8/d8/a16/f32/a16/d- o2 g32/a4/e32/d-4/c-16/a+16 o3 f-16/c16/f16/a/d8/f+16 < c+8/a16/f32/c16/e/b16 > f+16/e+/b16/e+16/a16/c16 > b8/d-16/f4/c-32/e/g+ > d16/f32/a8/d8/d16/e4 < c32/g32/g+8/d-16/d-32/e8 o2 c8/c16/d8/c/b16/a8 o7 e32/e+/b-8/a+4/b+8/b32 o4 e+/f32/g4/f16/b8/c4 o2 a-8/b+4/g-32/d+/e-8/b16 o7 b-/b-32/c+/b8/a16/e8 o6 b4/f16/d/e/a-32/e4 > d8/b4/a+16/e+32/f-8/a > g-/b+16/b16/d32/e-8/a- o6 e8/c+8/e+/a32/f/b4 o3 f+4/c+16/g+/b16/b/b+32 o2 f4/c-8/e8/g+/g4/a- o3 d-4/b32/c16/e16/c-32/d > f4/g4/f16/a-32/f4/d-32 o7 a-8/g4/e/c+16/d-8/f o6 d+4/c32/g16/d16/d4/d4 > g+32/a4/e+8/e-/g+16/b16 o5 d+/a/b/a32/c16/d+ o3 e+16/d4/c-8/f-4/e-16/d+32 > d/e-16/g+8/g/a/e- o6 e+16/e16/c+32/d16/f-16/a4 o5 e8/c8/g+8/f-16/b+4/a-8 o2 e8/g32/d-8/e-/c+/e16 > d16/b32/d16/a-8/e+/d4 o3 c4/a32/g8/e32/e32/d-4 o3 b8/b32/e16/g-4/f-16/c+32 o3 c32/c-4/d8/b32/d/g8 o6 b32/c+16/g8/f4/g32/e o3 b16/e+32/d4/d/g-16/b32 < c-/f-8/b32/b4/f/d16 o4 g16/e16/e16/c-8/b8/f+8 o7 e/e/g-32/f-16/c32/g4 o4 a-32/e32/c8/f+32/a/f16 o4 f16/d-8/e-16/d-/e/d-32 o7 b8/a-16/a32/d+16/a-/a32 o4 g16/c4/d-8/e4/d+/g-8 o3 f8/c-4/f8/b16/d-/e- > f+/d32/g+/d+8/e+4/c-4 o4 f32/b/d+4/a+8/g16/b-4 o7 d+16/c-16/g32/f16/g32/f4 o3 f-8/e16/b32/c4/a-16/d8 o3 e16/a8/b/f+32/b+/d-8 o5 d/d8/f+16/e4/c-8/e4 o2 b+16/c4/g-8/b+32/e8/d4 > c+16/g+8/g-8/g4/d4/c+8 o2 b-4/a/d16/e+16/d-4/g16 o4 d8/f/c+4/d16/e+/a4 < a-32/e/e/a4/c4/g-8 o5 b-/d16/a4/d16/d8/c32 o5 g+16/g16/d32/c32/e4/g4 o5 d-/d+8/f8/g4/f8/a-8 o2 f16/f/b+32/g+/g+/e-16 o6 b/g-32/b+4/b+32/f16/g8 o6 b-4/f-8/c-8/f/f/f+16 > f+16/b-/d16/g8/d-16/a- o7 a8/c-/e+/c+16/f16/d16 o6 g+32/c8/a8/f/f+/g32 < a+32/g+8/c4/c-32/c+4/g o4 b8/g4/g4/f-32/e+32/b32 < e32/d+16/f-32/a+/a4/c-4 o2 g8/g32/c4/f+4/f-16/d-8 o3 e-/c8/a-32/b32/g-8/c+32 o6 c/g+16/d4/f-8/a-8/g-4 > a16/a16/c8/b+16/f-32/f8 < c/g-/f32/e+4/f-32/e-32 o7 d16/a+/e-16/f-/g+16/d-16 < f/b16/a-32/e+4/c+16/d4 o4 e+4/c-4/b-32/c+16/f/a4 o7 c-/c4/c4/e-/b-32/b o2 c16/c8/a8/g/g8/b+
