piano: (tempo! 10) < a8 < c32 o4 c-32 o7 g8 < g+8 > f8 o5 d4 > b16 o5 b32 < e16 o7 e+8 > e32 o7 c- o3 d+32 o7 b o5 d o6 f < b+16 o5 a32 o3 e4 o6 b+16 > a+ > d8 o7 a+32 o3 b4 < a+ o4 e+4 o4 f-4 o4 b16 o6 b o3 c-8 < f+32 o5 c+4 o3 c-32 o6 f-32 o6 e-32 o4 g- < c+ o5 a32 > a- > a8 > b+32 o6 g4 o6 g8 o7 f+8 o5 a4 > d-8 o7 b+8 > g-16 < c-16 > b- < f-16 o4 b4 o5 b-16 o6 a16 o4 c+16 o7 d16 o7 f8 o6 c4 o5 c32 o3 e-16 o5 c > g16 > b+8 o7 c4 < f o3 b- o4 c-16 o5 g+32 < a+8 o7 c+4 < b-8 o6 a+16 o5 f- > f4 o5 d8 o3 g- o5 g32 o5 b16 > a+32 o7 c-16 o4 a+32 o5 e4 o6 d32 < c-4 o3 c-16 o7 b16 o3 c-16 < b-4 o7 c < e32 o4 f-8 o3 c4 < d+4 o6 d-4 < f+ o4 a-16 o5 a+4 o4 f+ o7 e4 o7 a+8 < f > c+32 o7 f32 o4 b+8 o7 b-8 o5 e8 o4 c-4 o7 f-4 > d4 o3 a4 < c4 > a+32 o3 g4 o3 c-32 < e o6 b32 o7 d- < e+16 o4 d+8 o7 d o4 e32 < e16 o6 d4 o3 a o7 c16 o3 a+32 > e4 o3 g-4 o7 e8 o7 a o5 e-4 o3 b32 o7 b32 < f+16 o6 b-32 o4 c8 > d+8 o4 f-32 < e8 o3 a+4 > g- o7 c4 o4 b < a-16 o3 c4 o5 f- > f-16 o5 a-8 o3 c32 > f16 o6 e4 > c+32 o4 c+32 o5 a- < d o7 e-4 o6 a+8 o4 c8 o4 a-4 > e8 o3 f32 < a16 o7 g8 o5 b4 > a- o6 g+16 < d8 o6 c+ o3 d4 o7 g-32 o7 b32 o4 b o5 a16 o6 a8 o6 c+8 o5 b4 o6 d-16 < d-16 o4 f4 > e4 o5 f32 o4 a- o6 a+16 > a < c-32 o5 g o7 b+16 < b-16 o6 b+16 o4 b+32 o3 b o5 a-16 > f- o5 f+16 o6 g32 o7 e-16 o6 d8 o6 e16 o3 g8 o3 e32 o3 f o4 b+8 o5 g-8 o7 e+8 o7 c-8 o5 c+ o3 f32 o7 d+16 < c4 o3 g16 > a16 o5 d- o6 c+4 o7 e32 o5 a+4 > d16 > g+8 o6 d-8 o3 e-4 o6 d8 o7 f16 o4 d-32 o7 d+32 o7 c- o4 d8 < a-32 o5 e4 o5 b- o6 d+16 o5 a32 o4 f16 o7 a-4 o6 g-32 o4 d-8 > f+8 < f4 o6 d+4 > c+32 < f+8 o4 a16 o5 a+32 < f+8 o5 a16 o5 g-4 o6 f8 < e32 o3 f-32 o3 d+ < c- > g4 < g16 o4 f- o7 e32 > a4 > g- o6 b-8 o3 a+ o5 c-16 o4 a32 o4 f8 o5 d16 < a+32 o6 e-8 o3 b+4 < g-32 o4 c-32 > d4 o3 c+32 o4 c8 o3 b+ o6 f+16 > c o5 d+32 o5 f16 o3 b-4 < g32 > c+4 < c8 o4 g-32 o3 c+32 o6 e > e-4 < f+ o7 g8 o3 d16 o4 f4 o5 e8 o5 c8 > f-16 o4 c8 > b4 o7 b+ < c+4 o5 a- o5 d- o5 f-32 > f32 o3 f16 > g+4 o5 c- > c-16 o3 a-32 o6 d+16 o6 f+16 o4 d+8 o7 d-4 o3 d-4 o6 c o7 g+16 < a16 > b8 o7 c-16 o5 g-16 o6 b32 o7 a o7 f-16 o6 b- o6 c-16 o6 g-8 o4 d32 > d-4 > a+32 o3 f16 o3 e32 o7 b+8 < d4 o3 e-32 o6 e16 o5 g8 < d-4 o4 b- < b-32 > e o3 e-8 o3 c8 > f16 o5 g o3 g o5 b < e32 o7 f8 o6 d+16 o4 c32 o5 g-4 o6 a- o3 c+16 o6 d+16 o5 d32 > g+8 o4 g o4 g32 o3 b+32 o4 c o3 b+32 o5 f16 o7 d32 o5 d- o4 c-8 < e+4 o5 c-8 o6 e-16 < a8 < b16 o3 b32 > c+4 o5 f+16 o6 b16 o3 b4 o3 a4 o4 e- o4 f- o6 e+4 < e+ o3 a o3 c-8 o6 b16 < e-4 o3 f4 > e4 < g32 > f-32 o7 g8 < a+16 o6 a32 > g- o5 e16 o4 d-16 o6 e+ o3 c+8 o5 c16 o3 a32 o6 g-8 o6 f+32 > c16 o5 c o3 g-32 o6 a8 o5 a+16 o5 a16 o4 f4 o7 f o4 c16 o4 a16 < g-4 o7 c8 < c+8 o7 a-8 o5 d+ o3 a16 o5 c+32 < g-32 o4 g32 o6 c8 o3 a+16 o3 b+16 < e16 o7 c+16 > c8 o7 d16 < e32 o5 g+8 o5 c+4 o5 e+4 > c16 o4 e16 o3 a+16 o5 c+16 o6 d+ o6 a+32 > g-8 o3 g-32 o7 c32 o3 e+8 o5 g-8 < a o3 e8 o7 g+4 o6 g-32 o5 b-4 o7 g16 < d-16 o6 c+ o4 c o5 d-32 o3 g8 < c32 > a+ > a32 o3 b+ o6 b32 o3 a32 o6 d4 < g-16 o7 e-4 > a-16 o6 c+ o7 d-32 o6 e8 > c32 o3 b8 < g16 o4 a+32 o3 f+32 o4 d-8 o4 c4 o3 e o6 g32 o5 c+4 > g+ o5 d-16 o4 c32 < d+8 < c32 o4 a+32 o3 d4 o4 e o5 c-16 o5 f-8 o6 f16 o3 b16 o6 a32 o7 c32 > f-8 o7 b-4 < b-16 o6 a+32 o7 f4 o6 a+16 o7 b+ o6 c-32 o3 f-4 o5 d16 < d8 < d-32 o3 d8 o3 d32 o6 e+4 o5 e+4 o3 b-4 o3 g+16 o5 d4 o7 a- o7 d16 < b o5 a- o3 e-8 o7 b4 o3 d16 o6 a-16 o5 a+ o7 g+16 < a+16 < d+32 o5 a-8 o3 a32 < c- o7 c+16 > e16 o4 e32 o5 f-8 o4 f-16 o3 f+32 o4 d-4 o3 b16 o3 d > f4 o4 d-32 o7 b-16 o5 f8 o4 e+4 o3 b+8 < d8 o6 a16 < e-16 o6 a+32 o4 c-8 o4 a o7 d+4 o6 e-16 > c- o4 d8 < f16 o6 c16 o7 c o7 e8 o7 e4 o6 c o4 d-8 < g+4 o5 c-8 o5 f > d > d+4 > g o4 b-4 o6 c+ o7 c16 o7 d o5 a+32 o7 e16 o5 f-32 o7 b8 < a4 o3 a32 < g16 o7 g4 o4 c > d8 o4 g+ o3 b+4 o6 g16 > c+ o7 a-4 o5 f4 o4 g4 o6 c8 o6 f o7 f-32 o7 g4 o4 b4 > a+ o4 b-32 o4 a-16 o6 e+32 < d16 > g+ < f+4 o5 e32 o6 e- o6 f o3 a-16 o3 g16 o6 g+4 > e16 > b4 < a-4 > e32 o6 g+8 o3 g-32 o5 d8 o5 b- o4 d- > e+ > b o6 e16 > c+4 o3 g o3 f8 o4 c32 o4 f+32 o5 f4 o3 d-4 < c-16 o4 f-4 o4 e8 o7 d16 > a-32 o5 b32 o3 b32 < f32 o3 d4 o3 c16 o5 b-4 o5 f-4 o6 g+32 o3 c-16 o5 g o4 g16 o3 b16 < f o4 a+32 o3 d > b4 o7 e o6 b+16 o6 e+8 o6 c-32 o6 g+16 o4 f16

midi-bright-acoustic-piano: (tempo! 10) o3 f4 o6 a8 o5 f o4 a16 o7 e-32 o6 c+4 o5 g-32 > b+ o6 e-4 o5 g8 < g o6 d8 < g16 o3 d+32 o3 c32 > c8 o6 b+8 o6 d+4 o3 c32 o3 b4 o6 f-32 < f o7 b32 o5 c8 o3 a-16 o6 d8 < b32 < a16 o7 c-8 o4 e32 o6 c8 o6 a16 o5 d16 o5 b32 > f o7 c-16 > g-4 o6 d-32 o4 d-32 < d16 o5 d- < g16 o3 b-32 o6 e32 o3 b32 o4 a-32 o4 c+16 o5 d32 o6 d4 o7 f-8 o3 f+32 < a-4 o6 d8 o3 c o4 b16 o6 b-32 o3 d- < d+32 o7 f o3 g+4 < f-32 o6 c32 < c+32 o6 d-4 o7 f4 < f+8 o5 a16 < d8 o5 e-8 o3 c16 o7 g32 < c+8 < a < g+ < c o4 d-16 < c16 o5 b-8 o6 c8 > f-4 o4 f32 > f- < f- o7 g+4 o5 d-32 o4 d+ o4 e+32 o3 c4 o4 e8 o7 a16 > f4 o7 d16 > e8 o4 c8 o5 b4 o6 a+32 < f8 o7 e+8 o6 g16 o6 b4 < b4 o6 b32 o3 d+4 o4 b-4 o7 d-8 < c4 o4 f-4 o3 d32 o6 b32 > d4 o6 b-16 o7 e-16 o5 b8 o7 b4 o3 d16 o6 e4 o5 b+8 > b+32 < d-32 o7 b8 o5 c+4 o6 e- o4 g+4 o6 c16 o4 d32 o7 b+32 o3 d4 o5 b+8 o6 d8 o5 g+4 > c+16 < d4 o3 e+16 < c+16 o7 f+8 > c4 < f-32 o3 c16 o6 f o6 c+16 o4 f4 < f+4 < f-32 o5 a+ o6 f+4 o6 g32 o4 a o7 c16 o7 d-4 o7 c+8 o5 a+32 o7 e16 < g > g+8 o4 b+16 o7 a+16 o5 f-8 < f+8 o6 g+4 o7 e32 o3 b-8 > e < b32 o7 c-32 < f+16 < a- < b8 < f+ > e+8 o7 g4 > f8 o3 g-4 o4 e-4 < e8 < a+8 o6 c < f32 > a8 o4 b+8 o7 g+8 o3 c16 o5 f16 < d16 o3 d+4 o6 a8 o4 f16 o7 f16 o3 f4 o7 d8 o5 d8 o5 b- o7 a+ o3 c8 > g-4 o7 f+ < c-16 o3 f+8 o3 g4 o6 g > c8 o4 e32 o4 e4 o4 d16 o3 a32 o6 d+4 < b+ > d4 o7 g+ > f4 o5 e16 o7 g4 o4 e+4 o3 f-32 o6 e4 o4 a- o6 g32 o6 b- o5 f-16 o4 d4 o5 g32 > g+8 o7 c-16 o7 a- o6 f+8 o4 a-8 o5 b32 o7 c32 o5 d16 < d+16 o6 e8 < f8 > b o7 a o6 d-16 < c+16 o3 c < g32 > d+16 o7 e16 o7 d16 o6 c+4 o5 e+ > a+4 o3 e8 > b32 < d8 o7 f-32 o5 a-8 o7 a o4 f-32 > a > g- > c32 o7 f o5 c4 o4 d+4 < c- o3 a4 > e-4 < e32 < f4 o3 a-8 < a+16 o6 a8 o5 e32 o6 b16 o3 b-4 o6 f+ o3 c16 < b-4 o4 e4 o3 d+ o4 c-32 < c32 o6 b+ < e4 o5 b32 o4 f8 > b16 > a4 o7 f o6 b-4 o4 f-16 < d32 o6 b+32 o5 a-32 o6 a+4 < e+4 o7 g16 o7 e16 o5 a+32 o3 b-32 o5 a-32 o3 e-8 o6 a8 o4 c8 < e > d8 > d8 o7 g-8 o7 a16 > b+8 o7 c o6 c+32 o6 g32 < d-16 o5 a-16 > f+8 o3 a4 o3 e4 o6 f+32 > c16 > a+4 o3 d8 o7 a+32 o6 b4 o3 b+32 < g-32 o6 c+8 > c+16 < e4 < f32 > d o7 a+32 > g+4 o6 c- < f32 o4 e32 > g- o7 g16 o5 c-32 o3 d16 o4 f+8 o5 c-4 > g-4 o4 a+8 o6 c-4 o7 f o5 f o5 b- o3 a-32 > f32 o3 c+32 o6 c8 o7 g-8 > f32 o3 e-32 o5 a o6 f-8 o7 b+8 o5 g-4 o3 d4 > b-32 < g4 o5 e32 > e-8 o4 b16 o6 a16 o3 e+8 o3 b > g8 o3 e8 < e o7 c+ o4 c+4 o3 f16 o6 g o6 c+8 o4 c+4 < g+ o4 e+32 o3 d+ o3 a8 o3 f- o3 f4 o4 e < c4 o7 g32 o7 d-8 o5 g16 o5 a8 > a+16 o7 b32 o3 e-32 o4 e32 o7 e16 o3 c+8 < c16 o6 c+ o7 e-32 o7 f32 < f+4 < g o7 g+16 o3 d8 o6 d- o6 d4 o4 e32 o7 b-32 o5 b- o7 g4 o3 g-16 o3 e16 o4 d+8 > e > g8 < c8 o7 e-16 o6 b-16 < a16 o3 f-8 o7 f+32 > b4 o7 d- o7 f-8 < e-4 < c8 o4 b+4 o4 e+4 < f+32 o7 g+16 o5 g-16 o4 f+ > f-16 > g16 o7 f4 o3 g-16 < g32 o6 f+16 o3 g32 o5 c- o3 b > b+8 > f-4 o5 a32 o6 b+16 o4 f-4 o5 d+4 o5 f-4 > a- > f4 o7 e o3 d16 o4 d8 o5 b < d+ o4 g32 o6 g+16 o5 a+ > b32 o6 e-4 o4 a-8 o7 a16 < c8 o4 g16 < g-32 o5 e+16 o7 d4 o5 d+ > a+ o4 e+8 o5 e16 o5 a-8 o3 a+8 o7 f+ o7 a-8 o6 e o7 d32 o3 e-8 > g-16 o4 d+4 < a16 < f16 o7 c8 < e-32 o3 e-4 o3 f o6 g+ o3 b-16 o3 g-32 o7 e8 o5 g+32 o6 c+8 o4 f32 < e4 < g- o7 d32 o6 a4 o3 b-32 o3 b+ o5 d+8 o5 a4 o3 e-16 o7 f > e o7 b16 o4 e+16 o6 d+8 < a-16 o3 a16 o5 a16 o3 c-16 > e32 o7 e32 o7 b4 o4 c < a+4 o6 b16 o7 g8 o7 d+ o4 d4 < g16 o5 b+4 < g4 o4 f4 < g+ o4 b32 o6 d8 > b-8 > b- o5 f8 > d+4 < c4 o5 a16 o4 f+32 o4 e+ o6 e > g+8 < e8 o6 b o5 d-32 > c32 > g o4 g4 o7 f-16 o6 f16 o3 g+4 > b16 o3 b o4 e < g+32 < f+8 o5 g+ o7 a4 o4 c-16 o4 c16 o7 b+8 o4 f+32 < d-16 < d+ o5 e32 o7 f+32 > d+16 o4 f8 o6 c+4 o5 e- o6 a+32 o3 g+16 o3 f16 < g4 o7 g- o6 d+4 o3 d16 o5 a+ o4 b+8 o6 e4 o7 d+8 > a8 < g-16 o4 b-8 o6 b16 o7 c32 o7 f8 o4 f- o3 e o6 e o4 c16 o6 e+32 o6 c-8 < d8 > f32 o3 c4 o3 a32 o6 f8 o4 d+32 o5 b o3 e-32 o7 b4 o4 g4 < a16 o5 e-8 o7 a-4 > e8 o3 f- > g+32 o6 g o3 a-32 > c8 o4 d-4 > a8 o7 a-32 o6 c+ > g4 o3 a+ o3 g+8 o5 c+32 > f+4 < b-32 o4 b+4 o6 g+ o7 d8 o7 d+ < c o6 e-8 > b8 o4 e+32 o6 g+4 o5 b4 o6 e o6 c-16 o5 c-16 o3 c16 < a+16 > g32 o3 b32 < g16 o6 c-32 o3 g-16 o4 a-4 > e+32 > f+ o3 b32 > a4 < e+16 > e o7 c < e32 o4 b4 > d32 < g

midi-string-ensemble-2: (tempo! 10) o2 e+32 < d-4 > b-16 o2 d4 o4 f+ < g+8 o3 f o3 d32 o2 g-32 < c+8 < b-4 o3 d+8 o3 a8 o3 g-16 o2 f-4 o2 b- o4 f16 o4 e8 > b > g-16 > e4 o3 c16 o3 f+32 o2 a32 o4 f+8 > b-32 o3 c8 o3 a- > f+16 < d+ o4 d32 > f-16 < b+32 < a4 > c o3 e8 < c8 o2 c16 < a+4 o4 a4 < c4 > a+4 o4 b32 o3 g+ o3 d32 > a o2 e16 o4 f-16 o2 b > f8 o4 e32 o3 b+4 o4 d4 > c-16 o2 g-8 o4 c32 o4 f o4 b-32 o3 f32 o3 e < f-4 < e-4 < e+16 o4 a-32 > d-32 o2 c+4 > f-32 o2 f+ < g-16 > d4 o2 a8 o4 a16 o4 b4 < g+16 < a- o3 c+4 < f-32 o3 g o4 a8 o3 b8 < f o3 c8 o3 g4 o2 e+ < g4 o4 b- o3 c-8 > d+32 o3 g16 o4 b4 < e8 o2 c16 o2 c32 o3 c4 > e4 o3 g32 o2 d o3 b16 o3 b-32 > b-32 o4 a8 > g8 o4 f16 < a32 o3 f-16 o2 e+8 o3 g4 > a-4 o2 g+16 > d+ o2 f+16 o4 c16 o2 f+8 o2 f- o3 g+4 o4 e+ o4 e-8 > e16 < g-32 < c16 < b-8 o4 d16 > f+16 o4 c-32 > g+ o4 c+32 > e32 < f32 < f+ o4 g+4 o4 f > c4 o4 b-16 < d-4 o4 d+32 > e32 < d-32 o3 b4 o2 e16 < b-32 o3 a+4 > b+8 o2 d+ o3 f16 o2 g-8 o3 c+16 < f-16 o3 b- < f16 < e16 o4 f32 o3 g o2 a o3 c4 o2 b-8 o2 b-32 o4 c8 o4 e4 o2 g8 o2 a+8 o4 g o4 b-4 < a16 o3 c+16 o2 a4 < a16 < g4 o3 f+8 < d8 o2 e32 < a+8 < a8 < f+16 > a4 o2 d+8 < f-32 o2 c-32 < e16 > c32 o2 d+4 > f8 o4 d- < g+4 o2 a16 > g+4 o4 c > g > e-4 < a8 o4 g4 o2 c- > e-4 o2 e+4 > a-32 o4 f4 > b+8 > a8 o3 a32 < b16 o2 f-16 > b-32 o2 a32 < d32 o4 g-32 o4 g+ > g4 > e16 o3 c-32 o4 c-16 > d32 o3 b8 o2 f < f-4 < g+ o3 d+8 o4 b+8 o4 f+ o2 g16 < b-4 o3 b4 o2 f-8 o2 a16 > a+32 o4 g+4 o4 f o3 a+16 o3 d-4 o2 f+32 o3 e32 > f-16 o2 f8 o3 d+4 < f4 < d32 o2 d-4 > a+32 o3 b-32 > e4 o3 e- o2 g4 > c4 o4 d+ < e4 o3 g+ < c > c-4 > b8 > c- > b16 o4 f32 < b8 o2 b o3 e-16 > d+8 > b4 > f32 > a16 o3 f32 > c8 o4 b4 < f- o4 g-4 > b o4 g-32 < e+32 o3 d- < a16 > f-16 o2 e o3 b+ < d+8 o4 e o2 e+8 < g+4 o3 b16 < c16 o3 g+4 o2 f o3 g16 o3 e16 o4 e-16 > d+32 > f8 o4 f-4 o3 g+4 o2 d32 o2 f+16 > c-8 < c-32 < e+4 o2 e+4 < a-32 o4 a > c+8 o3 b+ o4 e32 o2 d- o4 d8 o3 d32 o2 a4 o3 f8 o4 f-8 o2 c+4 o3 g4 < f32 < e4 o3 d4 o4 f+16 > e+16 > c+8 < a16 < g-16 o2 b+ o2 a+8 o4 b+32 > a+ o4 a-16 o2 g- o2 e+32 > d o4 e+8 < g+32 < g- o2 e-16 o3 a+32 > d4 o2 a+ o3 c+8 o4 f16 > e < f-4 o2 e32 o2 a o4 d8 o2 a- o2 f- > b+16 o2 d4 < f-16 o2 f+16 < c- o4 c16 o4 f8 < f32 o3 f+32 o2 c16 o3 d+ o4 e-4 o2 a- < c4 > a16 o2 d8 o3 b8 o3 b+32 o3 c16 o3 a4 o2 f-4 > c16 < b-4 < a+4 o4 f16 < d4 o2 c > c16 < d+8 o4 a+ < g > c-8 o2 a < f+16 < g32 o2 c-16 o4 b+32 o4 g8 o3 d16 o4 d+4 o2 e4 o3 f4 o2 b16 < c32 o2 g-32 o3 c16 o4 e8 o2 a-16 o4 g > b+ o4 f32 > g o2 d+8 < f8 o3 d- o2 g16 o4 g32 o2 f-32 o3 f16 < g16 o2 e+4 o3 f4 o3 e o2 f-16 o3 c+32 o2 f8 > b-8 > f+32 o4 g16 > d-16 > b+4 o4 a16 o3 c8 o4 g32 o2 b4 > b8 > d-16 o3 b32 > e16 < a32 > f16 o4 d32 o3 a16 o2 e-32 > f32 o4 a < c8 o4 a-8 < g8 > f32 > g4 < a-32 o2 b32 o4 f32 o3 a32 > b+4 o2 f+8 o4 d4 o3 b4 o3 g-4 < d-16 o2 b16 o3 d16 o2 e8 o4 d16 > e4 > c+4 < a+8 o3 e+4 o3 g4 < a+8 o4 f o2 b32 o4 e < a8 > g8 o3 a+ o3 d16 o3 d32 o2 e o3 f4 < e-32 o3 b+ o3 g-4 < a4 > g32 o2 e8 o2 f+8 o3 g+8 o4 a32 o2 d32 > b o4 g8 o2 d16 o2 f4 o2 e+4 > f+8 o2 g-8 o4 d+16 > e-8 o2 d32 o3 b+32 < f8 o4 g o4 g16 > f+16 o3 e8 < a+ < c+32 o3 d+32 < g32 < g+16 < e16 o2 b8 o2 a- o4 g o3 e16 < a- > c+4 < d+4 o3 d+8 o4 a-16 < c-8 o2 b-32 < a4 > g+32 o3 a- > b o4 e < e-32 o4 g-4 < c16 < b32 o2 c-4 o3 a+32 o4 d > b+4 < c-16 < c+16 < e-32 o2 e16 > b+4 < b16 > e-16 o2 d-32 o4 d16 < c8 > g4 o4 f8 o2 e4 o4 f o4 b+ > f32 o3 f+32 o3 c-16 > e+32 < a-4 o3 b+32 o4 a-8 < g8 > b+32 o3 f+8 o2 d8 o4 e16 o3 a4 o2 d8 > g4 o2 e-32 > c4 > g o2 f-4 o3 g-32 o4 a+32 < a16 o2 e32 < c4 > a+4 o4 g8 < b32 o4 d-32 o4 a > c+32 > e+32 < g16 > g+4 o4 b32 < g32 o4 g16 o3 f+8 < f-32 o2 a+16 o3 c16 o4 a+32 o3 a-16 o2 c8 o3 g o4 c < e32 o3 c8 o3 b8 < g+ < g16 > f16 o4 d+16 < g o3 g8 o3 d+4 o2 b+16 o2 c4 o4 g-4 o3 d4 > a16 > f8 o3 b-32 o3 d o2 d- o4 c4 o2 e4 > d o3 g o2 b-32 o3 b-8 > d < e32 o4 g-32 o3 f8 o4 f8 o4 b32 > g- o4 a-16 o4 a+32 > a4 < e16 o3 f32 o2 a16 o2 e-32 o3 b o4 f8 < e+8 < b+4 o3 f < b32 > e+4 < b o4 d < c o3 a-4 o2 c8 o2 c4 < e-16 o3 e8 < d32 o2 a16 o4 a-4 < a16 o2 a8 o2 b o2 c16 > a-4 o2 a16 > d8 o2 g32 < d+8 o4 g-3
