piano: (tempo! 5) > d+32/a4/b+8/f-4/f+/d-8 < a16/a-16/f+32/d4/a16/a- o5 g4/a+32/g+32/e32/b16/f-8 o3 a16/f+32/d+32/e+/g32/d+16 o7 g+16/g-32/g-/c-/b/a4 o6 f32/c-16/g+/e8/b/e32 o5 a/b32/d/b+4/d4/g+8 o7 e-8/a8/b/c+32/c-32/d+32 > c+8/e4/c+32/c+4/g4/f+32 o6 a-16/c+8/a16/a/f-32/d32 o2 a-32/b-32/g4/e32/g-32/f+ > b4/d+16/b-16/c32/g+16/g+16 o3 f-8/c8/f+8/f-16/a+32/g8 o7 d+8/d/b/b+8/d32/f-4 o3 b8/c16/f-32/b+8/d+/d4 > b-16/b16/a8/f-8/b32/g o5 f-16/c+/d-16/f4/f32/f32 o4 e+8/f+8/e8/g32/c16/f-8 o4 f+4/g-4/e8/f16/a+16/d+4 > e/c8/b4/c16/a+8/e o7 e4/c-8/c+/e-4/f+16/d4 < c/e32/d+32/f/c+8/c8 < g8/g+32/e+4/c8/e8/f8 o7 f8/b4/c+/e16/b-32/g8 o2 b+4/a32/b+4/b32/d8/f-4 o2 d16/g4/c+8/e-8/e32/g4 o6 g-32/f+/a4/g4/a+16/c o6 g4/a+/b16/c-8/g/f16 o7 d-4/f32/f+4/a32/d-4/c- > c4/e+/e+16/d+8/f-8/a4 < a-4/d-4/c+32/d+4/f+16/c16 o3 f32/g+32/a+16/e+/b+4/c+16 > d32/d+4/c8/d/a8/a+ o2 f32/a16/e+16/c4/c+8/a-4 o2 d-/g4/d-16/b16/c-16/d+4 o3 e-8/c4/g-8/g+8/b-16/d4 o2 a8/f4/b+8/b4/c+16/a+4 o4 e+/b16/a-16/a16/d32/e8 < c+/b/e-8/e16/g+32/f- o6 c+4/c32/e+4/c4/c-/a16 o3 a/d+32/d+8/b4/a16/c o5 c+/b-8/e+8/f/a16/a4 o7 g8/f+16/f-32/a16/g/e+4 > g+16/e8/c/b-/b+4/b-8 < f16/d+/d-32/e+/d4/d+32 o5 e4/f-4/b+32/g/e4/a+8 o6 a-8/f16/a-/e-32/c-32/b16 o2 f16/d16/g16/d4/g16/c8 o7 c-32/b16/d-16/a-8/e+4/c4 o4 b32/g4/a16/f8/c4/g16 o3 d4/c-32/c/e-32/e-16/d16 o2 e-32/d32/a/f+16/b+16/f < d32/f+32/f8/g-32/b/g-16 < a/g-16/a8/a-/c16/a32 > c+4/a32/b16/a-/b32/d4 o2 e-/e-32/c16/g/g16/d+32 o7 g32/f+32/a32/a32/e8/g+4 > e-4/e16/c+4/e8/e4/c16 < g16/e8/e32/g-4/g+4/a o4 b16/c+16/a+8/b+16/d-8/g+32 o4 d16/g8/f8/b+8/d32/b+ o2 a/f+/a-/g8/g+16/c16 o4 f-8/a4/e-8/f-16/b-4/b4 o7 d+16/f+16/c-4/d/e+/c > e-/d4/d-4/c16/c-32/g < f-8/a4/c/f+4/g4/e < e-32/c8/g/a-/e/g-32 o6 c+8/d+32/c-8/e16/e+/a o6 a+32/b-4/c32/d16/d+/e32 o5 c+32/c+8/g32/g4/a16/b32 o4 a+/c8/b4/d-16/g-/f+32 o4 e/c-8/f32/a/d+4/d4 o6 d+/b-32/b16/e+32/b/a8 o4 g32/c8/d4/b/b-8/f+ o6 f+16/g-4/f32/a32/f-8/g32 o4 b-4/b+/a8/b-32/a8/c+8 o6 e4/b8/b+16/e+4/b+4/d-8 < d8/f-8/b+16/e+4/b-16/g-32 o5 a/a-32/b+32/g8/c-/g+32 o5 c+16/f8/f/g/f-32/f8 o2 e16/f/c+4/f8/f+8/a-4 o4 g32/c+4/d8/g+4/d-16/b4 o5 f+/e+/b16/d-32/g32/d16 > d-16/b8/d-/a+4/e+/b+ o7 d16/b4/a4/a-8/c16/f-16 o2 g+8/b4/d16/c/g+8/c-4 o2 e-4/b-/a-32/f+16/d+/d32 o6 c8/g16/a-16/g-8/f-/d+ o2 f16/a-/c+16/e16/g-/a4 o2 d-4/b+8/a4/g+32/d8/d+32 o3 f+16/e16/b+4/c-4/b32/d+8 > g8/a-16/c8/e-16/b+4/a16 o2 e/e-16/a-4/g+/f16/b+16 o4 a4/f8/b/a-32/a4/c- < b/a32/b/b+8/f4/a-16 o5 f4/g+16/g+4/b-/d+4/e-32 > c8/e-8/b16/b4/a4/d8 < a32/c+4/b-4/d4/c8/c32 < d8/e/b16/f+8/a+32/e- o4 f-4/c32/c4/f-16/b8/e16 o5 e8/a16/d+32/f-4/d4/a-4 o6 e-/a16/g4/d-16/g+4/b4 > a32/f/f-8/b-4/d-4/a-16 o7 e+4/b4/b+8/d32/b32/d-32 > a+/g+8/c-16/f-/f-4/b8 < a+8/g+8/b16/b4/e-16/b-16 o7 a+8/g-16/f32/f8/c32/b-8 o7 b4/f/f32/a16/c8/g-16 o5 c+32/g-32/e+16/f/g-32/e-16 o6 e-16/e+16/e4/c-/g-32/b8 < e16/b-4/e-32/c16/c8/a+8 o2 f+32/e8/f16/e8/b32/d-8 o4 e4/a+32/f16/a32/b+8/g32 o3 f16/a8/e8/d-8/f-/e8 o2 a32/f8/d+/f8/b4/f > f-4/c-32/b32/a+/d-8/f+4 < d+32/e4/e+/f-4/a-8/d+8 o4 d/b-16/c+8/c-16/c8/b-32 < f4/c16/c16/g+/b-4/g o5 c32/b+4/f+32/d-8/a16/a+32 o5 g+8/c/a+4/e-/g-16/g-16 > a32/f8/c/b-32/c16/d+32 > b+8/e8/a+32/a32/b4/g-8 o7 b+/c32/c32/c8/b4/g+8 o2 a/g-32/e32/d+4/c+8/a-32 > a8/c+4/d4/d+32/e-16/b+8 o5 e+4/d32/f+32/a-32/b+4/a-16 o2 d-4/a+8/g4/f8/g-/d-16 o3 c-32/e-8/f32/c-4/e4/b+ o2 a-16/d16/g32/a+16/d/a32 o6 e-16/b4/a16/b16/e+4/c4 o7 g+32/b-/e+4/a/g-16/a32 o5 e+8/f8/c8/b-16/b-32/b8 > e16/g4/e+4/a8/b-4/b+32 o3 e+4/c-4/b/d8/c+32/e8 o4 a16/b16/b-4/f32/a4/e-16 < c16/a-16/b-32/c8/c32/g8 < b4/e+8/c/e32/b16/a4 o2 c-16/a/e-32/b8/c-16/f16 o6 g-8/d-16/g32/c/d/d8 o4 g+32/d-32/c8/g/a32/b32 o3 g-4/a/d32/d/c8/e-4 < d4/d32/f/g+4/f32/c+16 < f+8/e+/f+/a/f16/d+32 o4 e-32/c-8/a8/g-8/e32/b8 o3 g8/f/e-/b-/g/e+4 o7 c8/g32/a-8/c/a+16/b32 o7 e-16/g4/b-8/e4/e-16/d4 < d-32/c+4/f+32/d16/b/g+ o6 a/d/c/e/c16/c+4 o5 g+32/c-32/a-4/d-16/b8/e-8 o7 a8/e-4/g4/c+8/f+/g32 < e8/d-/g-4/f16/b-4/d8 o6 a4/b32/c8/f/d/c4 o5 d+/b+4/c+16/f8/a-/c < b-16/c16/e-8/c32/d-4/d < d32/a32/f32/e+32/d-4/d+4 < g+32/e+4/c16/e/b4/e4 < d+16/b-16/g/c+8/d/a-16 > d-/g32/a+16/e+4/c4/f+16
