piano: (tempo! 5) o2 d-32/d4/e/g/g16/b4 o5 g-8/g+16/g32/d-32/f4/f-16 o3 g/d8/e4/b4/g4/b16 o2 d-/c+/b+8/f/g/f-8 o3 b+/d-32/d16/b/c/b16 o2 c32/g+4/c+8/f-32/e/g4 o2 b8/e/a-4/f+/b/a32 o5 b+4/d-8/e+32/b32/f16/c+ o7 b-/b-32/a+4/c+8/f+4/e+8 o4 e-/e+16/g/d8/f-/c+32 o2 e16/e+4/f16/g/c/f+4 o3 c-4/c-8/c32/e-/a/a-4 > e4/c4/e4/a-/c+16/d o4 a4/a+16/g-16/b+8/b-32/a+8 < c8/a4/c+16/g32/d+/c16 < d+8/e-32/g8/b+/e-32/e8 o7 a4/a+32/b16/c8/a/a-8 o7 f+32/c-32/c+32/a-16/c/d4 < b/b+32/a-/d4/g/e32 o3 c+8/f16/e-8/b-8/g/c-4 o4 b-16/c+4/b-16/f16/f/c4 < e16/e16/b16/b/c-8/d- o2 b16/e-32/e-16/c16/g4/b-16 o6 d8/d+8/d16/e32/c/e+4 < d+16/b-/e32/g/g4/c-4 o6 d+8/g4/d32/a+8/a8/e+8 o2 b32/b16/b+8/d16/a+4/g o4 a/a-8/c-16/c+32/c4/d o4 f4/b+4/b/f8/e32/b32 o3 g+/f4/b8/d32/f16/a32 o5 g4/e32/e8/a-4/d-4/d16 o2 f+32/f/e16/e32/g32/d32 o4 b-16/b16/d+16/g-8/d+8/c4 o5 a8/b+32/g-4/d-16/e-8/d+32 o3 b+8/c+16/b32/d-4/c32/a+8 o5 f+/c/f8/c-4/f32/a4 o2 c-16/e32/c16/f/g-/b+4 < e32/c/g-32/c+4/d32/d32 o5 f+32/f-16/c/c-32/c+32/e32 o7 b4/d-8/a-16/b+16/c4/f-32 o3 e+8/f-8/a16/e+32/e-16/e+ > b-16/e8/a-16/b8/b4/f o5 b4/g8/g32/g16/c/g+32 o4 c16/f4/f16/e-4/d8/e16 o3 g-4/g16/c32/d-16/b+/g16 o7 d-/f4/d32/g16/b4/f16 > e-/e32/c/c+4/g8/a+4 o4 g8/e+/a+/e-32/a32/d+32 o5 f/d4/a-4/e32/c+4/f+ o5 b-/g/e32/e/g-8/f-16 o5 d/b16/b-32/c+/e+32/d+ o5 f+4/b32/e+4/d+32/c32/g16 o7 g+16/e8/c-16/d-32/g-32/b4 o6 c4/c+32/b+8/e-32/c8/d+8 < g+8/d-8/f+8/a-8/f32/d+4 o4 c+16/a+/b-16/f+8/b-32/c4 o6 g8/g-16/a+32/f-4/b8/e-32 o7 a+4/c-32/g16/g8/g+32/b4 o4 c-8/e+16/b+/e32/b+4/g16 o2 f+8/c8/c16/g16/c-8/d32 o5 e+8/b-32/d+32/a-32/f32/b > a-32/d+32/a-8/e32/f16/g > e+4/d+/f+16/c/b-4/f+ o2 b/b/a8/a16/a+8/f4 > b4/g/c+4/e-/d16/a16 o6 e-32/f-/d4/d32/a-16/g-32 < b/e/g-32/b/c/d+ o5 e16/g32/e-16/g/f+/d+8 o7 f+32/b-32/g32/g-32/b-16/d+4 o7 f-8/c-16/f32/g/g-4/d-8 > e+/g+32/f-16/c4/d+/a8 o4 g+16/c+32/d-8/f32/b+/g-4 > d/d+/d4/g32/c+32/a8 o4 a32/e+8/e8/e16/g+8/b+ o5 a/f-/e32/b+/g/a+ o5 c4/g+8/c-/g-/e32/b+ o6 e4/g+8/g16/a-32/g/a o3 c/c16/f+32/c-32/b-16/g+ < a-16/f+32/g4/g32/c32/d+8 o5 f+32/c+16/f+8/a/c+/c-4 o6 a32/b16/b+32/e/a+8/c+32 o5 b32/b-16/c+8/d4/f8/b4 o6 e+16/c-32/b16/c8/f-8/f8 o3 c/e16/e+4/c16/g-4/b32 o2 g+/c-16/f32/f16/a+/g16 o2 c32/f-8/c+16/e8/d16/g-4 o4 d+32/e4/a16/b-8/c/g+8 o3 e+32/a16/e+/f-16/c+8/e-32 o4 f+32/e4/c/g-4/c-32/c-4 o5 d/d-/g4/f+4/f4/b4 o6 e+4/f+16/f+4/f-4/b+/a+8 o7 d16/c-4/e32/b8/b-32/b o6 c+8/c16/c32/e4/f-/f32 o3 c32/e/a16/c+4/g32/d+ o6 a4/d-8/f/a-/a16/a16 o7 f+4/d+/d/d32/d-32/g16 > d+4/b-8/a16/f/b4/c+32 o4 g+16/c-16/g-8/d-16/c8/e32 o2 d+/e-4/b32/g-8/a-16/g8 o3 e32/b-32/a16/e-/a16/a+8 o2 g+8/d16/d+4/c/b16/c o5 e4/e/e16/b-4/c8/d+4 > e4/d16/b8/e/e/f-32 o7 e+16/a/e-16/c16/b-16/b+32 o4 a-4/d-16/d16/d16/a-/g-4 o6 g8/c-32/d+16/a+/e-8/d+4 o4 g+16/c8/a/g+4/f+4/c+16 o7 b8/b4/d16/d16/a32/b16 o6 e32/f-16/e+16/e+32/c-/c+32 > d-32/d8/b+16/b8/f-8/g4 < d4/a/a+32/f/d4/d4 < b+32/g16/e32/e-8/e32/b-16 o7 b8/a+32/c32/g16/b+4/g+8 o2 f+/a32/a+4/a-16/e+8/a+ o2 f4/g+8/g8/d32/c+16/c32 o2 a+8/c4/d/f+4/a4/g32 o6 g-/f32/d+4/a-/c-32/a+ o5 e4/f8/d32/c-4/d+8/a+ o6 a4/g-/e-/c-32/d-32/g+4 o7 b16/a-16/f+8/f32/e16/c8 o2 b8/c-/d32/f-4/d+/e+32 o4 a-/d8/e+32/b/c4/c o7 c16/c/g-8/a+8/c32/a o7 e+16/g-16/f+4/d4/d-4/b4 o3 a+4/g16/c32/c16/g-/e+16 > a16/f-/a32/f/g-16/c16 o4 f4/f-4/c-4/d+4/f32/c+ o4 b+4/d4/c-/e32/b+/d+ > f-16/c-16/d/d+8/e-/c4 o7 e32/e/e8/a+4/d/d+4 < c-/d-16/a16/f8/b4/e32 o3 a32/d+4/b4/b32/c+32/g+ o7 b+8/b/e4/e4/f+16/d16 o5 d+8/g-32/e+16/d4/f8/b-4 < e4/g8/f+/g-/d+4/a32 o4 g-32/d16/b4/e8/d4/g+4 o7 a+8/e16/a-/b32/d+8/b16 o3 g16/c4/e4/f32/c+8/c16 o4 c16/c32/f8/b-32/a8/f < a4/f16/f8/d32/e+/f-4 o7 d4/f8/f32/b-32/g-/b16 o5 e+/b-4/f16/g+32/a-32/e-32 o5 g-4/d16/f-4/f32/e/a-32 o2 d-/a8/c4/b+8/c+16/g8 > c16/f/g8/a4/c-32/b-32 < d16/g8/d+/a8/a32/e32 o2 g/c8/e/b/g16/e- o4 e+16/e8/e32/b-/e-4/b+4 o3 a+4/g8/e-32/d32/a32/f-32 o2 f4/a-4/d4/f16/e16/c4 o2 a+32/c+4/e16/f8/a+/d-32 o5 g32/b+8/a+16/a+16/e8/e4 o6 a/b8/b4/b8/e+4/a+ < a+4/b-8/f8/a4/a-16/a+ < c8/f-8/a-8/c/g+8/d-8 o7 a4/e32/f32/c-4/c+8/b+32 o5 b8/e4/d+16/d-32/b32/c+32 o3 g/g/b32/g32/d16/d32 o2 a32/f32/g+4/d4/e-/e4 o3 a32/a+4/b4/e+4/c+/a+16
