piano: (tempo! 10) < a8/c+8/d32/g4/a-4/c4 o2 b-4/b+4/d+32/f-/f4/c o5 b16/c32/d+/c8/g/c4 o5 a16/a16/c-/f+/a16/g+8 < g-16/c/e+16/b4/c+8/b8 o6 a-4/a-/e+8/b+/a-4/d16 o6 c+16/c+32/g+8/a16/e+4/b16 o7 d/c+16/d+32/c/d4/d+ o5 f/f32/d+8/f/c4/a-16 o4 b32/g32/a+4/e+4/d-4/e4 o6 g32/f+/e-32/a+8/d4/g o4 d16/b32/g/f+16/f4/a-16 o4 b16/d16/f8/a-32/e+32/e-32 < f16/d16/f-4/g+32/c8/c4 < b8/g+32/c+/e-/a8/f+ o2 g16/b-32/g-/d-16/g+/e4 < g-16/c+16/e16/e+4/c/b4 o4 d-32/a32/c+32/c32/a-4/g+32 < b/f-32/d4/e+16/b32/e+8 o2 a32/d4/d-4/c+16/g8/g4 < a-8/e-/f8/a-32/g+/d8 o4 f+/c-32/d4/f-32/a-16/b+ o3 e+8/g8/e-8/c-8/a/d+16 < d16/e/e+16/b8/a-8/b- o2 c+8/g+32/f8/c/b16/e16 o7 a4/b8/c-/d+16/g-32/a-8 o4 b8/a+16/g+4/a-4/d4/a32 o2 d+4/f+4/c-16/e+16/c4/e4 o5 f-16/a4/e-/f4/g/e+ < a/f-16/d+4/f+/e/b8 o3 e8/d+16/b/g4/f-8/b32 > f4/b32/d-16/f+16/g-16/b o2 g4/b8/b16/b+8/g+/e-8 o6 c32/a-8/g/f/c-4/b4 < c32/a+8/f16/c16/b4/b8 o2 d4/c+/f8/e-32/c-/f- o6 a32/c32/f32/d8/a32/c8 o2 g32/b+4/a16/g-8/c-8/a8 o5 e32/b+/e16/a/e-/d8 o2 c-4/a-4/g-/a4/a-/f+ o6 e16/f/g32/a+32/c4/c4 o2 f/c-8/d4/c/d-16/e o4 c+/a/b32/g+4/g-32/d8 o4 d4/a+16/f/c4/b+32/d8 < a+32/c+4/e32/b/a-16/g+32 > a4/a/a+/f-8/c/a4 o3 d+16/f+4/e+4/a+/c-32/e+8 o7 b32/d32/d4/a8/f8/a32 o4 d-4/b32/g+/a16/a+4/a-8 o7 e-32/b8/d-16/f-4/g-16/f+16 < f+/c+32/d-32/d4/d32/f o3 g32/f+4/g8/g16/c+16/f32 o2 e4/e+/a-4/e+32/f-8/e+ o3 d-16/c/e-32/f-4/g16/g16 o3 g4/e16/b4/d+8/a+4/g-16 o7 a+32/d-32/c32/e-8/c4/b-32 o5 b+32/e/g+/f4/f32/g+8 o2 b16/e8/f16/d32/g-/g+32 o7 c4/b16/g32/f-8/d4/c+ o3 a-32/a-8/c+32/a-8/f+32/f8 > g4/c16/d8/g+8/a+4/f8 o4 c-32/c-/c+4/c+/c+4/b32 o4 g/a+/e16/a-16/d8/b+8 o5 b16/c-16/a8/g4/d+32/a-32 < d32/c+8/d-16/a16/b-16/b+8 o4 a-32/d+8/c32/f/e16/f-32 < f4/c+8/a32/g+32/c16/c- > e-16/a-8/d-8/d4/a-8/g32 < g-16/a32/e32/c16/d-16/c+8 > a-/a4/g-32/f8/b-32/f-8 o5 g+16/g-/b4/g/a-8/g o5 b+16/d+8/c4/f32/c8/f4 o6 b16/e+8/b4/f4/d+16/d8 o6 a+4/g+/c4/b8/b-32/f+8 < g-/g+32/c-16/c+4/g32/e-4 > f+4/e4/g-8/c32/e/b16 o5 a8/e-/a+/a/e-4/g32 < b+8/b-8/f-4/f/e-/f o3 g+32/f-32/b8/g/g+/a4 o2 a/g-/f8/a+32/a+32/e+16 o6 b-16/b/c/f4/d8/d+16 o6 f-32/g/e8/d-4/a/c-32 o2 b/f32/c-8/d4/b/g32 o6 b8/d-16/e4/c-32/c8/g8 o6 d-8/d+8/d4/c/e/d-4 o6 b-/d-4/d16/a-32/f32/f4 > c/a32/b4/d+32/g16/a16 < a8/f+8/g16/f4/b-8/e8 o5 f8/d32/e/e4/e-/a- o5 a32/d-16/d+4/f+4/c-32/e-4 < f+/f8/a16/c/d16/f-16 o3 e-/b+16/a32/a+/e/b-4 o3 a+16/d+16/d-4/b/f/a o7 a/e/d32/f4/e16/e+16 o4 e-4/c8/b+32/a4/a+8/d16 o3 f+4/c-8/c8/g/c4/d-32 > a32/e4/c-/a-4/b/a+32 o7 b4/a+4/d16/d+4/e4/f32 o5 c-32/d+8/b16/e32/f-4/b16 o5 d32/e+32/b+8/b+16/d+/a+ o3 g32/g+16/b+/d-/b8/f+16 o5 g32/b+16/e8/g8/e4/f o4 f+32/f8/b+8/a+/g/d16 o7 a8/b+32/f-4/c+/g-32/c+16 o5 b16/f-/d-16/b32/b/e-8 o7 e-32/b+16/d+32/f-8/b-32/a32 o6 d-4/g/a+32/f+16/f-/c+16 o3 f-32/d+16/c+16/b16/f+4/d16 o4 a+4/e-8/g32/g8/g-16/g+16 > f+4/d4/f+/g-8/f/a-16 < b/e16/g/b/e+32/a+4 o6 d-16/c32/c+8/g+8/f-4/a4 o4 d+16/b8/g-8/g16/b16/a16 o5 a4/g+4/a32/a+32/f/a+32 o2 a+/g-16/d+4/e4/c+32/e o5 e32/e16/a/e32/f+8/a+ o3 b-8/b-16/b32/c4/e+16/b-8 < d/e+32/g8/f-8/a4/d16 > a-4/b/c4/g32/a4/a16 o4 e32/a/a4/g4/g-4/e-32 < d8/d+16/c-/b/b32/d-8 o5 c+16/b+4/g4/b-8/g-/b+4 o2 e+4/g4/c8/e32/b8/b+16 < a4/f/g32/f8/g+8/a- o7 e4/f-32/a/a-8/g32/d8 < c-16/c8/e4/b-/e+16/b4 o7 g+4/g+/d-/b-4/g8/b32 o3 a+4/e+4/c32/b+8/b-16/g8 o6 g-8/e+16/c8/c-/g32/f-4 o7 g/f-/e16/a+32/d-/e4 o7 a8/d+/e/e+8/e16/g-8 o3 f32/f-8/g-32/g16/a/b-16 < g-4/c4/c-8/c16/g-4/d+4 o4 a+4/b32/g-16/d-4/f+16/a32 o4 e/e-/f-/g32/b-16/d4 o7 e16/d16/e-32/d-32/d+/f-4 o7 b+8/g16/a4/b32/e-32/d+32 o6 d8/c+16/c+4/a32/g32/c4 < a16/c4/e4/c8/d-8/a o3 a16/b8/a8/b-4/c8/d16 o5 g32/c/d8/d16/e4/b8 o4 b+16/c/e16/g+32/a32/f-4 o2 g-4/b+16/f16/e/b4/e-4 o2 d/d-4/d4/b4/e-16/c < c-16/g-32/a+/a-4/d+4/f4 o4 e+/c-/f/f-/c-/g-4 > f8/b-16/f4/a+32/d-32/d+32 > d32/a-8/f-16/c16/b8/b+8 < b+8/g32/f-16/c-16/c+32/d-32 o6 d+/d4/c16/c+32/b4/c+4 > g32/f+16/f32/a32/f4/b32 o7 f+4/f16/b+4/d8/a+4/d8 o6 f-8/f-32/c/c-4/e-16/g < c-16/d+32/e16/g32/e8/e+4 o3 f8/e+8/c+4/g8/d16/e+ > f/e32/e-16/f+/c32/d4 o3 d16/b+4/b+8/b-16/b+/a-4 o3 a-/g-/e-/f16/e4/g4 > c16/f4/g8/b4/e8/b8 o6 f-16/a+4/e-32/g+8/b+32/g-4
