piano: (tempo! 60) < a-4/g+32/a8/c+32/g4/e-8 o4 f-/g-8/b32/d+/c+32/a32 < e-16/b-16/g-8/a16/a8/g-4 o5 f+4/e/c-8/e-16/a32/b32 o4 g16/b-/c4/b+4/a+8/f+8 o6 g/b+4/b+4/g-4/b+4/g+4 > e4/c16/b-/g+32/g-32/a+32 > c+16/c-4/f+4/b8/f16/e+ o7 e8/b-4/b+/b/c-/a4 > a/f-32/g+4/d32/c/e < c+32/e16/b8/e-16/g-16/f8 o6 g+16/d+16/g+8/b4/c/d-16 o3 d-8/f-/a4/a+4/b+/e8 o5 b/e/f+8/c32/d16/c-16 o5 a+16/c-/b4/g32/e+/d8 > c16/f/f16/c16/d4/b32 o5 a-/a16/e32/a8/d4/c8 o2 g8/f/d8/d-8/a/f-8 > a-4/d4/d-32/a+32/c8/e+16 o7 f8/f-32/b+32/f32/e32/a+4 o4 f8/a8/g-4/g8/d+4/f-4 o6 f4/e+4/e+32/c-32/a+4/a-4 o7 c4/a+4/a4/e+16/d/c- o3 b4/b+/g8/b-16/d-4/a16 o7 a-4/f-/g-4/a+8/a-16/f+4 o2 e+4/g/b8/e8/b4/c8 o4 g8/f+/a/b-32/g-/g- o6 c16/a32/b-8/b/a+/f16 < b16/g-4/b-/d-8/c+8/e- o7 g-32/c+32/g/g4/b16/b4 o2 g16/g+16/c+16/d+/g+16/g+16 o6 g4/f16/e+32/b4/a4/d4 o2 d32/e+4/c-32/e16/b8/b- o3 f4/a+8/b+4/a+16/a+4/a4 o2 d-16/d-8/d+/c16/f+32/a-8 < b32/a-/b32/a32/a16/a-16 o4 a16/b+/b8/f32/c8/a8 < a16/c16/b8/c16/e-16/c32 o3 a+/g+16/a-4/c-32/a4/b16 o2 e8/c+4/g8/g/f+4/b-16 < g-16/e8/a32/b16/a4/f+16 o2 c-/g16/e-/f+4/d32/e+32 o2 f-16/f-4/g8/g+8/g+/d4 < d32/b8/c4/c-8/b/b-4 o5 f+8/f-8/f-16/d4/d-16/d4 o2 g16/d4/f-/c32/b16/f o6 b-16/f/e4/a8/f-4/e+32 > f32/f+/f+/f/d/d4 o4 a8/b32/d-4/b-16/a+/g+4 o4 a32/e32/f/a-32/a-/g4 o4 f+32/c/c+4/e8/e16/d- o2 e+32/c/f+8/b+4/g+4/g- o2 e32/e/b-8/g-32/f4/a+16 o3 g+16/g8/f16/f/b16/b32 o5 c/b16/f/b4/c+8/g-16 o4 b/d/g+4/f8/c8/c o7 b4/g4/e-4/a-8/d8/b o4 e-32/g+8/g/a-/e8/d o7 g+8/e-32/c/f+16/a4/e+ o4 f8/c4/e+/e+16/g4/a16 o6 a-4/d+/e+16/d8/c8/c-16 o4 d-8/b-/g+32/f-8/d4/b-8 o5 f16/b-16/f16/c-4/f16/e-16 < b/e4/e+4/f-/c32/a8 > f+16/e-4/c8/b8/c-32/b4 > g-/a16/f32/g/c8/d8 o2 e/g8/a16/f+8/a+/c32 o3 d8/f-32/g32/f4/g16/f16 o6 e+8/d8/g16/d32/d4/b+ o6 a/c4/a+/a+8/f/e+ o7 g32/a4/f32/e+32/g+/g4 < c/e16/a8/c-4/g32/b32 o4 b16/b-4/f+/f+16/d-4/e o7 a32/e16/f4/b16/e/g < f16/d32/b32/e/c16/b4 o2 b+8/b-8/e16/d8/g+/d32 o7 d-/c/g8/b/d-4/g4 o3 a-32/b-16/a8/a-4/e16/b+8 o2 c+4/b-4/b-4/g8/b+32/b- o5 g32/c+16/c-8/b4/a+8/g8 o7 c+8/b16/f4/e-/b/a- o3 f/c/e/b8/f16/c4 < a+16/e32/e32/e+16/d8/f4 o7 b-/c+4/c+4/a+16/e8/f+16 < c32/b16/c8/a32/c/c-4 o4 a-4/d16/c-8/c-16/a+/a32 < a-8/e-/d/b+4/f+4/f-8 o4 f-8/c-32/a8/d16/f32/b8 o7 c+16/c-16/c-16/g8/d/g16 o2 b+32/a8/d4/d+32/b+4/a+16 o5 c+32/c-32/f-4/e32/g-16/c < d4/a-16/a4/f+16/c16/e4 < a+32/d/c32/a-16/b16/b4 o3 d+32/f-/g32/c16/d8/f- o6 c32/e32/d-32/e4/f-4/e-16 > b+16/e-32/g4/e32/d/f+8 o3 d8/e-8/b32/d32/g32/c-32 > f+4/c/d-32/a+8/f4/c-4 < e/a16/g8/e4/c8/c+32 o4 g4/c/g+8/d/e16/e+ o4 d4/d+32/g+/d+4/a-32/c+8 o7 e16/a+32/c-/c16/a/c8 o2 e-32/c-/g-32/a/b+16/f16 > b32/a+/b-/g8/f16/f o7 f+16/b8/d+/d-/c-/f+8 o7 g+8/a-16/e-/a8/d+/g8 o3 f+32/d/f32/g8/g4/f+16 o3 e-16/e-4/a4/c-16/f+4/e < a-8/d/d+/e8/e+8/a+4 o5 d/a+/c-32/c8/e+16/g+4 o2 f+4/d+8/d4/g8/e+32/f+8 > b-4/g+32/e4/f+32/a32/e-4 o3 g+16/d-/c16/g+8/g-16/c+16 o5 f+16/f+8/g+16/f-32/g8/c-16 o4 a/g4/e+32/b+/g+16/f16 o7 b+32/b-4/e-16/d+32/a+16/b16 o6 b16/a8/f+32/f32/g16/d-16 o3 a32/g8/e-8/d/g/a-4 > b-16/d-/d16/g-8/f+32/f32 o7 e8/d+4/d+8/d16/a32/a16 o3 a4/b+/d/f/f4/f-8 < g32/a+4/f32/e32/a/d-4 o3 e16/f+4/c8/a16/b+8/d- o4 a-/e-4/c-8/a-/e32/e-16 o5 e-8/b8/d16/e/e16/a8 o6 b16/e4/d-32/a-8/b+4/c-16 o3 f-4/d8/g-/f+32/c-16/a-16 o6 f-4/d+8/c8/b-4/f-4/a- o6 g-/d/b-4/f-16/g-/e4 > b32/c+8/f+4/a+4/d-16/a-8 o6 g/g4/g8/f-32/b-16/g+8 o6 a-32/d+16/c32/e+8/c4/d > c16/g+32/f16/e-16/f4/g-8 o4 f32/d16/d/g/c+4/f- o4 f-/g-/f-4/f-4/a4/f- o3 b-8/e+16/c4/d-4/f4/b16 o7 f-32/e+/g/g-8/c32/a16 < g8/f4/a-32/g+/b/b+4 o3 c-/b4/a-8/e8/g4/f32 o6 a/d8/e32/g16/a+4/f- o2 b8/g/c-/f32/a/e+8 < g+/a+8/d8/c32/a32/d32 o4 d/f32/g/e4/f4/b o2 b+4/e+8/e8/a4/g32/g- o6 g-32/d+4/f/a16/g-16/f32 o5 d16/e-8/c4/c-/e/f4 > f16/f-/d-/c-16/f32/e8 o6 c-/f/e32/a-16/c16/d16 o3 b+/a-32/f8/b+8/d4/c4 o2 e+4/d-32/c/d/f/f32 o5 f16/g+4/e16/f/a-32/a32 o4 c+8/g-16/b+32/d+8/b-/b+8 o4 g-8/a4/e8/f+/e32/e32 > b-8/b8/f+32/b+4/d-16/b8 o6 d+8/g32/f/f-4/c-16/d8 > b4/b-4/e/b16/d/g32 o4 c+32/d16/g32/d-32/g+8/b o6 f+4/f8/g32/g32/g4/e+16 o3 b8/e4/f+/f+/a+32/g16 o3 b4/d-16/g+8/e16/a-32/f
