piano: (tempo! 10) o5 b+32 < c+ > b-4 o5 a32 o4 g- < d+4 > d+32 o3 c+32 < g+8 o7 d8 > g- o6 c4 o5 c4 < b16 o7 d-8 o5 e+ o3 f-32 o4 f-8 o7 b+4 o4 d+32 o4 e- o3 a16 o5 d4 o5 g+16 > a16 > c32 o4 a > b16 o7 a < e- < c-8 > b16 o6 f+16 o6 a32 o5 f8 o6 g32 o7 c+16 o7 a4 o7 f- < e32 o3 f+8 < f16 o6 c+4 o5 e- o5 g+4 o7 a+8 o3 c-8 o7 g32 > f+32 o5 b < a32 o3 f+4 o6 g-16 < e+32 o3 f+8 o4 d o7 d4 > f o7 c-4 < b-16 o7 e+8 o3 e > g+32 o7 a16 o5 f8 o4 c- o7 c16 o4 d-4 o5 e8 o6 a8 < d32 o7 a4 o7 c+ o4 g+4 o7 a-8 o7 g32 o5 a- o3 a8 o6 g8 o3 g o7 f4 o5 e16 o4 a- < b- > a+4 > g+8 > f- > g+8 < b-16 o4 c-8 o6 f4 o6 g-32 o6 c+16 o3 e-32 > c4 o5 g+32 > a o5 c+4 o5 a32 o4 d- < e-4 o6 f4 o3 b+16 o7 d+32 o3 f16 o5 e4 o6 d-32 < a+8 < f-8 o4 e+16 o3 b-32 > b4 < d16 o4 b o3 b-32 o7 e4 o5 b+16 o7 g o6 c-8 > f o4 a16 o6 e+32 o5 b16 o4 f- o6 e-8 o6 b8 > c-4 o7 e16 o5 d-16 > b4 o7 b8 o4 e8 > e4 o6 d+32 > e+16 > f-4 < b8 o5 b+4 o5 b+16 o4 a o4 e4 o4 c-32 o7 g32 o3 b32 < f-32 < d32 o5 e+8 > e+16 o7 a- o4 g4 o4 g+8 o4 f+4 o3 f+4 o3 f4 < a > g8 o3 c+32 o7 e-32 o4 f16 o5 e+32 < c16 o4 f16 > a o7 a-32 o5 e-32 o7 a4 < g16 < d-8 > c- < f16 o4 e-4 o6 g+16 o5 e-4 o3 b32 o5 g8 o4 a- < c32 o4 e32 < b o3 c+16 o5 g16 o7 a8 o5 e+ o3 c+4 > a16 o3 d- o3 c o3 a+4 < d o5 c > g8 o5 f+16 < b-4 < f-16 > c- o6 e-4 o4 a32 < d4 o4 c16 < b8 o5 g-4 o3 d+16 o4 c32 o4 d8 < b+4 o3 b+ o7 a4 > d-8 o3 a+32 o6 c- > c4 o4 b- o6 a+4 o4 g32 > b32 o5 g-4 > e o7 c-16 o5 a+16 > f-8 o7 f4 o5 c4 o6 e-8 o5 f8 o6 d4 o7 d- < b+16 o5 e-4 o6 a-4 o6 d+32 o5 a8 > e > e32 o5 g8 < a16 o6 g16 o3 f-8 o4 f-4 < b4 o4 a > f4 o6 b+8 o7 b16 o6 f+8 o5 g > f32 < d-8 o3 f4 < b+16 > g4 o5 a-32 > c32 < a- o7 a- o4 f32 o7 b+ o5 e-32 < a-32 o5 g-4 o7 b16 < c- o6 e-16 > b+16 < d-32 o6 d8 o6 f4 > g+16 < b- o5 g+ < a8 o5 b4 o7 b-16 o3 a o5 d8 < a+ < a8 o7 g+4 > e+8 > a16 o3 d- o5 a8 o4 f o5 g8 o7 b-4 o7 e+ o6 f+ > e32 o6 a+16 o6 e32 o5 f32 o7 c-4 o7 e8 o6 f8 o3 c+4 o6 g- < a16 o4 g32 > a+ < e16 o4 a+16 o6 b16 o7 e8 o4 g o3 f16 o4 e32 o3 f- o7 d-16 o7 g+16 < a > g16 o5 f > f16 o5 d+16 o7 e8 > g32 o5 b32 o7 g-32 < g < f-4 o4 e8 o5 e o3 a8 o6 d16 > a16 < c+4 o4 e8 < e8 o7 g32 < a4 o4 e32 o7 a16 o6 e-4 o5 b o7 b-4 o4 c- o3 f o4 b- o4 f+32 o3 c o4 e-16 o6 c4 o5 c+ o4 b+ o6 d32 o4 f+8 o3 c o6 g-32 o3 f+ o5 f8 > d-16 o4 g4 o7 d8 o6 f-32 o7 f+16 o5 e+4 o3 a+4 o5 b-32 o3 g+8 o5 a+4 o6 e o6 e16 o6 e4 o3 f-8 o3 g+4 o7 g8 o7 d32 < b-16 > e4 > c4 o7 c+ o7 a+4 o7 d- < a4 o6 e+4 o5 c8 > d8 o4 a+8 > e-8 o6 d-4 < d+4 o6 b+8 o7 d16 < d+4 o6 c4 o3 a+ o6 b4 o7 g+4 > b+4 o3 b-4 o7 c+8 < e32 o7 e4 < a-8 o4 d o4 d-16 < a+ o6 d+32 o7 a > d32 o4 g32 < b+8 o7 a+ o5 d- o6 a o6 c+16 o5 a+32 < a8 o4 a-4 o7 e+32 o4 e-4 < b4 o5 g o5 f4 > b+ o7 g4 o5 d32 o4 c- > g- o4 a32 > e32 > c8 o4 f4 o6 d-16 o3 a32 < g32 < f32 > c-8 o3 b+ o3 d+ o5 c4 < d-16 o4 e32 o7 c- o3 d-8 o7 g8 o6 c+8 o7 e+32 o5 f+8 o3 c8 o4 f-4 o3 a-8 o3 e8 o6 g16 o6 d o7 a o6 b-32 < b+16 o6 g-4 > a+ > g-16 > g+16 o7 c+32 o3 d+8 > c4 o7 g16 o5 c-8 o6 d+32 o5 d+ > b4 o3 c32 o6 a-16 o5 f16 o7 f16 o5 f+4 o4 c8 o5 f4 < d16 > f-16 o6 a+32 o3 a4 < g-32 o4 a o5 e+8 < g4 > c32 o7 d-4 o5 c8 > e-16 o6 d16 < e-8 o7 f-8 > b-8 o4 d+4 o7 a+4 o6 b o6 c8 < g16 o3 d+8 < f- < e+ o3 d8 o3 c32 o6 e-4 o7 e-32 < e+4 o6 b+ o5 d8 o5 a+4 o5 g-16 o4 a+32 o7 a8 o7 g-16 < a+ o3 d8 o7 e+ > d < g+16 < a+8 < a-8 o7 g o4 f-16 o6 a-4 o5 c-8 < f o6 b32 o3 g+32 o4 d32 o4 c- < b32 o5 e-32 < g-8 o6 e4 o3 c16 > d+32 o6 f- > e16 o6 c > d+8 < a+4 o6 c-8 o3 d8 < e+4 o3 c+ o4 d+16 < g+4 < e32 o3 c o4 f8 o7 f o4 g o5 d8 > a o6 e-8 o7 g-4 o6 f o7 a4 > a32 o4 c4 > g4 o6 e- o6 a-8 o3 b < b+ o7 a+ o7 b8 o7 f-8 > g-32 o3 e o3 f4 < d+8 o6 c+ o5 c+8 o6 d-32 o5 c+8 o4 f-4 o5 b+16 > d-32 o6 e16 o4 e o4 a-8 > b8 o4 e+ o5 f16 o5 a-16 o5 g32 o7 a-32 o4 f8 o3 g+32 o6 c-4 > f16 < e o4 b32 < b+4 o4 a8 o3 d+16 o3 f o7 c+4 o7 b16 o3 b16 o7 f+ o6 g-4 < b- > f4 < c16 o4 g32 o5 d+4 o3 d+32 o7 c o3 e o5 d+16 o3 d o5 c o4 g16 < b-32 < d > b-16 < d-16 < e8 o5 d-4 o3 f4 o7 b+32 < a- o5 c8 o6 c-4 o3 c16 o6 a+ o7 e o3 g o5 e-32 o3 g8 o4 e-32 o5 b8 < g-8 o5 b-4 > e o6 f16 o7 a+16 o5 e-8 o7 g16 o5 e+8 o7 e+8 o4 e-8 < d16 < e o5 a o4 a8 o7 a16 o7 a-8 o3 e8 o3 g8

midi-bright-acoustic-piano: (tempo! 10) > g-4 o6 a32 o3 g+16 o5 a32 o3 g32 > g16 o3 f8 o5 e < c-8 o5 g16 o6 c16 > f-4 > g o6 c4 o3 c32 > d+16 o5 g+32 o5 a-8 o4 e+8 o6 f16 o6 b- o7 b+32 o4 e4 o3 b-32 o3 c+32 o4 e o4 b+4 o6 d- > g+8 o6 b32 o5 f+32 > e32 > c- o4 c4 o7 b-32 > b4 o3 c- o7 g4 < f16 > a o3 d o7 b-16 < f-16 > c-4 o5 c32 o4 a o6 b o6 g-32 o7 e o5 e16 o4 f8 o3 b16 o5 c o6 e4 o5 g-4 < e32 o5 d32 o5 d+32 o5 g-8 o3 c- > a32 < e32 o7 a16 o5 b32 o6 a- o6 a+4 o5 e16 > f+32 o6 g8 > a o3 c+ < f+8 > d8 o6 b4 o6 e-8 o3 c-32 < b32 o5 c+4 o5 a16 o5 a-8 > e32 o5 e+ o4 c- o7 g o6 e-4 o6 c+16 o3 d-16 < d+16 > b+4 > g-8 o6 d+32 o4 f4 o7 e+32 o7 d- o3 d-16 o6 a+4 o3 f+16 o7 f4 o5 d+32 > c32 > a+16 o7 a-32 o6 b4 o6 g+ o7 f-16 o7 f4 < g+16 < c-16 o3 g8 o4 c+ o6 b+16 o5 e4 o3 e+16 o7 f o6 e16 o6 b-16 > a4 o7 d+ o5 e- o6 a-4 o4 d o3 a32 > g+ o6 f16 o6 b-16 > c+8 o3 e+32 o7 f- o3 f4 o5 g4 o3 g32 o6 g8 o4 e o7 d4 o3 c-8 o5 a-4 o5 e-16 < d-16 o3 e8 < a8 > b > d4 o7 c8 o6 e+16 o5 e32 o5 d16 o7 b8 o5 f-32 > g32 o7 g- o7 e8 o3 a-16 o3 a32 o6 e+4 o7 c o4 f16 o5 e o6 c16 o6 c+4 o4 e- > e-16 o5 c+8 o3 d8 o4 a+32 o4 f o5 b+32 o4 e o6 b32 o4 g+8 o5 b-16 o7 f- < g-32 < f16 > g o3 b o7 e4 o3 c32 o3 d8 o5 e-16 o7 a8 o7 g+4 o3 e-16 > e-16 o4 f+16 < c4 < d+ o5 c- o6 a32 > g- o5 c16 > c-4 o7 f+ o3 g-16 o5 c+8 o3 d+8 o4 b16 o5 d-32 o3 b- < a o5 d8 > a4 o7 d-8 o7 d-32 > b4 o7 a-8 o3 c+16 o7 a-32 o3 f+32 o7 b < a4 o5 a-32 o6 g32 o7 e4 o6 g+32 o6 d32 o7 a- < f+16 o7 e+16 > b16 o4 f o3 g+16 < a16 o3 f- < f o3 f8 o7 a-16 o3 a+ < f-32 o5 b4 o7 c+4 o4 e8 o4 e-32 o7 c-4 o7 e+32 > f32 o7 c8 o5 a-32 o3 c16 o6 e-4 o3 b4 o4 b32 o7 c-16 > a+16 o5 c8 o3 d-4 o6 f16 < f32 o4 b-4 o6 c o4 b4 o6 c < g-8 < c8 o4 d- o6 e-8 o4 b+32 o7 b16 o4 a8 o4 e-4 o7 b+16 > d32 o7 d+32 o6 d16 o4 g-4 > c > a8 o3 g4 o7 g4 < f+32 o5 f8 o7 g-8 o4 d- o3 a+32 o3 g-16 > e+4 > b16 o5 g+32 o4 a+16 < d- o6 d+32 o6 a16 o7 g4 o7 a16 o6 d+8 o3 d32 o6 g- o4 a o7 a32 o7 a-8 o6 c+16 o6 b16 o6 c-4 o4 e > f32 o6 f > a-32 o7 a+ > b o4 e8 o3 c-8 o7 d+4 o5 c16 o5 a-4 > e-16 o4 b-8 o3 f32 < e16 > d-16 o4 e16 o5 d-16 o4 g+4 o6 g32 o3 a-4 o4 a+16 < g-4 o7 d-4 > c16 < b32 o4 b4 o7 g < g-4 o3 c-8 > d+32 < a+ o3 d8 o4 d- o5 c16 o3 g+32 o3 f32 o5 a16 o3 d-4 o5 b+16 o4 d4 o6 a-4 o5 a4 o4 f+32 > f+ < c+16 o7 e32 > e8 o7 c+4 o7 b+ < g+8 o7 g16 < c16 o7 e32 o4 c+16 o3 e+8 o6 e32 o5 g4 o7 g- > d-32 o6 c4 > e4 < d32 o5 g4 o6 c+8 < c-32 o7 e16 < d-8 < a4 > c-32 > c8 o3 d8 o6 g32 < c32 o3 c o4 d-16 o3 g32 > f8 < d32 o4 e32 o4 a-32 o6 e16 o6 f4 o4 e-8 o4 b8 o6 a-16 o5 e16 o4 g4 o4 d-8 o4 b32 > b4 o7 g+ o3 b o6 c-8 o3 g4 o4 c+8 o6 g4 o3 d- o4 b4 o3 g16 < a+16 o7 b+4 o5 f o7 b32 o4 c+4 > b+8 o6 c-4 o6 g4 o4 b4 o3 g-16 > g16 < e-8 o3 e+32 o7 f < e+ > a4 o5 g+32 o4 b-4 o4 e+4 < b8 o3 a o3 c+32 o6 e+32 > e4 < e32 o6 b4 o7 c > b+4 o4 f+ o6 f+16 o5 b+16 o7 e-32 > d- o3 d4 o4 b32 o7 g o7 a32 o4 f o4 g32 > d+4 o3 c16 < c+16 > d+16 > g4 o3 e+ < g-4 o6 g16 o7 g16 o3 d o6 c o3 b8 < a+4 > a- o6 g- o5 b16 o5 f16 o3 g-8 o4 a32 < c32 o7 f+32 o6 d32 o3 b8 o4 b+16 o7 f+ > c+4 o5 a4 < f16 o3 f32 o7 b16 > c-8 < e-32 o5 f > d+4 o3 a+ > c4 o6 f-4 o6 d16 o4 e8 o3 d+8 o3 e4 o4 c- < b-8 o7 g+8 o4 e+32 < f4 < a+4 o4 e32 o4 f+16 o5 a-8 o3 d8 o3 f+32 o3 d-32 o4 e16 o5 e4 < f+16 o7 d4 o4 a > e4 < d o3 g-8 o3 a32 o3 a16 < a+8 o7 a16 < e8 > a4 o4 b8 o5 f4 o6 g32 > g+16 < c+32 o6 a8 > e16 > g+ < b+32 o4 g32 o4 e-8 o4 e4 o4 f-16 o4 d o7 f- o3 d-16 o7 g- o7 a o4 e4 o3 d16 o5 f+4 < g+16 o6 b+32 o5 e32 < c8 o7 g+32 > a32 o7 f32 o4 b32 o5 g16 o4 d32 < b32 > f- o7 c4 o5 d+32 o7 c+32 o6 d o3 a o5 d-4 > g32 o6 b4 > e-16 o4 d o7 g+4 o3 f16 o3 b+4 > f- o7 a32 o7 a8 o3 f- o4 g+32 o6 d16 > f- o3 b-4 o3 e+ o3 f32 o4 a-8 o3 c32 > d+16 o5 a4 o6 a- o4 d+8 o5 c8 o5 c16 o4 f+8 o5 b4 o6 d32 o6 c+4 o5 b32 o7 a+ o6 d+32 < c- o3 g+16 o7 a+ o5 a-8 o7 f+ o7 c+32 o4 c-4 < f-32 o4 a o5 f+4 o6 g+8 o7 f-32 o5 b4 o5 e16 < c+16 o5 d32 o6 c16 o7 b8 o5 f+8 > f4 < c32 o5 c-4 o3 e16 o5 b8 o6 d16 o3 c8 o5 e8 o4 a32 o3 e+4 < g-8 > b- o7 d-8 o4 a32 o5 b8 o3 a o3 a o4 e+ < e+4 o3 d o7 e+ o5 f- o5 a32 o7 g4 o7 f+16 o3 b+8 o3 c- < d+4 o3 d o5 b o6 g8 < e16 < g16 o4 e-32 o3 b o7 d+ o3 b8 o7 e+16 o3 d-16 o5 e-8 o7 f-16 o6 a32 > e+8 o5 a- o5 f-8 o7 b32 o7 d o4 a o6 a o6 c-32 o4 c+8 o6 e16

midi-string-ensemble-1: (tempo! 10) o4 g32 o3 f+4 > d8 o4 d16 o3 f16 o5 f > e-16 o3 f8 o4 g4 > g4 o3 f16 o5 c- o3 a-4 o4 g+4 o3 g16 o5 f > f16 o4 c+8 o4 b-4 o3 a-32 < b-4 > e+32 o3 f-4 o4 f+16 o4 a8 < c o4 e+16 o4 g16 o3 c4 o3 g4 o4 e > g32 o4 a-32 > b8 > g16 < e4 > c-4 < a+32 o4 g4 o5 e+8 o5 g+32 o4 b-8 o3 e+4 < d- > b- o5 d-32 > a-8 o3 f+ < b8 o3 a16 < a32 > a32 > a+8 o3 c-8 < e-16 > d+8 > d4 < f- o5 g o5 e o4 e4 > b o3 a+8 o4 a8 o4 e-4 > f+32 o3 e32 o5 b+ < a+32 o3 g32 o3 e+4 > c32 > b-4 o5 c o3 a+ < g-8 > d4 o4 e+8 o3 a16 o3 c4 o5 b o3 d+16 o5 c16 o4 a+ o5 d+32 > b-16 o5 f-32 o5 f+32 o3 c16 < b+16 o5 g32 o4 e8 > a+32 < f4 o5 f16 > g4 o4 g8 o3 g- > d4 < b4 o4 f32 < b+8 < b32 o5 b+16 o5 e+32 > c8 > e+8 > a8 o3 a > b- > g+16 o5 b-32 o5 d8 < f16 o4 g+16 < d-16 o3 a-8 o5 c+4 o5 g < e+32 o5 e+16 o3 c8 o4 b-16 > f+16 > g-4 > b+32 o3 e8 o3 g-8 > c o5 c-8 > c- o5 g+ o3 d+4 o4 d o5 g > c4 < f-16 < a+4 < b+8 o3 c4 o4 f-4 > e+16 > a8 o3 f-32 o4 f-32 o4 c8 o4 e4 o5 a+4 < a16 o5 d+8 o5 a16 o3 d+32 > g8 > g o3 d8 o3 a-32 o4 d+16 < d-8 > e4 o5 b4 o4 c o5 a-4 < c+ o5 f-32 o4 c-32 o3 e32 o5 b8 o3 f4 o5 b o3 c32 o3 b- < a+4 o4 e- > c8 < a16 o4 d+ < a32 > f32 > d o3 a16 o4 a32 o5 e4 o3 g8 > a+ < f o4 f- o5 e+ o3 f4 o3 d-4 o5 c-8 o5 d+8 < c < b16 > f+4 o5 g4 o5 g-4 o5 c32 < b8 > e-8 o4 e o4 d+16 < f4 < e32 o3 c8 > b-4 > c4 > f-8 o4 d o3 b8 o5 f16 o5 d < g- > d+4 > f > a4 o5 f+16 o4 f+16 o5 e32 o4 c32 o3 b-32 > b-8 < f+8 o3 c4 < e8 o5 a+8 > c4 < e16 o5 a-4 o5 b- o3 f o5 d8 < b+32 o3 d-4 o3 d+ < a-4 < a-8 > a8 < d16 o3 e o4 f+8 o5 b16 o4 f+4 > f8 o5 a4 o3 e+32 > f+16 > f-32 o3 f4 o4 g-8 o3 b+ o5 b-16 < g < f-8 > f8 < c16 > f16 o4 f32 < a-4 o5 b+32 o5 g > a32 > f4 o4 b8 o5 a+ < c-16 o5 e8 o4 f8 o4 g+8 o4 e o3 f-4 o4 c+ > d32 < a+ < e-16 o3 c8 o4 g o3 e8 o4 c32 > a16 < f32 o3 e+32 o3 c16 < b-16 > g4 o5 f4 o4 b4 > f-16 o4 c+ > d < e8 > b16 > d+16 o4 f o5 b- > d o3 g o3 d-32 o5 f8 o5 c32 o3 g-8 o5 g32 o5 e < a+8 o4 a+16 o3 c-16 > c32 o3 a- o4 d-32 o3 g4 < a-16 o5 b-16 > b16 o4 g+4 < c+32 o4 f- > g+4 o5 b4 o3 g4 < f-4 o3 c+16 o3 b16 > a o3 e4 > f-8 < a8 o3 g32 o3 a+16 > a16 > e8 o3 a+32 o5 d+32 o3 f4 o5 c8 o3 g- > d16 o5 e o4 c-32 o3 d32 o4 f32 o3 g16 o4 a-32 o4 c-4 < f+32 o3 g8 > g-16 > c+ < e+4 > a+16 > a16 o3 f < g o5 e8 > b+8 o3 a+4 > f8 > a-16 o4 b+4 o4 e-32 < d4 < g-16 o4 e16 o4 f+8 < e+4 o4 d- > d-16 < a o3 d+4 o4 c4 o3 g16 < f-8 > c4 o4 g8 o3 b4 o4 e+ < c4 o5 b+32 o5 d < d+4 < c-16 > f-8 o3 g < c-4 > f8 o5 d-8 < c4 o3 g+16 o5 f4 o3 a8 o3 e8 < d+ o3 g+4 o5 b+32 > g8 < e32 o5 e32 o4 g32 < g-4 o3 e < d+16 o3 a > c- o4 b o5 g+32 < a+32 < f+ o4 d32 > b+32 o3 a4 < f-32 o3 c- o4 f > a8 < g+32 < a > b+32 < f-16 o4 b < c+8 o5 f8 o5 d o5 d4 > e4 < a- < c16 o5 d+32 > a-32 > a16 o4 c4 o5 d+4 < b8 o4 g4 o3 e16 > e-4 < d16 < b < g-16 > b16 o4 d+32 < f-8 o4 a4 > a- > g+8 o5 g+ o3 c- > c4 < c16 o5 e16 o4 a8 o5 c+8 > f8 o3 d8 < e+4 < a+32 > f+32 o5 g32 o3 e16 > a+32 o3 d-32 < a+ > d o3 e o5 c8 o3 c-16 > f8 o3 a32 > c8 o5 d32 o5 f+ > f-4 o4 b o5 b32 o3 b16 > e8 o5 e-4 o4 b+4 o3 c16 o3 d-8 o4 c+ > a+32 > b4 o5 c8 o3 g8 o4 c16 < d o5 b+16 > e8 < f o3 f4 o4 b+ > g8 o3 d32 o4 g32 < c+8 o5 e-32 o4 d8 o4 f+4 > d- o5 d-4 o4 b+16 < e+8 o5 e+ > g32 > g- o5 f+32 o5 a-16 < b4 o4 g o5 a+4 o4 d8 o3 f+32 > e16 o3 a4 o5 g+32 o5 f+32 o3 d16 o4 g4 < c- > g+8 o3 c-4 o5 e- < f8 < c-4 o5 b16 o5 c+32 o5 g16 o4 a+ o5 d32 < b o3 f+ > a-4 < a < e-32 o5 d+4 o3 b+8 o5 b+4 < f8 o4 f o5 d32 o4 g16 < f o4 f16 o3 b+32 > e-32 o5 a+ < d-32 o4 g32 o4 c-8 > g-4 < d o5 e-8 > g- < f16 < d+8 > f+4 < c4 o3 a+4 o3 c4 > f4 < g-4 < b-4 > f8 > d-16 > c16 o5 c+8 > b4 o5 c+8 o4 f- o4 e16 o5 b o4 b16 o4 a+4 < c-16 > f+4 < g+32 < a-4 > d8 > d32 < d4 > e8 o3 c+ o3 b o3 f32 < d+ o4 e+8 > b+8 < e4 o5 f-4 o4 a-32 o5 c-16 o5 a16 o5 g-32 > f-32 o4 a > e+4 o5 b8 < a-8 o5 a o3 c+16 o5 g32 o5 d4 o3 b-4 o4 b- o3 b+4 o3 a16 < c+8 > b-4 o4 f+4 > a4 o5 g+32 o3 e-8 > e-32 o5 b32 < b > a-8 o4 a16 > g+4 < g+16 < f-4 o5 c16 < c o3 g+16 o5 d < a+32 < d+8 o4 c+ o3 d8 o4 b16 o3 g-8 > a16 < b-8 < g-4 o4 a o4 g-32 < a+8 < f16 o4 g32 > e32 o5 e-16 o4 g32 o3 e+
