piano: (tempo! 5) o3 e8/c-8/e8/a16/f4/c4 o3 c8/c+4/g+32/g8/g8/a32 o7 a+/c-32/e4/d16/a-32/b+32 o7 d32/f8/d16/b8/a-/c+16 < e+4/c+8/b+16/a-32/e/b-32 o4 c+4/d-4/f+4/c32/a+/b+16 o7 a+8/e-8/e+16/e8/d/f8 o4 e4/c16/f-8/g-4/b-32/b8 o6 a16/b16/b-/b/c16/f-16 < c4/b8/d/g+/e8/g8 o6 c+8/c+16/f8/f+4/g/g-4 o3 c+/d8/c/g+32/c/d o7 a-8/b-/d+4/d8/g8/b+32 o7 e32/a32/d+16/f4/d-/a32 o6 a/f-16/a-32/g32/d8/b-4 o4 c32/d-16/d32/b8/g+4/d32 > e+8/d32/g+8/a32/d-8/a32 o3 c16/d+8/c+8/e+8/g+4/e+8 o2 b-8/a8/c/c+4/d/c+4 o4 f-8/g+32/d/b-32/e16/b+16 > b8/g4/a+32/g-32/e+16/f4 o3 c+4/g+16/g32/g-/g4/c8 o2 b16/a+4/b-8/g4/g-8/a+8 o6 e-/g32/c-/f+4/f+16/c+4 o2 e+8/e4/f+4/e8/e+16/a+32 > c/c+8/c/e32/b+8/d-8 o3 a+32/f+4/c-16/a32/a32/g- > g32/f-16/d-16/d4/f+16/b+4 o2 f-4/c+8/a+16/a+4/g+16/c-32 < f8/d+4/d+32/f16/c4/c8 o2 c32/f4/f-4/c-8/a-4/d4 o7 g-4/c-32/a-8/f16/b+8/e o3 d16/g-/g/e-/c+/b8 o4 d4/a+4/g16/c-16/a+/g-4 o6 f-/g-16/b32/b8/f8/a o4 e32/a-/f+16/d-16/c+4/b-16 > e-16/c-32/f8/f4/c16/e32 o2 c-/g/g16/b-/f+4/d4 o7 e4/a32/g-4/a+/d-32/c- o6 d/f-32/d+/a+8/a+8/c4 > b8/g-8/e4/c16/a8/g-4 o5 e-32/f+32/a/e4/g4/f+ o5 g4/d16/b+8/g32/d32/b16 < f-4/g32/f8/e32/b16/c8 o4 e-4/c+32/g+32/e+8/c8/a o5 e-16/b-/c4/b16/d32/f+4 o7 f16/d-16/d+8/c32/c-16/g+4 o4 a-16/g/g-16/g-32/c-8/d4 > b+/d8/d16/b-/c16/c o5 c+16/b32/e+16/b-16/e4/e o2 f-8/d32/a+16/c-32/d+32/d+8 o7 f32/f+32/g+4/d+4/f/c o5 c32/a-16/f32/a+8/a/b4 o2 f-16/d+32/e16/g-8/a/g8 > c32/f4/c/f+/a-/e+ o2 f/b-4/b-8/c8/a-32/b o2 c4/g4/e-/b/g32/c-4 o3 g/a-8/a32/b+8/g/e-8 o4 d+16/c/e+32/d/f-8/a+ < g16/a8/f+16/e-4/b/a8 < a+4/d4/a16/d/f16/e8 o7 a32/b+8/a16/d+16/a8/c8 < a-/g/e8/e4/f+32/c+16 o6 c32/d-8/b/e+32/g8/c8 o2 e/a-/g32/g8/a4/c+ o2 e16/f16/a-8/b/c/f-32 > a32/e/c8/a-16/b+4/c-16 o3 f32/c4/a8/e16/c4/b32 o2 f-8/d16/e/d8/a-32/d-16 o6 a32/d8/c-32/b-4/g-16/b16 o6 a4/g+32/c+16/f8/a+16/e4 o3 a+4/f+16/d/a32/d-4/c32 o7 d+/d/a+32/c32/c4/f4 o6 e+/c+8/f8/a/e8/g o6 b-16/e32/a8/a8/c8/c-8 o2 b/e-4/b-4/f/b8/c-16 o4 c-/f32/f32/g+8/a+32/c32 > c+4/f32/f-32/g8/d+32/c-4 o3 d-4/c-32/f32/e-32/d+8/b-16 > e4/f/b+16/a4/c4/c o3 b-/c16/a8/f+8/f16/d > a+32/f8/a4/a16/e32/a4 o7 g+32/c4/f+4/e-8/d32/f-16 o2 g32/c-/b/b32/g4/c16 > d-32/d4/f+4/g4/b8/f-4 o3 a+8/e-8/d+16/b+/b32/c+ o2 b8/f+/d32/f+16/f/d8 o5 d-/b16/f+/c16/c-/d-4 o3 g-16/g-/a+/f4/a-16/d-8 > d+32/c+32/a32/g-32/b-/d+4 o4 e/b+32/b8/g32/g16/b+16 o2 a4/f+4/d4/g4/a8/e+4 o3 g32/d/d8/b-4/g-/c4 o7 c+32/d-16/g-16/f-32/a4/f8 o6 d/e/f+8/c-16/c+8/c32 o2 d/b/c-32/a+16/e/b o7 f16/b-32/d/d+16/d+/d4 o2 b-4/c+16/e/c+32/b/g16 o5 d/c8/b/g16/b16/e32 > f+16/g8/d+/f16/g32/a16 o3 f32/a4/f/f+/g/d16 o3 d+/f+32/b8/g-8/c16/d-8 < e-/g16/e+/b+4/c4/f o2 b16/d8/c+4/g-32/d-4/a-8 > c4/e4/a+/d-32/d-16/d8 o7 f+32/a+16/d8/b+32/a+/d8 o6 g16/b+/b-16/f16/g8/a o4 f+32/e-4/e8/g-8/f+8/g+8 o6 g+/f+/b-16/f8/d+32/e32 o7 d+8/b/a/f+16/f32/e16 o4 b32/c-/g+8/c+8/g32/g-4 o7 c-32/g+/f8/f+8/a-8/e-16 o6 e+4/g16/f4/e/b+/e+8 o7 e/a+32/g/g-32/a-16/b4 o5 f+8/f/g+8/a32/f+32/f-32 o6 b+4/c4/a8/d+/f8/f > a-4/a8/b+4/c16/e+16/b-16 o4 f32/g+32/d/b4/c+8/f8 > a32/g+4/a16/g+/f-32/c+4 o2 f/a-4/a+8/e32/a+8/a o3 g16/g/g+16/f-8/e32/f+32 o4 a-/b+/f4/e-8/a-4/f-8 > b+/e8/e+/b+8/d-4/e > a4/c+8/d8/d-/b-8/d- o6 b32/a+8/e-8/a-4/f+/f-8 o6 a-16/f/g/a-4/b16/a4 o3 b32/b+16/g/c+32/e-/e16 < b32/a-/e-8/c-16/c8/b-32 o5 g/e8/a4/a+4/g32/b-32 o3 e8/b16/b+32/b+4/e8/f-4 o6 d-16/a+/a32/c-32/g32/g32 o6 d+32/b/f/c-32/e+32/c32 o7 a-4/d16/c8/b/g8/a-4 o2 b-8/e-32/f4/e+4/e+32/c-16 o7 f/d-8/d-/b+4/g/b8 o3 d-32/b+8/f+4/e+32/e4/c16 o2 g16/e4/b32/c-32/g16/d o2 a-32/a32/b+16/b-4/a-16/a+32 o4 a8/g-4/f-32/f4/f8/g+4 o2 c/a+16/c+4/e16/a+8/e+32 o2 b+8/d8/f8/d32/d4/c+8 o7 b-16/b+32/a16/e32/f+/g+32 o7 d32/b32/f-/b8/b32/d8 o5 a/c-16/f4/d32/d-/e+ o5 d-32/d8/d16/f16/c16/c o6 g-32/d-32/g8/e+16/g+8/d o2 b+32/b+/d-/d32/a16/a32 > a8/c/c+8/e+32/a32/a8 < b4/a+16/b/f+8/d/c32 o2 b4/e16/d32/a32/d-32/c+16 o2 f+32/a+/g/f+16/d+16/c-4 o4 a+8/g4/g8/g+/g-32/d o4 b+16/d16/f-4/e4/f/d8 o6 g+16/e16/c8/d-/f+16/a4 o7 c32/a-8/e4/e+8/c8/d8 < b+32/e+/c8/a/a+8/b8 o6 e4/a+8/b-32/b16/b+/a-8 o4 a8/a-/b4/g+4/g-8/f8 o5 a4/a8/d+16/c+/e/e-4 o2 g/a/a8/b-8/d16/a
