piano: (tempo! 40) > b-8/b/g16/f-4/b4/c-4 o5 d8/f8/b-16/c8/d-4/f16 o2 a/d8/d16/a32/e32/b32 > a-4/f4/g-8/f16/b/e+16 < g-32/g+4/b-4/f16/f8/g32 < d-4/f16/g-8/b4/a/a- > e8/f32/e-16/a/c16/f+32 o6 e16/g/d+/c+8/a-4/c o4 b-32/c+/a+16/g32/g+4/g16 o5 f+16/f16/a-4/c+32/a+8/g- o2 c8/c32/f32/f16/e/d32 > g-32/c32/b8/g-32/a/g4 o2 b-16/b-32/b8/a32/c+/f+32 o2 e8/e32/d-32/g+16/e-4/f o2 d+4/b16/e+/g+4/d-16/f-16 o4 a-4/e16/g-8/b-16/c-32/a-16 o6 b-16/c16/c-32/e16/b32/b8 o7 b16/e+32/c16/c8/a16/g < a+16/g+4/e+32/f-16/b+16/c-8 o6 c+32/d+4/g-/f/f/e4 o6 g32/g8/b+16/c16/a+8/c4 o2 b16/e+8/a16/b8/f+16/b+8 < f/c-16/b16/d4/c32/b8 o6 c16/c32/d-32/e32/a+8/a4 o3 b/g+8/g4/e-4/e8/f32 o7 d-16/b/g8/c16/d16/g-4 > a+32/c/a+16/c-8/e8/e4 o5 g4/c/a/e-32/g+16/a4 o4 c/e8/a-8/f-/b-16/c o4 g4/f16/e4/g+4/e+16/g o6 b+/b-16/c8/c-4/d4/c o4 g-32/b+/g32/d-32/d-32/f o7 f-4/b+8/a4/f4/c+/g32 o6 e8/g-32/a-/d+32/b16/f16 o4 e/c-32/b+/f-8/d-32/d8 o7 b4/b8/c32/a-/d32/a4 < b8/b32/c+4/d+32/e+8/g-16 o5 d+4/e-16/d-4/a-4/g8/c8 o5 a+16/c8/e+4/a8/e-4/a o7 f+32/d8/a-4/f16/g-32/g8 o4 e+32/d/b4/a+/d8/b4 o4 d+16/c-16/f-32/c4/a+8/d4 o6 d+4/a/a/c16/e/g-4 o4 f+8/d-8/c4/g16/b/d8 o2 d32/b-/f-/g4/g4/f+32 o5 g8/d+4/b+/b16/b/e+8 o5 g-4/d-32/f+16/e/g8/g32 o4 a/f32/a+/f16/g+32/f4 o3 a16/e+32/a4/d32/d-/b16 o5 b+4/g16/g+32/b/e-4/d- o6 g32/a4/g-4/e32/b+4/e32 o3 g/e8/f-32/b16/a-/a4 < a+8/d-/e+32/b+8/c+16/a4 o2 d+/b32/g4/a-/f32/d+32 < b-/f4/e/f+8/b/g16 o2 c4/g/a16/a4/b4/a+16 < c+16/a4/a+/d-4/c16/a+4 o6 g/g32/b32/e-8/d-16/d+ o2 f8/g8/a+/a8/b16/a8 < d16/c32/e16/a/f32/c-16 > e/f32/d32/d+/g-/d32 o4 a+8/g+32/f/f+4/c+16/g-8 o4 d-4/c+16/a32/e8/g16/d+32 < d16/c+8/e-4/a-4/e16/e o6 f16/f+4/d4/a32/c+4/f32 o3 a/f+16/c-4/d+32/d+/c+4 o5 e+/g+32/g-32/a+4/b32/d+8 o4 b16/f+32/a-8/a32/a/d32 < e/a4/f+4/e-4/g+32/c32 o5 a4/b16/d32/e/b+/c-16 o3 a/d16/f16/c+32/a32/a16 o4 f/e4/b/c8/f4/e-32 o3 b+8/g+32/e+16/b+/g4/e16 o2 b/e-32/b8/c+8/a-4/f-8 o2 c4/g+4/b-/f4/a8/f-8 > f+16/f+4/f8/e+/b4/b o5 c-32/a32/c8/c-16/d-8/f-16 o3 b-32/b-4/e-8/a16/f+4/a- o5 b-4/a/g-/d8/a-32/d > e4/c16/b+4/a+4/f+16/a8 o5 g-8/a16/f8/g+32/g/e o4 d+16/b-8/f+8/b16/g+16/a8 o6 b+32/c8/d+8/g4/g/e o4 f-4/e-4/a+32/f-32/d+4/a o3 d4/d-/d-32/g16/g-32/b32 o6 a8/d32/d+4/f-/b+4/b32 o4 c32/a8/g-16/e+8/g32/c o3 b32/d+32/g+4/c8/e-8/g16 o2 g4/c+4/g-8/e4/c8/b+4 o7 d+16/b+32/g-/f/g8/b32 > f-32/c+8/e32/g32/a32/g+16 o7 b/g-32/e+16/g+32/a+32/g8 > d32/b32/f-4/b+4/c+8/e+8 o3 f16/c+8/f-8/f32/e8/c-32 o6 e8/d16/e32/f+8/a32/a8 o7 g16/c+16/c16/g/b32/e8 o6 a16/c16/e-16/e32/f+4/g+32 < f+32/e-4/b16/a32/a/f4 o4 a+16/c-32/a16/d32/d+32/g+8 o2 g+8/g+8/f-16/f-32/f+32/b16 o4 g32/g16/e32/a8/g4/g8 o7 a4/a-4/g/g+16/f+4/f-4 o2 a8/g32/a/d+/e8/d+16 o7 c4/d4/c16/g+/b16/c+16 o5 c/a32/g4/d-4/f+/e-16 > c32/d+16/d16/a8/e4/a4 o3 d/e+/b-16/b32/a-/c-4 o3 a-16/g/f4/f4/c/a+4 o7 a16/f8/g-16/a32/b-16/b4 o3 c4/g+8/g32/c8/c16/g4 o5 b+/f+4/e-4/g-4/d32/f+ o3 f-32/f-32/f-32/f8/b32/b16 o7 e+16/d-4/a16/e-/c32/d+32 o6 f+/b+8/c-32/g/f-/f+8 < a/e-4/e-32/b32/f16/c-16 o4 c/b8/a16/c+32/g/c8 < f4/c8/f/e-8/d/f+16 o7 d/f32/c/e4/c8/d4 o2 a8/c-8/d8/a+16/e-32/e32 < g-32/a4/a-8/a-32/d16/e8 o5 c-32/f-8/c/f-4/b/c16 o3 e/g8/c-32/c+4/b8/g16 o4 a+8/c-8/d32/d-/e8/c+32 o7 c+/b+8/e-4/c/g16/g4 o2 g8/e/f/a-32/e-/g+8 o4 g16/b+32/d32/c+8/b-4/a+32 o4 e4/c+16/e4/f+8/g8/d+16 o4 g4/b+4/c+8/g8/g16/e-16 o6 e32/c+4/c32/b-4/e-16/d4 o7 e-8/c16/a+16/f+4/d-32/a+8 o6 e+8/g-4/b-/d+/f/b8 o5 b16/c4/d4/f16/e-8/d16 o4 b/b+/e-16/d+4/d+16/d4 o7 c-4/c16/f16/e16/d/c+ o2 b16/e-4/b-16/e+4/a+16/d-8 o2 d+32/b-4/a32/c32/b+/c o6 d16/d+8/d/g-32/a4/e4 o5 e+/e/b-32/a32/e4/d-4 o6 c+4/f/a8/b-/g8/b16 < e-32/e-8/c-32/e-4/c/b o2 e32/g-16/c32/d16/g8/d-8 o4 d4/g16/f32/c32/e+/g < e+16/g16/g-16/e-32/f16/f+8 < g-16/d-8/b32/g+/f-16/d8 o7 c+8/a8/e32/f+/f-4/e16 < c+16/a-8/e+/d8/e16/f-16 > a-8/e-8/a-4/b+8/b16/a4 o4 c8/e-8/f32/a16/d-16/e32 o5 b32/c4/d+/g-/a32/d-32 > f32/g32/d-16/f+32/e-/e-8 o2 d/b-4/g-4/e16/b-16/e8 > b8/b4/a32/b+32/d+8/f32 > a16/a4/d4/f4/a-8/e16 o2 f-32/f-4/g/e32/d8/d16 o6 a32/c/a+8/f-32/c4/c8 < b16/f/a-16/f16/b/a16 < e8/e/g+4/g-32/e-16/g8 o4 d-8/f-/e-32/g+/g+8/d16 o2 c/d-16/a+/e4/a-16/c8 o4 e4/a16/a-32/e4/a-16/a-16
