piano: (tempo! 10) o5 e+ o6 g-32 o4 e-4 < a4 o6 e16 o6 d- o6 f+8 o4 e > b < a+4 < f-32 o3 e16 o7 a o4 e+4 o3 e+4 < g+ o6 d4 < f+32 > f8 o3 b o7 e8 < c8 o5 f4 o3 f-8 o5 g o5 b- o6 c8 o4 e4 o4 f8 o3 f+16 o5 c16 o5 e+ o7 f4 o6 d4 o6 g4 < e32 o4 g-32 o6 b < f- > g o5 a8 > b-8 o3 f+8 > d8 o7 f-4 < e+8 o3 d+16 o4 c-32 o5 a o6 f-4 o3 e- > c-4 o7 a- o5 e+4 o5 c+16 o6 a+32 o6 e16 o4 d8 o6 g+16 o7 g+16 o6 b8 < b o4 e o6 g8 < a16 < f32 > a32 o5 d o6 c+8 o5 f16 o7 a-16 < c4 o5 e-16 o3 d+32 o3 b32 o4 c32 < f-4 > d-16 > e4 < c o4 d-8 o7 f32 o7 c-8 o7 a16 o4 e16 o5 a8 o3 c- o7 e-16 < a+16 > a+4 o3 a-16 o4 d- o6 a-16 > g+32 > e-4 o6 c o4 e4 < e o4 d-16 o3 g16 o5 b+32 o6 g+ > g-32 o7 e o4 f16 o3 d+32 o7 b+8 < a- > b+32 o6 e32 o7 c-4 o7 e16 o4 g+4 o5 e16 o5 e8 o6 e+4 o6 c+32 o4 d-16 o4 b8 > f-16 o3 e4 > b16 > b > a16 o7 d-32 < b8 < g16 o7 a-32 o5 d-4 o3 e32 o4 f+16 o5 e o5 a-8 o4 b8 o6 e- > b-32 > e-32 o4 g8 o6 g32 < e4 o7 c32 o3 d+8 o7 b32 o7 b+16 o5 c- o5 b8 o6 c o3 g+32 > c o5 c+32 o6 e16 > c-32 > g8 o7 e+4 o7 d < c-32 o5 d-16 < e- o3 e+ < a16 o4 g+32 o5 d+16 o5 c+4 o7 e+32 < f4 o7 a+32 o3 f+ o7 a4 < d+ o4 d16 o3 b- < b+4 o7 g+8 o6 a32 o4 g+16 o7 f-8 o3 e+8 < g-32 > g+32 o5 d16 o3 f-8 o7 b-16 < a32 o3 f4 o5 a-4 o6 f4 o5 g+32 > c16 o7 e16 o5 g+ o3 b+32 o3 e4 o3 g-4 o3 b+32 o6 g+16 o3 e-16 o3 a-8 > c+8 o3 c- o4 e4 o6 f8 o4 c32 o7 c+8 o3 g+8 > d o7 f4 o4 c o4 c o4 e8 o4 f32 < b8 o5 e4 o3 e4 o6 g+32 o4 c-8 > a32 > e16 < d+ o5 b16 < b-16 o6 b32 > d32 o5 d+16 o5 e8 o6 b16 o6 c-4 < f+ o6 f16 o7 c+32 o6 b4 o6 a4 o3 g < c+32 o5 f < c+ o3 b-32 o7 d+4 o5 c- o6 a-16 o3 f-4 o6 a32 o4 a-8 < b- < c4 o6 a16 o4 e o4 d4 < g+32 o7 g4 < c+ o6 f-4 < b4 o4 g4 > b16 o4 d8 o3 a-32 < f+8 < f < a32 o4 a+16 o3 b16 < c8 o4 a-8 o3 b32 < g-8 o5 b8 o4 d4 < c32 o6 e32 o6 d-8 o6 f+8 o4 f- > d4 > a- o6 e+8 o5 c-32 o4 f-16 o7 f o5 g8 o6 c16 o7 d32 o4 f- < f4 o4 g+32 < e-32 > b+16 o4 a8 o3 f32 > f+32 > e8 o5 g+ o7 d+32 o3 f-8 o5 a+ > e+4 o6 d+32 < e-8 < e-4 o6 d+32 < f o4 a o5 e- o3 e8 o7 g32 o7 d+16 o4 f- > f16 < a+4 o5 f4 o6 a16 o4 d+32 o4 b16 < a-8 < e+8 > c+8 > e+16 > e+8 o6 f- o3 g+4 o3 g8 > g+16 o5 b8 o4 e32 o3 g16 o5 f8 o7 d4 o7 c+32 o4 g < a o6 g+32 o5 f32 o7 g4 o5 d- o6 d+32 o3 e+4 > c4 < c o3 d- < e o7 d+ o3 g-8 > d16 > e32 < d8 o5 f > f+ o4 g32 o5 c+8 o7 f16 o6 d-4 > e+8 o7 d- o7 b-32 o3 e4 o6 e > a16 < f-32 < d-16 o7 g4 < f16 o7 g-16 o4 f16 o4 d o7 f-4 o3 c4 o6 c o6 e- o5 f+ o4 e+ o4 d-16 o3 d+32 o7 f+32 o7 g+8 o3 g+32 > a+4 o7 f4 o6 c-8 o6 g o4 b+32 o7 d-4 o7 g4 o3 a32 o6 a+32 o5 b+32 o4 c-8 o6 b+16 < f32 > c4 o5 e32 > d+16 o5 d16 o5 a+8 o6 a+16 o3 d8 o5 b+16 < a4 o7 d- o4 f4 o3 a+8 o4 b o7 a+ o4 f-4 o6 g32 o4 c+ > e+16 o3 g-8 o7 c8 > a+32 o3 e8 o4 a-4 o6 c4 o5 a-8 o7 c-32 o6 c- o5 d+8 o6 d+ o4 c32 o4 c+32 < a4 o7 b-32 o4 e-32 o7 e4 o4 f+8 o6 b-4 > d- o6 c8 o6 g+32 > f+ o3 g4 o3 g8 o7 e4 o6 g+16 o3 e-32 o3 g32 o5 e-8 o7 f8 < c32 > f- o3 a8 < e < g-16 o7 g32 < f16 < a+8 o4 c-8 o4 c8 o3 g32 o4 g+32 < d-4 < c- o5 b+ > d4 o6 g- > d- > f+4 o7 e-32 o3 f o4 e16 o5 g-8 o7 e4 o5 f-4 o3 d8 o6 f+8 < a o4 b8 < e o3 e-4 o7 d16 < a o4 g+32 o7 e32 o6 f-8 o5 d-4 o3 a-8 < a o5 f > e+4 < a+16 o3 d+16 > g+8 o4 g- o6 g-4 o5 c o5 f+8 > g-32 o5 c o4 d+16 o7 d16 o6 b4 < d+4 < d+4 > e8 < f32 o3 e32 o6 g-4 > e+16 o3 d8 o6 g-32 o5 a8 > e4 o4 c8 o3 c-32 < d- o4 a+8 o3 f+32 o5 g-8 o6 d16 o4 f < f16 o5 a4 o7 e-32 o6 e+ > g o5 g o4 g-32 o6 b4 > b16 o6 g32 o4 d16 o6 d+32 o3 g4 < b+32 < f+ < c+ o7 a+32 o3 g-8 > d-32 o4 e- o6 g+16 o4 g32 o3 g16 o5 d-4 o5 g8 o6 c-4 > c4 o3 f4 > f+4 o4 g-32 o3 a+ o7 f8 o5 f < d o4 g+ o3 c-16 o4 c-4 o6 d8 < a+4 < e o6 d+8 o4 g4 o6 d+16 o6 f32 > d+32 o4 e4 o6 c32 > a o5 a8 o7 f+16 < b16 o4 c16 > e < f o7 g-4 o3 b32 o6 d+ o4 b8 o6 c o6 g8 o5 a4 o3 b-8 > f-4 o4 g+16 o7 f-8 < e-32 o6 f32 o3 g32 o4 d o5 c+ o5 c8 o7 e+16 < a+32 > g+16 o4 a+ o4 d+16 < a8 o5 d+ o5 a4 < a32 o6 a-32 o3 c+16 > a+ o6 c16 o6 f4 > g16 o4 g4 o3 a-4 > g o4 b+8 o6 a8 > b+32 o3 e+ > d4 o5 d+8 o7 f-4 o5 a-16 o5 c32 o5 a+16 o5 d+4 o5 d-32 o5 b+16 o4 c- o3 c4 < a-16 < g4 o4 b4 o3 d4 o3 f16 o4 f+ o7 c+8 o3 g16 < e o6 b+4 < f+16 > c-32 > e+32 o6 a-8 < f8 o4 f-32 o6 b32 > f8 o7 a+8 o4 g+4 o4 b+32 < d+ o6 b8 o6 a8 o6 c- o5 a-16 o3 e4 o6 f+16

midi-bright-acoustic-piano: (tempo! 10) o7 e-8 o7 f > f8 o6 e-16 o7 d-32 o5 f16 > d-32 o4 b-8 o3 b8 o7 a+4 o5 d- < f32 o4 e+ o5 d4 o3 a4 o4 d+16 < d o7 g- > e-8 o3 f4 o6 b+8 o4 g32 o6 e+16 o7 c16 < d+4 o4 c+4 o4 f16 o7 g32 o7 b-8 o3 b8 o4 g8 o6 d-8 o6 b- < d- o6 d+32 < f-4 o5 e32 > e-32 < b+16 o6 g+32 o4 a8 o3 f32 o6 g16 o3 e+4 o3 c+4 o6 c+32 o3 b8 < d+32 o3 c o5 c8 < a8 o4 g-4 o3 e8 o6 d8 o4 b16 < d+8 o7 f+ o5 d16 o7 f < b4 o3 b-4 o6 b4 < g+16 > e < f-32 o4 d16 o4 g8 > a- o4 e > f o6 d16 o6 f-32 o4 a16 > a4 o5 d32 o7 f+ < g-4 o6 g-4 o6 c16 o7 e+4 o5 g- < a8 o7 g+8 o4 d- > d+16 < e16 o6 a8 o4 g+ o4 e-4 o7 d+8 > c-4 < f o4 e4 o3 a16 o6 d32 o6 g+ > b-8 o7 f4 < g-4 o4 d+32 > a+16 o4 b+ > f+8 o5 a+32 o7 e > a4 o4 e+16 o6 f o3 c+32 o3 c32 < f > b+16 o6 e4 < b+32 o5 g-16 o6 d+16 > f16 o7 e8 < d+16 o4 a+8 o7 f4 o4 b+32 o7 c- o7 g8 o6 g4 o3 b+16 o3 d+16 o7 b32 > g+4 < e-16 o7 b+4 o3 b-16 < f-8 o7 d-16 < g o6 c-4 o3 f-4 o7 d8 > a4 < g16 o4 d32 o4 f32 o7 e-4 o7 e4 o3 b4 o5 b-8 o4 e+4 o4 f-4 o3 e4 < f4 > g+ o7 f-32 < d4 o7 e-4 o4 d4 o4 g4 > f+4 o6 b16 o7 e+8 o5 d- < d+4 > g4 o3 e16 > g+8 o3 f-8 o7 f- < f+4 o5 b-32 o6 g o6 c+ < d+16 o5 b-32 o7 g16 o4 b+8 o3 e o4 f > e+16 > e o6 c o3 g-16 o5 f16 o5 f- o4 f8 o4 a4 o7 e+32 o5 e8 o3 g32 o5 g o6 g+16 o5 f+32 o7 g4 < c-16 > c32 o6 e-32 o5 d4 o6 c4 o7 b-16 > f+8 o4 d+16 o5 b8 o4 a32 > e32 < d+4 o4 e8 o5 d32 o4 d-16 o5 f16 o5 d+16 < b- o4 d16 o4 b32 o7 d-8 > e16 o3 b4 o7 e32 o5 e < c-32 o4 c- o7 g32 o7 f-16 o7 g- < e o4 e-4 o3 f- o5 c8 > a-32 > c4 o7 e+4 o3 e+ o7 d+16 o6 g4 o7 d-32 o7 f+4 o5 c8 < a+ o3 e+ o7 d8 o6 d- > b+16 o4 d16 o5 b+ o3 f8 < c- o6 f-32 o7 g-16 > e4 o5 c8 o5 f4 o4 f-16 o6 c-32 o5 a16 o3 b+4 o3 c8 o7 e+8 o4 f+4 o7 f32 o6 d32 o7 d32 o4 d-4 o7 e+4 o5 a4 o6 b- > f-16 o4 f8 o7 d8 o4 c4 o5 a4 < b+8 o6 g16 > b- o7 c-4 o3 e8 < e8 o6 a+8 o5 e-16 o7 f4 o3 d8 o5 b-4 < g-16 o5 g8 < e16 o6 b4 o3 g-4 o7 b4 < a-8 < g- o3 c32 o4 g+8 o7 b+32 o6 a32 o6 f4 o4 b4 < a+8 o4 g+16 o3 d+8 o4 e4 o5 a32 o7 a32 < f o7 a+16 o4 b o5 b- o7 b+16 o6 d8 o5 b32 o4 b < c32 o3 a > f o7 g32 o4 b-4 o7 e-4 o4 c+16 < b-16 o4 e+16 o4 g8 > f+4 < c-8 < d o3 g+16 o3 c16 o3 a+4 o3 b-8 o6 a-8 o6 a16 > f+8 > d4 < e+4 o6 b+32 o5 c4 > g-4 o3 a8 > f+4 > b+ o4 e16 o3 a+4 o4 g+ o3 c-8 o4 e8 o3 e+4 o7 d+ o6 f16 < e+ < f+4 > a16 o6 c8 > g-8 > d- < f-8 o7 g- > c8 > e4 o5 e16 o5 d+4 o4 a16 o7 f-8 > e+8 o6 g4 o5 g- o7 g-32 o7 g+16 < g- < a o4 d+4 o5 b- > b4 o7 b-16 o4 f-8 > g+32 < b-4 o4 g- o7 g8 o3 a16 o4 g+32 o3 a-4 > e o4 b+4 o3 g+4 o7 c+4 o7 a32 o7 d-16 o7 b16 o5 f+ o6 d+16 o6 c4 < c8 < e+ o3 b+32 o3 b8 > c-32 o4 d+16 o7 b4 o6 e+8 < a+32 o5 b-8 o4 c o5 g16 < f4 o3 c4 o7 g-8 o4 a- o6 c-4 o4 f+16 o7 a+8 o3 c- o6 c+ o6 e8 o3 d-32 o6 b o5 e+ o4 d+8 o3 e- o7 c32 < e- o6 e- o7 g-4 < g8 o7 e32 o6 e-4 > f < c-16 o6 a4 o3 e o7 b-4 o7 c+32 o5 e8 o7 c-16 o6 d-4 < d+4 o4 b8 o3 f+16 o7 b-32 o3 a8 o3 e32 o3 g- o4 f+ o3 c8 < f4 o4 a8 o6 c+ o4 f32 < b+16 > a32 o5 g o5 c+16 o5 f-4 o4 e8 o6 b- o7 d+ o4 c32 < e+ o4 b+4 > c4 > c o7 c+ o7 a-8 < g+16 o7 e+8 o4 c- o7 a16 o5 a+8 < a32 o6 d16 o5 e o6 b+ o7 c-8 o5 a-8 o7 g16 o3 a+16 o6 g8 o5 b-4 o4 a16 < f8 o6 b16 o7 d+4 > c+32 o4 e+ o6 f+32 o6 f+4 o4 d16 > f- o4 f- < d-32 o3 a32 o6 g-32 o7 a4 o4 a- o5 b+32 > g o7 f-16 o6 e+32 o4 d8 o7 f16 o4 c o5 d- o4 e+ o5 d+16 o6 e8 > b+8 < d+32 o3 f-4 o6 c > d16 o7 a8 o6 f-8 > a-4 < b < c32 o6 f32 o4 e-16 o3 b+32 o5 g32 o5 g o4 a4 o4 f4 o3 b+16 o3 d32 o3 b+ o4 g-16 < f+16 o4 d+16 o6 e-8 o4 d-8 > b16 o7 b-16 o4 g-8 o7 c16 o4 e-16 o6 a o5 b-4 o6 d+16 < e o4 a-4 o3 e4 o3 d32 o3 c4 o3 g-8 o4 f- > a4 o6 c+8 o6 a4 o4 f16 < b8 < f-4 o3 f o5 e8 o3 d o7 g16 o7 e4 o7 e+ o5 d-8 < c32 > c+ o4 b+32 o7 a-8 o5 b16 < d32 < c-16 o5 d8 o6 g4 > c4 o5 a+4 o6 a8 o4 a32 > e+32 o6 b+ o6 d-4 o5 f+4 o3 g4 o7 b+4 o5 f+ o4 e8 > f+4 o6 a8 < e32 > a8 o7 b4 o5 a+16 o5 c+32 > e4 o4 f4 o3 f+32 o3 g8 > g+16 o7 b16 < e-32 o4 b32 o4 a4 < f o4 c8 > f+16 o5 e-32 o5 a16 o7 f+32 o5 g+16 o6 e+8 o6 d-32 o3 g16 o6 g4 o3 g-4 o4 d-32 o5 b4 o7 f4 o6 f-32 o6 b4 o3 f+8 > c8 < e4 o4 d-32 < c-16 o6 c > d8 > d-32 > c < e4 o7 d+32 o6 a o3 g32 < a8 > c-16 < d8 o6 f8 o6 d- o6 b4 o3 f+ o5 a32 o5 g < c32 < a o4 a+ < g8 o3 d-32 o3 a+16 o7 f-8 > f o4 e+16 > f+32 o6 e-8 o3 d4 > c4

midi-string-ensemble-1: (tempo! 10) < e8 o2 b+ o2 d4 > b-4 o3 d+ o4 g-4 o3 e+4 o4 e-32 o3 e4 o2 a+4 > d+4 > b+32 < a-4 o4 g+ > g+4 o4 f8 < e o4 e4 > a4 o3 f4 o2 f+32 o2 d o2 c8 o3 c32 o4 d16 o4 c8 o4 a32 o2 b- < c+8 > g+ o4 e8 o3 b8 o3 e+8 > d-8 > g32 o3 b16 o4 c-16 o4 a+ o2 g+32 > e-4 > f-32 o2 d8 o2 c8 < e > f o4 a8 o2 c4 o2 b8 o2 g32 o4 g+8 < g+8 o2 b- > f- > a+ o2 c+16 o2 e+4 o3 b4 > f32 o3 g32 > e-4 o3 e16 > b4 > d- o3 f16 o2 b+4 o4 e o2 e-4 < g16 o4 c-16 < a+8 o4 a+32 o4 e+32 o2 f16 > a+32 o2 f > g4 > c+16 < g4 o3 e+8 o2 f+32 < d- o4 f+4 o3 a8 > a-4 o3 b8 o4 f32 o2 e-4 o4 e-32 < d+8 < f-32 < d-16 > f+16 o2 d+32 o2 a4 > a16 o3 d o2 b o2 b4 o4 c16 o3 g32 < c4 > a-8 > g16 o2 g+32 o2 c4 < f-8 o4 g16 o3 g16 < f8 o2 d8 o4 f-4 o2 b-4 o4 e4 o3 d8 o4 f16 o3 d+4 o2 a32 < g8 o4 c > f-8 > f+ o2 d16 > c32 < g-8 o2 g > e-8 < e+32 < g o3 e-4 o4 d+4 > d32 > d < g+16 < c-16 o2 b+32 < b+4 > d-4 < f4 o4 d o2 b > b o3 f-8 o4 e+32 o4 a+32 o4 d8 o3 e o2 d+4 o3 e+8 > b-16 < c32 > b- > d4 o3 c16 o3 c4 < a > d4 < g+16 o3 a4 > b8 < a4 o4 e+ < d32 o2 f32 > e+4 o4 e-8 o4 d16 o2 b8 o4 d+16 o2 d-16 < b- < d32 o4 b4 o4 b-8 o4 f4 > f8 < d8 > e-4 < d+ o4 c < e+4 o4 d-8 < f- o4 g+32 o4 a-8 < e8 o4 a16 o4 f8 o3 g > d-32 o2 a16 o2 e8 o3 f > b o2 g+ o4 a-4 < f+ o3 c+8 o2 c32 o2 b < d+8 o3 g-4 o3 a4 o3 d o2 e-8 o4 d+ < a+ < g+8 o3 e- o4 g32 > c-4 o4 c8 > b-32 o2 g4 < g16 o3 g-8 o4 b32 o3 g16 o4 a+8 o4 e o4 e8 o3 d4 < e o3 e- < g+32 < c4 o4 a- > a4 o3 a- o2 d16 o4 g+8 > c16 o4 g o2 b8 < g8 o3 g4 < b4 o4 f+8 > e4 > a-32 o4 c16 < e8 < g+8 o3 a-4 o3 g-4 < f16 < a < g+32 o2 d+4 < b+32 o3 f8 o3 g+4 o4 b-4 o4 d > b32 o4 c4 < c8 < d16 o2 c-32 o2 c- o2 f+16 o2 b+16 o3 c32 < e+8 < c+8 < d16 > f+32 o2 e-8 < d4 o2 b32 < b+8 o3 f4 > f32 o2 e8 < c32 o4 c+4 o4 e+32 o4 c-32 > b+32 o2 a-4 o3 a-4 o2 c16 o3 c-32 o2 a-16 < e-4 < b-16 > g32 o2 d4 o4 a+ o2 a- o4 a-16 o4 d- > b8 o2 b o4 c4 o3 b16 o3 a4 o3 e-32 o3 e16 > g8 o3 f-4 o2 c+ > b32 < a-8 o3 f+32 < g < a+32 o3 f- < e+ o4 g+4 > c-8 < e32 o4 e+4 o4 a+16 o3 f-16 < c+ o3 e+8 > c-32 o3 f+4 < b-4 o3 b- o2 e-4 o2 b8 o2 c+ < f+4 o2 f16 o4 d+8 o2 f32 > b- o3 a-32 < c-8 o2 f16 o4 e- > g-16 o3 b-32 o4 f8 o4 g o3 f16 > d-8 o3 c-8 < e-4 > d-4 o3 e32 < g+16 o3 e < e > g < b- o4 b4 o2 c+8 > c+16 < b+16 > g4 > b8 o3 a-32 < d4 o3 g4 < c o2 c32 o3 b+ o4 b16 < g4 < a o3 c+16 > e o4 c- o3 e+8 o3 f8 < b o4 g-4 o4 a4 < b16 o2 a+4 < e+8 o2 d o2 b32 o3 c16 o4 c+32 o3 f-4 o3 b- < e32 > f+32 o4 f32 < c-4 o2 g-16 o4 g+ > f8 o3 b-8 o3 d-8 > f4 o2 f4 > e-8 o3 c- o2 f- o4 f+16 o2 d+4 o3 b- o3 d-32 o4 g+8 < f4 > c-32 o4 c16 < g4 < c+ > a32 o3 f+32 > g-4 o3 d-16 o4 e4 > e-8 > d-8 o4 c o3 c16 > b32 o3 e o4 g32 < g o2 d+8 > a+32 o4 e32 o3 c8 < a8 < c8 o4 f-8 < c-4 o2 c16 < e-16 o4 g-8 < f4 o3 f o4 f4 o3 a > d+8 > d < c o3 d8 > f < c32 > g8 o3 d-8 < g8 > f+32 < g > e16 > g32 < e+4 o2 d16 o3 b32 > a4 < c+32 < g16 o2 g > f-16 < c32 o3 f32 o4 g o3 b+32 < f-32 < d4 < b+8 > a+ > b+32 o3 b < d+ > g-16 > a-16 < b32 < e-16 o2 e+8 o2 a8 o2 d-4 < c16 < f > e32 o2 g4 > g- < e+4 o4 d32 o2 e-8 o3 d-4 < g+4 o3 d+8 o2 c16 o4 c+32 o4 b-32 < d-4 o2 c8 o3 a-16 o2 e8 < g+ o2 a-32 > a16 o2 d o4 c o2 f-16 < f+16 > f > g o4 g+8 o2 e32 < f-16 o3 f8 > a8 o2 e8 < e-8 > f+ o4 e+8 > e32 o2 b-4 o4 f+32 > c+8 > e32 o4 d+8 o2 g- o4 c o2 c- > g8 < a16 < a32 o2 d-32 o2 e+32 o2 g-32 > b4 o3 a32 o2 g+8 o3 e32 o2 c8 > f32 o3 f- o4 e4 o4 f32 o3 b- o3 e o4 b8 < e o3 d-16 < b32 o3 a- < b+8 < b32 o3 a o2 a+16 o2 g32 o3 e+32 > c4 o2 c+4 < f-4 o4 e-16 o4 e16 o3 e-32 < c8 o4 g-32 o3 a32 o4 f-32 > c4 > d+32 o4 e-8 o3 b32 o3 f+8 < c32 < c+8 < d4 < b32 o4 f+ o4 b16 o2 g4 o3 c+8 o3 g8 > e o4 c4 < g > f+16 o4 c o3 g- o4 e+32 o4 f- o2 c16 o2 f+8 > a32 o4 g4 o4 c+8 < a+4 o2 c4 o3 e-16 > c-4 o4 c < e+8 > d+4 > a4 < d16 > b+16 o2 g+ o2 e8 o4 f+4 o3 f8 o3 c-16 o2 b+16 o4 b+8 o3 b-8 o4 f+8 < g+32 o3 c < d > b32 < e-16 o2 f32 o3 b-4 o2 d o3 f+ o3 e32 o4 c-8 o3 f4 < f+8 o3 d8 o4 d+ > b+32 > d+16 o4 e8 o2 g+4 o2 b16 < b4 o4 d+8 > b o2 a+ o4 c32 > f16 < c- o2 d-8 o3 a+32 > a-16 > c-4 o4 d-16 > b-8 < g16 o3 e-32 > d-32 < g-4 o3 b16 > a32 o2 c+16 o4 a+8
