piano: (tempo! 40) < e4/c/a2 f4 f2 e4 o10 e/e4/f4/c4 d b o9 b/b2 c2 d4/f/g2 < b g/b/d2 f4 d < g4/d4 c4 a4 f/g2 < g2 f2 e4 d e2/d4 o10 e4/f/g4/a2/e2/g2 o9 d2 a2 f f d4 d2 > d2/e4/g e/g/c4 o9 e4 d4 a g g4/a < b4/f2/a4/a4/e/d2 o6 d b2/e4 e2 c2/d4 > d4 e2 f2 a4/d a > c2/d4/f2/a c4/a2 < g4/c g2 d2 f2/f4 o10 d4/c4 e2 b b2 b4 o6 a2/e2 e2 f2 e g2 > b2/b/e2 b2/c4 b2 o9 b2/a2 c c g b o8 b2/b/g4 g2/b4/f2 < c2/b4/a2 b4 g2 a4 o8 d4 e2/d c2/a4/f > c/b f4/f/a4 a > d/a2/f4/e4 g4 d4 o10 a e2 a2 c2/f4 g4 o7 e2/a4/c/d4 g a2 > f c2/c2/a/c/c4 o6 a4/a4/a d4/f2/e4 o9 g4/d2/e2 f4 e/f > c c4/e/a4 c4 b2 o8 c4/f2 d4/e/f c4 o7 a/b/g/d c4 e o9 g2/g/f2 c/d2/g4 o10 g c2/f2/b g4/c o9 d4/f f2 a2 c4 b4 o9 a d2/g4/e g d2 o10 c a4 c4/a4 c/a2 o10 g b2/f/d4/f/b2 > f e2/f2 a4 a d4 o6 e/b2 f2 f4 a/a4 o10 a2/e4/f4 e4 e2 f2 o8 a2 c4/a2/e4 b2 e4 o8 d2/d4 c/d/f2 d4 o7 f4 e/e/g/f/d > a4 b/g f/f2 a o7 e d4/c/e4/e2/a o9 a2/g2/d4/g2 f2 c o10 e2 e d2 e4 f4 e4 o7 e4/f2 f c4 f/a2 o7 g/g a4/d/b2 c4 > d2/a4 e4/g2 g4 c2 > e4 f/e g2 e2/a4 o8 b4/f f2/f4 d/a > c4 f2/f4 g/g/a o8 a2 a2/c2/e2/a2 a o9 c a2/a2/g/f2 a4 o7 a/f/e g4 e/f o7 a4/b4 g4 c2 g2 d o10 d/d4 a4/f4/f d4 o7 c/e4 c4 e2/d4/c > c2 d2/a4 b2/g/e2 o6 b2 d4 g2 f2/e2 a2 o9 d4 b/d4/a4 f2/f4 o6 e2 f2 b2/d/c2 b < b2 d4 f4/g4/d2 g4 o6 c/g2 b4 a/a/a2 o9 f2 d/g4 b4/g2 f2 o7 d/g2/g g/e/d o10 f4/b/g2/c2/c a2 o7 e/c b2/g4/a4 g2 o10 c4 a/c4 f2/f4 g4 o6 g4 a4 f e d4 c4 o7 a/b4 g a4 e2/c4 o9 g2/f/b c4 g4/d2 o6 a4/e/b4 f/b/a4 o6 f2 b2 d/a2 g/f4 o9 a/b/d f/c/a4 o7 f4 a4 f2/c4/e2 g o8 d/b4/c4 d4 f4/f4 o6 b4/b/d/e d4 e o9 a4 a4/g c2 f4/a o7 c4 e2/a/b4 g/f < a2/d f2 d a2/d4 < b2 b/e2 b/b2/d2 > g e a2 e/g4 g4 o6 a2/e4/c4/a d d o7 f d4 a2 c2 g c4 < d/d2 d/c f2/f4 o9 f2 b4/e4 e2/d4 b4 o10 f4/e/d4 b/c2/f4 < b2 e2 d4/c4/e2/c4 o7 b4/d2 f4/d4/d2 b2 o6 c d d2/g4 c2 c < b2 f4 a/a2 g/c o6 d4/f2/g/g2/e f4 < e4 e2 e2 c c2/f2 o7 c4 g4/f c4 b d2 o7 d2 e g/e2 g2 f2 > e2 d4 d2 g2/g4/b4 o8 d4 a d4 d2 d c o7 f4 e e2/f4/f4 e2 o7 f4 d4/b4/c/b4/e4 o6 g4 f4/b4 e e4/d o9 c4/d2/d2/e a2/b o9 e2 b2 a4 g4 g2 b4 o10 e2/d4/a2/f4/g2/a o10 d4/c f4 a2 b4 c4 o7 g2/b4 e4/a4 b4 c o7 g2 e4 a4 a4/f2 e4 > f4 a/f/e f2 g2 < g4/e4/a4/e a/e2 > e2 g2 e/d2/g/e o10 a4 c2/f4/c/d4/a4 o6 e e2 d/f d4 d4 < e4 c4 b4/a2 c4/e4 o9 c d4/c4 e4/e2 f > f/g2/g4 f/g4/a4 o7 d4/b g4/g2 e4/g4 > g/d/b/b/c/g o9 d2/g4 g4/c/b c o9 b4/a4 d a2 e d2 < f2/c2/b4 e c g4 o9 b a a2/f f4 e4 o9 c g4 e/b4 d b4 o9 f/b/a4/f2/d4/e4 o6 b2 d/c a4 a2/e4 < g2/e/f4/e4 f2/d4 o6 d2 a2/e2 c4 e/g2 o10 d2 d/g4 d2 e g o7 a/e g/g d2/a > c d4 b/e2/d b4 > e4/d4 c b2 a b > g4/f a2 g/c2/g4 o10 e a c f2 d4 f < b2 e b2 e4/g4 b o8 c2 g b/b/a/a o10 e/c d4/a/a2/c2 o8 d4/c2 d/e2 e4 d o7 c4 d d/g2/c2/e o7 g/d4/f4 b/f2/a2 < c/f2/a4 a2/g2/f4 o6 a/a4/f2 e4 f2/b > d4 f4 a2/f4 d4/b4 o9 g/a2 b e2 e/e4 o9 b4 e4 a2/b2/g4/f4 < e/a4/f2/e d2/g4 o8 e c2 b4 g4 e2 d2 o8 f4 e4 d2/d g4 g2 o8 f4/c/g4 a b4 e o10 f4 a4 c/e2/d/b > d/b2 g/c b4/d o10 g4/c2/b4 f e4/b > d g d/c2 g2/f > d4/a2 b2/e2/c2/g4 o9 a2 a2/a d e/a4 o6 d4/g4 a2/d2/g4/d o8 d2 d2/d4 b/c2 d4 o10 g4 d/c4/a g4 g4 o8 b4/d/d2 b/g4/f4 o9 e2/e2 f g2/g g4
