piano: (tempo! 40) o8 a/c2 d/e a2 b < b d4 g2/g g2/g4 < c4/c2 c4 a2 c/e2 o10 f/e4 c c c2/c4 > b4/g2 b/c2/a/e2 o7 d/b4 b2 a2 g2 b4 o7 e/f a2/g/b2 a o8 a2/d/g4/a4/b4 e4 < b4 e4 f4 d/b b4 o7 c/g4 f4 d2/g4 f4 < a/a/c/d4/c4/d4 o7 d4 a e b a/d2 < g2 d/f/e2 a d2 o6 d2/a2/b4 d c2/c4 o6 g/b4 g/e2 c4/f4 o10 a c e4/f2 f/f o7 c/e4/f2/c2/a f4 > a f2/e d4 b4 c4 < d4/c4/e2 b/e4/d4 < a2/a2 c4/c2 a e > b4 g2/c2/b/c4 g4 o8 a4/f4 f4 g4/g2 e < b4 e/g2/a4 c/b2 o7 c d4 a4 e2/f2 c4 o9 e2/g4 f2 a4/a2/g < d4 f4 f/e2/g4 b2 o8 c/g g4/c2/b2 b4 o10 f4/f2 c2 f c4 g4 o7 e2 b4/a/c4/f4/g2 o7 b4/a4/b2/e4 d2/d4 o6 e g4/f4 e2/b2/g > f2 d2/d4 a4 g4 a2 o6 e4 d2 c2/e2/e2 g > b e/b/d4/g2/d2 o8 b4/f g4 a4 b4 c4 o7 d2 g f2 c2/a/e o9 f/d2 e2 b/b2 b o7 b4 f2 a4 c/e4 f4 o10 b c b2 b/c2/d o10 g2 c2 b b2/d4 e4 o6 a4/d/a4 a4 c4 c2 o10 a4/g/f c4 e2/b2 o8 f a4/e2 b4/a a o9 e/c2 a4 f c4 d2 < a/e4/f2 a4 a d4 o8 a4 e/d b4/a4/a < f/g4/e f2 c/d2 o9 d4 c b/b4/g4 a > g4 b2 a2/f b2 d4 > g b2/c/c2 e4 f4 > c2 e/g2 f4 f4/c o7 d/c2/b4/e4/e/f4 > a2/d b c2 f2/f4 > d2/g4/e2/g4 f2 a o10 c4 d4/g f2/d4/d2 < e2/g/g/d4/d c4 o9 c d4 a/d4/g/f4 < c2 d4/f2/f4 d g4 o6 f a a4/g4 e/e o6 d2 e2 e/e4 a2/e2 o9 e2/a/e4/b c/c2 o10 e/g2 g/g4 b2/b2 > d4 e4/d2/c g/g2 > a2 f/d2 a/d4/d4 o7 c4 b4 a2/c4 c g4 o10 d2/b4 f e2 a2/c2 < f4 b f2/b2 d/a < a4/b2 b4/f/a d o7 g b/g2 b2 g4/a4 o10 g2/c2 f2/g/g/e o8 b2/c4 f4/c b/a2 o9 d2/f a4/a4 g4/d o10 c g4 e/a4/a2/d4 > d2/d2/c g4/e c4 o6 b2/f4 g2 g4/e2 f2 o6 d4 d d4/c4 f4/d4 o6 e2 d4/b4 d2/b4/g o9 b2/d4/c/d/f2 a4 o8 b/f/a2 e2/a4 b4 > b2/f4/c2/f2 c4/e4 o10 f4/f/b2/c4 a4/f2 < b/e2 f2 g/d4 e4 o10 g2/e4 f2/c d/e o9 d/c2/d2 a2 e/a o6 a/c2/a2 c4/f4/e2 o10 c4/b e2/d4/d2 b > g b c4/d c4/g2 > a4/g4/f2 g b4 g2 o10 b c2/e c2 g4 a4 o8 c/d2/d4 a a/d2 o9 a/f2 a2 g f2 d4 > c d2/e2/b4 e c4 > c/f2 f4/e2 f2/e o7 a2/b4 e/g/c/c2 o6 b a/b c4 a4/e4 o7 c2/f f/c4 b2/d o6 f c2/c/a4 b d4 o10 f2 d4 g2 b4/e4/d4 o7 c2/c2/f2 c4 f/e4 > b g4/b/d2/e4/c > c2/f4/a4/a2 b/a o10 d4 c/d2/b2 e2 f4 o7 c/a/c/b2/f2 g4 o7 c2/d2/g/d4/d/d4 o7 d2/f4/b2 a e b2 > b4/a2 g d2/d e o10 g2 c4/a4 g4 f2 e4 o9 b4/f/d c4 a e2 o9 e b4 b/e2/c2/c4 < b c4/e a2 e2 f4 o9 a a4 e/f4/a2 b4 o6 b4 b/e2/g4/d2 d4 o10 g c2 e/g2 d4 c > a4 f2 g/c b2/a4 o8 b4/d2 e2 f4 g2 c4 o6 d4/f2/g2 e4/e4 a o9 b4 c/d4 d/g g2 > f4/a/b2 e4/g4/g2 o10 e2/d4 f2 b4/b/e o8 g4/b2/g4/d2/c/e4 o9 a2/b f2/f2/f f2 o6 g/d2 e/g2 a c2 o9 g2/a/c4 f2 b2/g2 o7 b4 d4 d4 a/b2/b o9 e4 g4/b4/a4/c2/d4 o7 a2 d e2 e4/d2/g4 < c2 g/f/c4 f4 e4 o8 e/b2/f4 f4 g2/c2 o10 a c2/f2/a2 g e2 < a c f f2/d/g o8 b2/a c/f/g2/e o10 d4/c e/d/f2/d2 o7 a4/b4 c4/d b4 c o9 d/e f2 g d2/e2 < d4 g2/e2 a2/e4 a2 o8 a2 g2/f2 c4 b4/c > a2/e/b/b4/a2 e o10 f4 a2/e4 f/d f2 o6 b4 c2 b4 b2/a4 g2 o7 d f2 b4/g2 f2/a o7 a2 e2 e/f2 e2/c4 o9 f/d e2 d2 c2/e o7 d2/f4 c d4/a2 b o8 f2 c4 f2/a2/c4/d2 o6 e2/e/f d/g2 e2 o8 g2/a2/f4 a2/a/b4 < f a4/c2/f g d2 o9 g/c2/b2 e2 g d2 < d4 g/g4/a2 b2 c o7 c2 f b/a4 f/d4 o10 d4 f4 d2/b2/a4/c2 < d2/a d2 g4 b2 a o10 c2 e2 b g2/g/c4 o6 e2 a4/e c2 e2/g > g4 f4 c4/b4/d b o8 c2/f4 e b f/b4 o7 b4 g2 c4/a2/d/b o8 c2 c4/c2 c4/e2/c4 < d c4 a2 g4/f4/a2 o9 d/e4 c c4/f2 d
