piano: (tempo! 40) o7 e2 g e2 g4 g2/g o6 a/e/a4/g2/e2/b o8 e2 d2 g/a2/g/g2 < a2/e4 b/f4 b2/a4 o8 c2/b4/c a2 c2/f2 o10 d g2 g2 a/b/d2 o8 b2 d2 b4/b2 e2/f2 < c4 a2/e4 b2 c c2 o8 b c2 f2/a2 e/g2 > e4/d/g b4/a2 f2 > d2/c4 g d2/b4/g4 o8 d/e4/d4/e2 a e o8 g b2/b2 g2/e4/b o6 e4/f4 f c/g a2 < e4/a d/g2/a/c2 o10 d2/e4 d4/a/f2 c4 o7 f/c2/d/b4/g/b2 o9 a c/c2/d2 d4 g o10 d4 f g2/d/g/b2 o9 g d4/f/c2 a4 f < d/b2 d b g e o7 c a4/f2 a4/g4/c2 o10 g4 a/b f2/f b4 o9 g/f d4 f4/a/g o6 d4 c2/d g g2 c4 o10 g/f4 e2/c g4/e2 o9 a2 a2/b2/g2 d4/g4 o9 a4 e f/c b4 d2 o8 a/a/b/a2 c4 f o9 g a e4 b b2/f2 o10 d2 e2/f/c/c4/d2 o9 c4/f2/g4 b4 g2 b4 o10 g4 b a2/a2/g/a4 o9 c2 c2 a2 f/d d2 > d4 b2 e c2/g4 g4 o6 b f2/e4 a/b d < g4 d/d e2/e4/d4 o10 b2 b4/d4/d2/a/e2 o8 f4 e c4 b4/b2/e4 < a4 e2/f4/f g4/b < a4 b2/c g4/b4 a o10 a/b4/b2/f2/e2 g o9 c/b/d4 c4 c4 c o9 c4 a g c2 b4/f > d c4/g2/f2 f2/g4 o8 f2/c/g2/c2 b4/e < e4 g2 a2/c e2 c o10 a4/e/a/g/d2 e o9 a4 a2/e2/g4/c g4 > a2 d4/a/e/a d2 < g c2/e2/d2/b2/g2 < d a a a/a a2 > c4 d4/b4/b4/d4/g2 o8 b/g a4 b4/a2 b2 < c/d4/f4 d/d2/g4 o6 e4 g2/b4/f2 f/g4 < c e4/a4 a4 c4 d2 o8 e4/f c2 a4 g c o10 c g/f b2/b4 g2 o7 c b4/e e2/f4/c o10 d/d2 e2/c/c2/b2 o10 b e d/b2 c4 e4 < d/e g4/e2 a4/f2 > b/e/e2/d d4/g4 > c2 c/c2 d2 e2/d2 o10 e4 e4 g4 a2 a/f < f/b4/d2 b4/f2/c > f/c a/d2 c4 f o8 c2 d4/e/f2 c2 a4 o6 e2/e/e g b e2 o7 d4 d/e2 a2/f e2 o9 e/e4/b4/a2 g4 e < e g e2 a/c4/b o8 a2/g g/e2 g/a2 > a2/a f/f2/d/g o7 g4/d2/g2 a4 a c o8 g g4 d/a2 b a2 o8 c2/d2 e4 a d/a4 o6 b2 g d2 f2/d2/g4 < a4/f4/c2/f4/f4 e o9 b g a f/d f4 o7 e/g/c/c/a2/d4 < c d2 d4 e/d/b < b4/e2/f4/f4 a/f2 > d b4 c2 a2 c a2 > a4 f2/f2 e4 e4 c2 o6 a/a4 b/a2 g/a < d2 f d2/a2/d2 f4 o6 d g2/c4 f4/b2/a4 o9 g g4 d4/a f d2 > g/f e e2 g/f o7 c/e/b2/g2 g4 b > c c2/b2/e/c2/g2 o8 f/a2 d4/d4/f2/f < a4/a4 e a f4/b4 o6 b2/g2 e f4/b/d o10 e/g2 f4/a4 g2/g2 < a/c4 f4/b/f4/b2 < d2 e4/b d/c2 b2 o10 e e/c/b d2/g o9 a4/e/b4 g2 e/g o7 d b e4 f/g2 d2 o9 a2/d2/c b/b4/d > b4/c f2 e4 b e2 o10 e4/g4/b2/c4/e4 b2 o10 g2/f4 c2/e e2/c < d4/d/a2 d4 f2 d2 o6 a4/b4 e4/f2/f/c4 o8 b2 g4 b e4/d2/a4 > b2/a2 b/g/c2/f2 o10 c4 a2 e/g2/f4 b o9 f2 b e2/f2/g4 d > a4 c4/e4 b4 a2/a2 o10 b4 d2 f2/e2/d e o7 e/f f4 e4/f4 d > c2 g4/f4 d2/a2/e2 < d/b4 c/g2 e e o9 f4/e2 b/c2 b d o9 a2/e/d/c4 c b2 < f a2 b4 c2/e/b4 o10 g4 a e2 a c e2 o10 c4 g4/d4 a e a4 o10 g2 f/g f g b o9 b b2 e2/c2 b4 e o6 a2 a c4/b4 b4/e2 < g e2 f2 a2 e e2 o9 c/d4 f/c4 a4 f o7 a4 c2/d/g4 d2 f o9 b a2/c g4/d2/f2 > f/d4/f/a/a4/g2 o6 f2/a4/c2 a4 e2/f o10 c2 d4 f4 g2 g2/b2 o7 b4/a2 d2/e e/g4 o10 a2/f2/g2/g4 d4 b o8 f d c2 g2 a4 a4 o7 c/a/d2/c4/c4 e2 o10 a2 d2 g/d4/g/g2 o7 c4/c/d g4/f b2 < f/a4 f c2 f/f > c a2/c4 g/a4 b2 o7 f2/e2/a b a2/a2 o6 f2/a4 c g c2/a2 o9 b/f2/e2 c2/g2 g2 < a4 a/c4 a4 c2/d4 o10 d b4 c a4/d2 d o7 g/d e2/e4/a d2 < e4 e4/a2 d2 b/a2 o7 g2 b/e2 c f4/e4 o7 a2/b2 c d4 c2 f < b4/e/g2 f4/d4 f2 o6 e2 a4 c2/a2/d2/d4 o9 c/b4 e2 g4 b4 a o10 e2 a4/g/c b/a o9 b2 f f4 b f4/b2 > f a/g2 f b4 a4 < b/a4/b2 d c c2 > b/d2/e4 b4/d/f o7 c2 c2 f4 g e4/f < e2 d4/f2 f4/f4 d o6 f f4 g/e2/a e
