piano: (tempo! 40) o8 b2/c g2 c2 f2/g4 o8 c4 c/d2/e4 b/b4 o9 a/d b4/a4 c e2 < b e4 g4 a4 f2 b < b a b e/c b o6 d2 a a/g4/c4 d4 o10 b2/a4/f c2 b2 e2 < d4/g2 b4/g4 a4/e o6 a2/f/c b2 g c4 o10 d4 g4/f4/e2 d d4 o10 e/g4 g/a/d f4 < a4 d2/c d4 f2 d o8 b/d2/b a/f2/a2 < a4/g4/g2/b2 f4/e4 o9 c2/e/f4 e4 b d2 o10 f/f4/d2 b2 g/b2 o6 f2 a/a4/e4/f4/c4 o8 f4/g2 c4/g4 b2/c2 o7 d2 a c2 a2 f4 c4 o6 e2 e2 g2 d2 a4 b o9 d4/e/e4/e2 c4 d o8 a2/b4/g/g4/g2 f o8 g2 c/e2/g/a2 f > g4 d4 e4 e4/c/d4 o8 c a/c/b4/e4/f > c4 d4/b/e2 d/d2 > c e4/b2/a2 e/c2 o10 e2/g2/b4/d2 d a o6 f g/a b e d < a/f2 b2/e b b2 > b2 a/a a4/e2 f4 > g2/g2 e2 a/b4 a o10 f4/g/c/c2/d/b o10 d f2 g4 c2 d4 f4 o7 f c c4 e4 f2/e4 o8 a4/d4 e2/e4/c/c4 o8 d/g4 e2/c4/b d o7 d/f2 f g2/d g2 < g2 f4 g/b/d4/f2 > g2/a e d4 g2/d4 o7 c2 b/g4 b g4/g o6 c2/f/f4/c2/c/e2 > c/g4/b f2/d2/g > e4 c4/b2/c b2/f2 o9 d4 d4/a/b4/e g2 o6 g/c/g2 g4 e2/f4 o6 a4 b4 f2/c2/a2 c4 o9 e2 d4/c f2/d d4 o6 g2/b g4/f2 g/d o9 f2 d/d/b/e/f2 o7 d/f2/g4/e2 a/a4 o7 e f/f/e4 g2/a2 < a/b4 b4 b/c2/d4 o9 e2 d/g4 c4 c2/c4 > c2/f4/f4/f/e4/e2 o9 e2/e4/a/c2/b4 d4 o6 a/c2 c2/d2/g4/e2 o9 e4 b/f g/b a o9 a/c/f/f a/d4 o7 g2/a4 g2 f e4/e2 o10 c2 c/c2/a2 b4/d2 < d2 d4 d4 c4/e2 b o8 g b4 b2 g2 f2 f2 < b4 f4 g a4/a4 e < b2 g2/a2/g/d4/f2 > g2 a4 f/f b2 f o6 f4 e2 e2/f2 c2 a2 > c4 b/b d/e f4 < g/f/a e4 g4/d2 o7 c4 b4/g4/d4/d c4 o7 f/c4/a2 e2/c/e2 o9 e2/d e4 e4/d2 e2 o6 g2/b2 g/a4 b e2 < d4/d4 b2/d4/d2 g o9 g4/f4 f/g/f4 e4 o7 f2/e2/d e2/c/g2 > a2 e2/f4 b2/g2 e2 o8 c2/a4 g2/e4/a2 a4 > a2 d4/f2 e4/g2/a o9 e2/d2 a4 g2/e2/e2 o10 f4/c4 b4 f4 g4 d o10 c4/e g2/b2/f2 a2 > b4/g2/c4 d4 g f o6 c2 a/e e4/d/a4 < g e2 d4/e4 f d2 o8 e d/f g2/g b4 > g2/f2 g/d a2/b2 o6 e4/b e4/f2/d4 e2 o8 c4 d/c/e e4 e > b2 c c/a2/a4 c < c2 c2/g f e4/a o7 c f2 e4/d c b2 < a f4/b2 f2/e/g2 < c4/g/g2/a4 d2/f2 > c2 a/a4 a2/f g < b/f4/c4 c2 b4/g2 o9 d2/d2/a2 d4 b2 b o10 b2/g2/b/f2 a/g4 o9 b/d/c4 e/c2 g o10 d2/c4/a/a2 e2/g4 o9 g4/c c2/f2/c d4 o7 f b g2/b a2 e o6 a/e2/b/a d2/a4 < b4 a4 a4/b4 b4 a2 o9 c2/e4/g b2/b2/c4 o9 g2/a f2 e c c o9 g4/g/b4/b2/f2/g4 o9 g2 f4/d/a2 a f4 o8 c4 a f2/e/d/d4 o6 c/f2 f2/c d/a4 > d e4/b2 f2 a4 g4 o9 b2 c4/e g a4 e2 o8 e/g4/f/c/d2 a2 o10 d2 e2/b/d4/g d4 o9 g2 a2/g4 f2/f4/a2 o7 f a2 f/f4 a c4 > a4 a2 e2 f4/g2 c2 o6 g4 f2/c c4 d/c4 o6 g4 f a/b a/f4 o10 a2 d2/e2/f4/b2/d o6 a4/a4 f4/c2 f a o9 b2/b4/a/e c2 d o8 f2/g/f f4/g4/d4 o7 g b a4 c2/d2 d o7 d d4 b4 a4/f/a o6 c4/f/c4/g f a o7 a/c4/f/e2 d2/g4 > a2/a2/e4/f/g2/c2 o8 g4 d2 e f4/c2/b o8 g4/g2 b g4/c4/d2 o7 g2 b/d/a/d4 d2 < a4 g2/e2/e4 c4/f o7 f4 c/d4/e/c c o7 g2/f4/c2/e2 g e o6 g2 d4/a4/d b2 g o8 a4/e2/a a b/f4 o10 e4 f/f g e d2 o9 c4/g a2 a/b4/d4 < f a2 c b2/c4 e < e2/g4/a a4 b/g < g4 d4/b/g2/c4/b < d4/e4/f/c4/e e4 o8 c g4 c d/a2 d4 o10 d d4/f4 g2 e4/f4 < f d e4 g d2/b4 o10 a/d/d2/b/e2/d2 o6 d c g4 b2 b4 d4 o7 d2/g2 b2/d4 b2 g4 o9 e2 a4/e4/d2 g c4 o8 c4/e4 f2/a4 d c4 o8 e2 b2/a/d c4 g4 < c4/f4/e a2 f2/b2 o6 f4/b/b4 f4 d4 c o9 d d4/e4 g/b/e o7 c4 d4 g2/c2 b2/g o7 a4 e2/a4 b4/a2 b2 o8 f c2/f4/b/c4/d2 o7 f4/g4/e4 d f4 d o7 e2/f4 a2 a4/d4 c2 o8 b4 g4 e f2/d2/f2
