piano: (tempo! 40) o8 b4 g2/g4 a4/d4/c4 o6 c2 c a4 d4 e g > f2 b/b/a4/f a2 o10 a2 d2 c2/d2 a/c o6 d/e4/g a4/b2/d4 o10 c/c2/g2/a4 c b o6 a2/b2 a4/g4 a4/d o8 b/g4/c/a4/d4 f2 o9 d/e/g4/a2/c2 e < b4 a4 g b4/d2/c2 o8 e4/g f4/g/e4 b4 o6 a4 b2/d2/e4/e2/b4 o7 g c d4 f4/c/g4 o9 c/a4/e b4/f4/c2 < g2 e b/b4/a2/d > a4 b2 c4 b f2 f2 o9 g4/b2/e2/e4 g4 b2 o9 e d2/b2/b4 g2/a2 o9 f/a4/c e/f e4 < c d4/e4/e2/a4/d o6 c4/f4 g4 f4 e2/e4 o7 b4/g4 c4 a4/a f2 o6 d2 c/g4/a/d4/c4 > e2/a/a/b2 b4 a4 o9 e g d4/d2/b4/a o9 a2/d4/c4 a/g4 d > g4 f4 f2 a2 e4 f4 o9 b4 f4 g2/b g2 d4 o10 b4/g g2 b/d4/b4 o9 a2/e2 b4 e2 c4/g4 o8 b/c4/g d b4 a2 < e4/b2 g4 c2 g a < d/e4 c d c2 c2 > g d/e a a/a < f2/e4/b2 b4/f4 b4 o8 e d2/g4 c4/a a < c4/g4/f4 g/g c4 o10 d a2/c4/a2/b/f o9 e2 a/f4 c2/f/f4 > e2 b2/a4/g2 g4 a4 < e2/d/a4/a2 c2/g o10 g2/e2/g a a2/b2 o9 c/f2/d2 g e4 g4 o7 e4/f2 g/c2 a2 d > c c4 d4/e4/d d4 o6 d4/c g2/g2 b2 d2 o7 a2/f4/a4/f4 a4 e2 < e/b2/f2 d f4 b > g2 f2/e4/g2 a4/b4 > g2/a4 e4 d4/b4/b2 o10 d e4 f2/b4 e2/g4 o10 a4 b d g2 e2/d4 o10 c/c4/g2 d2/f2 e < g2/d2/d2 d f2/c4 < a2 c f2 b e4/g2 o8 e e2 e2/d2 g4/d2 < b2/a/f2 b4 d4 b o7 d4/g2 g2/f/c2/b o9 c4 b4/a/b2/c4 e4 o8 g4 d4/f2 g c g2 o9 g/d4/d4/e g/a4 o10 f4/a4 d4 f2/g4/e4 o7 c e2/b e2/a4 a2 o10 b2 b2/c4/e2 g4 c o6 g4/e4/b2/g4 e2/b o7 f4/f2 b/e2 c2/b4 o6 g4/f2 c4 g/d2/d4 > e/e/a d2 g/a2 o7 g e4 d4/c/d c4 o7 f4/b2/a4/c2 c/e o7 f2 a4 b/a g4/c2 o9 c4/a4/c c4/d a2 o7 g e4/d4/b2/d2/e2 < b4/f4/a4 b c b o8 d4/b2 c/e/a c < d2 b/b/c4/g/f2 > g2/g2/b4 f2 f2/g o9 b2/d4/g4 g4 a4 g > e2/g4 g4/c2/g/f2 o8 d4 c/a4 c/e2 b4 o7 c4 g4 g4/d2 d4 c2 > b4 f4 b/b2/d g o10 g/f4 g e2 a2 g4 o7 f2 f/f/f e4/b o7 e4 e/b4 b2 b4/e2 > a2/e/c c d2/c4 < c/e4 b4 g/e4 f2 < c2 c2 b2/f/b2/c4 > d2 f/e4/a g e2 > g2/c b2/d2/a4/b o7 a a/d b4/f4/f4 > b/b/d2 d4/b2/e o9 e b2 g/d b f2 o6 f2 e2/e4 b2 c2 g o8 d2/g2/c/f e g o6 e2/g4 c/g2 f4 f4 o10 g4/a2/a2 c4/f/d < c/g2/f/c2 d4 a4 o9 a c/e2/c a/f4 o9 f4 f4 c/f f b o8 e f/f4 a a2 e4 o10 f2 a4/f4/c2/f4/a o6 d/c/a4/e2/f4 c o7 e4/a2/c4/f2 b d2 < c2 f4 f4 f4/c2 g4 o8 b2 g2 a/f2 c e4 < d2 g g4 e4/f4 a4 o8 b/b a c c2/b o8 g4/c c2 d/g4 b4 o8 a2 b/f2 f2/e4/d4 o7 b4/g4/g/b c2/d o7 f2 e/f2 e2 b2/b > a4 a4 b4/b4 c4 b < a4 d2/g4 a a/f4 o8 d2 c/e4/d4 b4 f o6 f/b2 a2 d2 d a < b2 c/a d4 f c o10 a4/f4/f4 a2 b4/f4 > b2 c2/f2 a4/d4/a2 o7 d4/f4/c/a2 g2 e < a/f/e2 a c2/e4 < g2 e4 d4/d/d4/d o10 f/f4 c/c2 f4/e2 > d4/a4/b4 b c/f2 > c2 c/b4 c4 e2 e2 o6 d4 b4/b4 c4 e4 c2 < d2 g4 b4/f2 f4/g2 < g4 g4/b4/b4/b b2 o9 f e4/d4 c2/f/b4 > a4 a4/d2/d g2/f o6 g4/f/a2 b2 g2 g2 o9 d4 e2 d e2 e4 f2 o6 f/g/c d4 e2 d4 o8 g2 d2/e4/g/g2 b o9 g4/c2/e/b2/g2 c2 < c/d4 c4 f4 b4 c o9 g2 d/e/a/b4/g4 o7 c/g/a g4/a/f2 o7 e/g2/e2/d4 d/g4 < e c c4 e/g a4 o9 a g2 e2/g4/b2/d4 o9 g c4/a4 b e4 d o10 e2/c2 b4 b2 e e2 > b4 g2 d2/c4 d d4 o7 g/a2 c4 e4 g4/d o8 d4 b4 f f f f4 o6 f2 c/b2 a4 a4/c o10 d2 c/b c/g2/c o7 b2 d2/g2/e2 b2 c4 o6 d4/g a a4/d4 d4 o6 g e/a2/a4/e4 d < c2 c/f f/f4/b o10 d/e4/a g2/a2/b2 o6 b4/c4 c b2/g2/c o7 e4 g/c a a4/b4 > e/g2/c4/g4 d4/e2 > g4 c4/g2/g4 f2 b o9 f4/b/g/e4 b4 f < a2 d2/c2 e4/f4 e4 o6 g2 a2/b4 d2/d2 b2
