piano: o8 g16 o7 d32 o8 c-4 o8 g- o7 f4 o9 b4 o7 c4 o8 g4 o7 e16 o7 e-32 o9 f o6 b-32 o8 f16 < f-4 o6 d+ o9 f-32 o7 g4 o7 a-32 > b+32 o8 d8 o7 c16 > b+32 o7 g16 < d-16 < g o9 b16 o9 a o8 d+4 > a o6 e+16 > b16 o6 f-32 < d-8 > c4 o9 a-16 o6 e4 o7 f-16 o8 e16 o6 e4 > a+8 < d-16 > a+16 o8 b o7 d+16 < d16 o9 d < e-32 o9 b16 o8 c32 < a32 > g < a32 o6 c+4 o6 f4 < e- < g o9 b8 < g4 o8 a8 o7 d-4 > a+16 o8 a-32 o7 b-32 < f32 < e4 o6 b > f- > c-4 o8 e+32 o6 a+8 < d+32 o9 b+8 o8 a4 o7 f+8 < g8 o9 c o6 e-8 o9 c16 < e4 < f+16 o6 g16 o6 b+32 o7 e32 o6 b-4 < a- o8 g4 > b+8 < g4 < e32 > c-4 > c o6 e32 o9 d-16 o9 a16 o6 g- o9 c+4 o7 e16 o7 b16 < a4 o7 g o8 c o8 c+32 o7 c+8 o8 d8 o9 g o6 d-8 < c+4 o6 a4 o8 d4 o7 c o9 a32 < g16 o9 d+ o6 d-16 < c4 o9 b+16 o6 b o9 g-8 > e4 > c- o6 f-32 o6 f8 o9 b+32 o8 f+32 > g-8 o7 a+8 < e32 o6 g+8 o6 b32 o7 b-8 o7 g32 o8 b-16 o6 g o8 d4 o8 g8 o8 a4 o7 d8 o9 d+ o7 e+32 o7 d+16 o8 e16 o9 c+8 o9 e4 > c32 o9 g32 o8 c+32 < a+4 o8 f- o6 f4 > e o7 d-8 > e-16 o8 f+32 o6 a+16 o7 a4 o6 a-8 o7 f4 > f+ < f4 < f8 o7 a+ o7 g4 o7 b16 o7 d16 o7 f- o8 d+32 o6 d+8 > g+16 o8 a-4 o6 d8 o8 b32 o9 e32 < c8 < e+ o9 b-16 > c-8 < c4 > g+32 o7 c+16 > a32 o7 g16 > e+32 o6 f4 o9 g+8 o9 b+ o7 b+4 o9 c4 o8 b+16 o6 e32 o6 f- > b4 < b32 o7 e+32 < f8 > f o9 d-16 o7 g o7 g16 < b4 < d-32 o9 g+4 o7 c o9 g+16 o8 d+4 < c+4 o7 c8 o6 a+32 o9 a4 < b-4 o6 f4 o8 f-16 o8 f-8 > f4 o6 g4 o6 g8 o9 g4 o9 g16 > c+32 < e16 > f32 o6 f16 o9 d+ < g16 o7 a o7 a-16 < a32 o9 b- o8 e4 o9 d o6 d-4 o7 c o6 b16 o6 c+ o9 a8 o6 b+32 < a-32 > a16 o9 b o8 c32 o7 b+32 < d-16 < g4 < f4 < f+8 o9 c-16 < c- > g4 o9 b-8 o9 g4 o7 d+16 o6 e16 > g4 > a32 > d+ < b+4 o6 b-4 > e+32 o8 a16 o7 a32 < f- o6 c-16 o8 c+16 o6 b16 < e32 o8 f4 o9 a8 o7 f-32 > e o7 a4 > a-16 o7 b4 < c-16 o7 b4 o8 b8 o6 f8 o9 b16 o8 b16 o8 c- > a+ o6 f16 o7 e-16 o6 a+16 o6 d32 > b-16 o8 c- > d32 o7 e+32 o6 a o6 f- o9 d- > f o7 e+16 o7 e+16 > a < a8 o8 b-16 o9 g-8 o8 f o6 g o9 f32 o8 f4 o9 f4 o7 f8 > f8 o9 e-32 o6 f32 o7 b8 o9 d-16 < f8 < c+ o6 e8 > d < a-4 > c4 o8 c- o9 b+ < e-4 o8 c-4 < f-4 > a16

celesta: o8 f-16 o7 a8 o6 f-16 < c8 > b8 o6 f-8 o7 a+4 > e8 o9 c+ o6 a o8 c+32 o9 g+16 o6 d+8 > g+4 o8 a+8 o7 g32 > d+32 o6 b+ o9 f-8 o8 g4 o9 f32 < d+32 o8 f8 < g16 o6 c16 o7 g4 o6 f+8 o7 f16 o9 c+16 o6 f o8 e16 o7 b-16 o9 a+4 < b16 o8 e32 o7 a o9 a8 o6 c-8 o9 e-32 o9 c+ o8 a4 o6 f o9 f+ o8 a4 > a+4 o7 c+32 > a-8 o9 c16 < c- o7 f- o9 e16 o7 g8 o7 d32 o6 g- < g+16 < f o7 e8 o8 e16 < g- o6 b+4 o6 f32 o6 f+4 < b4 o9 f+8 < c+ o6 b-32 o7 d+8 > f16 o9 b16 < e o7 d8 > e+4 < g-16 o8 e+4 o7 e+8 < c32 > a4 o8 d+ < g+32 o9 g16 > g-8 o9 d+8 o7 a-16 o8 e+16 < g+ < c32 > e4 o8 f16 o6 a8 < d+ < a16 o7 f > b- o9 d4 < e-4 o9 g-16 > b-16 > a+ < f-8 o9 a+ > d-16 o9 g16 < e+ o7 g-8 o8 a-4 o6 d+4 o7 d8 < f+4 o7 a+32 o9 g o9 f16 o7 b o6 d+ o8 g- > d o8 g+ < f+ o7 e- o6 c16 o6 d o7 e+32 o9 e-16 < a-32 o9 f32 < a+16 > c+4 o8 b < e16 < b-16 o6 b- o8 a4 < d+16 o6 d4 o8 f+4 < a16 > e32 > g8 o6 c-16 o6 g32 < b o8 e-32 o6 e4 o6 d+32 < d-16 o6 d+ > d32 o7 e+ o8 g8 o8 e-4 > a+ o9 g16 o8 b+ o8 f-8 o7 a16 > c o8 c-4 o6 a16 o7 g-4 o7 c8 o8 a32 > c8 < e+32 < c-8 < e-32 o6 a-8 o6 c32 o9 a-32 o9 f+16 o8 b4 o6 e+4 o8 g4 o8 d+16 < c-4 o9 a-4 o7 a-4 < e- < a-4 > e8 < f+32 > b o8 c o6 b8 < e-4 > b-16 < g32 o8 c8 > a8 < f32 o7 a-8 o9 f+32 o9 a4 o6 a32 > a16 o7 f+32 > a > d-32 < d+16 o8 c+16 o9 g8 > e+8 < e-4 o9 a-32 < f4 > b8 > a- o6 d8 o9 a+ < c+32 o8 d o6 d16 o7 a+16 o7 g+ o9 e8 < b32 > g16 o8 c+32 > c- o8 g8 o8 d32 > d+ o7 b-4 o9 e-8 o9 d16 o8 f8 o6 d16 o8 f+32 o8 c4 o9 a-16 > f-16 > g8 > f32 o8 a+32 > c+32 o6 d+4 o9 f8 o9 a < b8 > a8 o8 d4 o6 b+8 o6 c-8 o9 g16 o8 c+4 < a32 < a o8 c+4 < d16 o6 c8 o8 b16 < g-4 > a+ o7 g32 < c4 o7 g32 o8 b+32 o8 c-32 < f4 > b+ o7 e32 o6 c-4 o9 d16 < b- o6 b- o6 e-16 > e+ o9 e+8 < c4 o8 f8 o9 b-32 o8 g-32 o8 d16 o9 f+4 o8 a+ o6 d+ o6 a4 o7 g8 < f32 < e16 > f- > c16 o6 d32 o9 c8 < b32 o7 c4 o8 d8 o6 b+16 > f16 o7 f+4 < f32 o9 b-16 o6 g4 o7 c4 o6 c+8 o9 g8 o9 f4 < g32 o8 g+ o6 d16 o9 d- o7 c8 o8 b8 o9 b16 o6 b o8 e-32 < a8 < a-16 o6 e-8 o7 f4 o9 e4 < f32 < d16 > d-4 < c16 < d32 o6 a-16 o6 e16 o9 d32 o8 f4 o8 g-16 o7 b16
