piano: (tempo! 40) > f8 o5 e o8 c-8 < e4 o6 d- o8 f-8 o9 e+16 o8 g+8 o6 f-32 o8 d4 o9 b8 o7 e-8 o5 d < f4 o5 e+32 o8 b16 < d+4 < e+16 o7 d-4 o7 c-32 o5 c32 o8 g o6 c- o6 b4 > f+16 < g32 < c-8 > c16 o9 f-32 o6 b8 < b32 o9 b-4 < a8 o5 a8 o5 g8 o7 d16 o5 e+ o5 d4 o5 a32 o7 b16 o8 e- o8 f+16 o5 e8 o5 b-16 o9 f16 o9 d8 o7 b8 o6 b32 < f- o5 g+16 < d+32 o6 f+ o8 e- > f < d+4 o9 b+ o5 c-16 o7 b16 o6 d-16 < c8 < d-16 o5 c-8 o7 d32 o9 b32 o6 e-4 o5 g4 o8 g+8 o7 e16 o6 d16 < d16 o9 f32 < e-8 > f32 o5 d32 < e8 o7 g32 o9 b8 < e o5 c- < d8 < c+32 o9 d+16 o7 g+8 > b16 o8 d16 o5 c+8 < c+8 o7 d16 o7 f4 < b+16 o7 b- o6 c < f o5 a16 o8 f+8 o7 d16 < c+ o9 b+ > c+8 o7 d4 o6 a- o9 f16 o5 d+4 < b4 < g-16 o7 a+4 o6 c-4 o8 g- o8 a+16 > e8 o5 f8 > g32 o7 f16 > b8 o5 a-4 o8 f+32 o9 b+16 > f+32 > d32 o5 d- o9 c+ < f+16 > c+4 o9 f+4 o6 d o6 d+4 o7 d-8 o7 d16 o7 d16 o6 b+4 o8 d+16 o5 b32 o8 c-32 > d+16 < b16 o8 g32 o8 a8 < f8 o8 d-32 o8 b-16 o9 g32 o6 e o7 a-4 o9 e+8 o9 g8 o5 a-8 o9 a4 o6 b+4 > f-8 o8 c o8 d+8 o8 b- o7 c-16 o6 e-4 > c32 o9 g+ o7 b+8 o8 f16 o9 a4 > b4 > c- > e+8 o5 d-16 o8 e-32 o6 b o7 c < a > c4 o8 b+8 o9 g- < c-32 < a8 o7 e o7 a16 o8 c16 o7 e32 < f+16 o7 c4 o8 g+32 o6 a o5 f-32 o7 b-8 < a o9 a8 < a8 < g+4 < b+16 < a16 o8 d-4 o8 b-4 o8 e o7 e o9 b32 o5 g16 o5 e4 o7 d+16 o5 c+32 < g+16 o5 d-4 > b16 o7 e+16 o5 g o9 g-32 o9 b < g16 > e16 o9 b4 o5 g-32 o6 a < e4 o6 a < a32 o7 b o5 f-16 > b16 o9 d32 > b8 o5 a+ > f32 o9 e8 o6 c32 o6 b16 o8 e-16 o8 e+32 o5 c+4 < d4 o9 g4 < b+16 o7 g4 o5 f-4 o9 f+32 o5 c o5 d4 o9 b+4 o6 d < g16 > c o5 d4 o6 b-32 o9 d8 o7 g16 o8 d > c-32 o7 d32 o7 b > b o7 f+16 < f+4 o6 c+4 < a-4 o8 f+ < c+32 o7 f32 o5 c4 > e-32 o6 a-32 > f o9 b o8 b < b+4 o6 d8 o7 e+16 o7 c8 o9 a+16 o5 d-8 o5 a+16 o7 c- < a < f16 < e+32 < e-4 o9 g-8 > b16 o9 c-16 o6 e+16 o6 c8 o5 d+ o9 a+ o9 c- o5 c8 o8 a+8 o5 f- < g32 o8 a8 < e4 o8 a-32 o5 d8 > g-32 o5 b16 > b-8 o5 a4 o6 g4 o9 g+ o8 f o8 a+32 o7 d o5 b4 o9 g8 o5 f4 o8 e-4 o8 f+32 o9 b+16 < b+32 > b < c8 > c32 o6 g- o8 f o8 a8 o8 g- o7 e- > d4 o8 f32 o7 c-4 > b-16 o9 e32 o6 e16 o5 b16 o6 d32 < d-8

celesta: (tempo! 40) > a+ o9 a16 > e- o6 d+32 > c16 o7 a16 o5 f o7 g-8 o6 d32 o5 g8 o6 e-32 > c- o8 a4 < e16 > g o8 g o9 b+8 > a+ o7 a32 o8 a32 > f+8 > c32 o5 b-4 o9 g16 > g+16 o7 a8 o8 f16 < c+32 o9 f8 o9 d-8 o6 d+8 o8 f-32 o8 d16 o5 d-32 o7 g16 > g16 o7 b8 < c16 o6 g+ o5 e+4 o6 g8 o8 c16 o8 g- o5 e o5 g o7 d8 o5 b-32 o7 c8 o6 a8 o5 e+16 < g+8 o7 f32 < a- o7 d+16 < c- o5 e+32 o6 c16 o7 e8 o7 f-32 < d+4 o7 g-16 < e- o6 b32 o7 e16 > g-8 o8 g32 < a4 o6 e16 o9 d o5 g8 > b32 o6 b32 o9 e+16 > b-32 > e-4 o7 g+ o9 d-4 > g-8 o7 f8 < e16 o8 b32 o7 g- < f+4 o9 a+ o8 a32 < g32 o8 c+4 o6 a32 > c16 o5 g > e+16 o7 g4 o5 b-4 < f < d o6 e-32 > c < f- o7 f+ o6 e-32 o5 e o5 b-4 o8 g16 o6 b-32 < e4 o9 b8 o8 g4 o6 b+4 > c32 o9 f8 o6 g32 < a32 o7 b8 o9 a16 o7 g32 o7 g- o6 b-32 o8 d+32 o9 f o6 e-4 o7 d4 > c4 o9 e16 o8 e8 o8 f+16 > f o5 c+8 o8 g32 < b4 o9 d > a8 o6 f+32 < d < g- o7 a32 o8 d o5 c16 o6 c-4 o9 c-8 o6 c+4 < g8 < f+4 o5 c+4 o9 g8 o6 g o6 b32 o6 c o7 a4 o8 b > d4 o7 f8 o6 e32 o7 c-4 < c-8 o5 a8 o8 d+16 o6 f32 o5 f+32 o7 c- o6 b8 o6 f o8 a+8 o7 g8 > g-32 < d16 o5 c32 < d+4 > a-32 < e4 o6 c+32 o9 a-16 o5 g8 o8 c+8 o8 e o6 a- < b-16 o6 b+16 o6 d+16 o8 c32 > a-8 o5 d+32 o9 a- o5 f32 o9 e32 o9 b4 < f- o8 d- o5 c-16 o9 g8 < f32 o9 g32 > f+ > g16 < c8 o8 d+8 o5 e-8 o5 e4 o9 d+8 o5 f- o7 d+ o6 a o5 c- o7 e+4 o9 d4 > d+16 o5 f32 o7 f- o5 c- > e+8 < d-32 o8 a+16 o6 d- > c32 o7 b32 o5 c32 o7 b4 o5 d+32 < d-32 o8 e- o9 g16 < g32 o5 d-4 < a4 o5 b+ o5 b16 o7 d+ o9 a16 < f16 o7 g o7 d32 o9 d+ o7 e+4 > b > b8 o6 d+ o7 d4 o8 b < d4 o5 g8 < f-4 > c-4 o5 e+ o6 b+8 o9 g+16 > a-16 o8 g+4 o9 d4 > c8 < c- o6 c+ < f8 o7 f+ o7 e o5 a32 o7 f o9 g o6 e-8 o5 c+4 < d- < b16 > b-32 > f+ > f32 o7 a-4 o8 a-8 o8 d+16 > e+32 o9 g+16 o8 f-8 > a+ o9 c32 > g o8 c > e16 > c32 o5 g o7 g-8 o5 d+32 < e4 o8 g-32 > f8 o6 f- o9 e-16 < a- o8 d32 < c < f16 o7 e+ o7 a-8 o6 f32 o7 g+16 o6 f32 o6 a8 o6 c-8 o5 b8 o7 e+8 o7 e+32 o8 e16 o6 c16 o7 c32 > e+32 < e > e+32 o9 a- o7 e32 o7 b-4 < f8 < a+ < b16 o5 b+16 o7 d4 < f32 < e4 o5 e+ o6 b4 o6 a32 o6 e32 o6 g8 < g-4 o9 d4
