piano: (tempo! 40) o7 c+ o2 e4 o3 e8 o1 g+8 o1 f+16 o3 b o7 e4 o3 b32 o9 e16 < c32 o0 g o6 g4 o1 g o1 d-8 o4 d-16 < g+8 o1 g32 o3 f8 o7 d16 o6 c8 o4 e+8 o7 g-16 o9 d4 o3 d+ o6 b16 o9 g- o2 f-4 o7 e16 o2 a32 o3 e-32 < a-16 o5 c8 o9 a-8 o3 d o1 c+4 o8 f4 o3 f-16 > c o7 c-8 o9 g- o8 c > a+16 o5 d+8 < a-32 o7 a- o5 c4 < c+4 o4 e16 o6 g+ o2 c-32 < b+4 o5 f-8 < c-16 < g+ o9 b-16 o3 f16 o8 c16 o5 f+32 o5 c-32 < e-4 o0 e4 o5 f-8 o3 g32 o1 c+16 o3 g16 o9 f o2 b-16 o4 f16 o8 f+32 > f+4 o0 c- o6 d+32 o0 d+16 o3 b16 o5 g+32 o3 g16 o8 a-16 < b-32 o8 f-16 o4 c8 o1 a-4 o1 g32 > b+ > e o4 d+8 o6 b+8 o0 e32 o2 f4 o8 f-32 o7 f+4 o1 e32 o8 f8 o9 g16 o7 g- > c4 o3 f32 o7 c- o1 b o2 g-16 > b8 o8 c o2 d8 > a32 o6 d16 o8 b-8 o8 g8 o7 e4 o5 c16 o0 f-8 o0 d32 o7 f+16 o9 c-8 o2 d4 < e-32 < b16 < f+8 o0 c32 o9 b8 o3 d < b8 o6 e8 o9 f-4 o5 b o0 e8 o8 c8 > g32 o8 e4 o1 b8 o0 g+32 o7 f > e8 o3 e8 o3 d-4 o5 d4 < a16 o6 e4 > g4 o9 a o0 g+16 o2 e-4 o2 b-8 < e+ o2 d- o7 e-4 o7 a < a8 o7 b+32 < f8 o8 f32 o0 b o2 g4 o5 a8 o1 a > g32 o6 e+4 o7 a+ o4 f- < e-32 < b-8 o3 b+32 o3 f4 > c8 o9 e- o5 b o2 b8 o3 b16 o6 d+4 > b-16 o2 a+4 o2 b+16 o9 d+16 o5 b+4 o8 a+4 o2 f-8 o1 b16 o4 f+ > e-16 o8 f-32 o7 g-16 o1 e+32 > f- o4 e16 o8 e-8 < b+32 < f32 o5 b o8 f8 o3 c+32 o9 g8 o1 c+32 o6 g4 o6 d32 o7 f32 o5 e8 o2 a32 o9 d+ < f8 > a-4 o2 g+ o1 d-16 o2 c+32 o1 g o4 d-16 o2 g16 o1 d32 o7 e8 o4 g32 o5 e+8 o8 b+16 o5 f < f4 > d16 < b o7 f-8 o6 f8 o2 g8 o0 b-32 o5 g16 < g4 o2 g+ o3 a8 > c+ < g16 o8 a8 o0 e32 o8 a8 o6 g8 < d16 o5 a < b-4 o1 a16 o1 a32 o2 f16 o4 d+8 o9 d4 o2 c32 o4 e+8 o6 a-16 o6 d o9 e4 < a32 o1 e-8 o2 d8 o6 g+4 o3 a+4 o8 e-32 o2 d+ o2 f > d16 o3 f8 < b-8 o3 a-16 o3 e+4 o0 b+16 o2 f-4 o5 e+8 o4 d > c4 o2 a16 o5 d o2 e4 < d32 o3 d-8 o2 d4 o0 c4 o9 g4 o6 f16 o6 c+8 o3 a-32 o8 d8 o9 d o3 e32 o0 e+ > b4 o8 c-8 o8 b32 o8 c+ o3 g o5 a16 o6 d32 o2 c-32 o5 f16 o3 c8 o7 a- o1 b+ o7 e+ o4 g4 o5 d+16 o4 d-32 < e32 o6 d+16 o9 b-16 o9 g o4 c-16 o8 d16 o1 c-16 o6 e- o1 g4 o4 g8 > b-32 o8 d+16 o7 c-16 o5 b8 < g+ o6 a8 o9 e < b8 o6 b-32 o2 b+ > a4 o9 b+ o2 d4 o1 a+ o8 d+4 > c+8 o2 e- o2 c-32 o2 e8 o2 e-8 o5 f32

celesta: o2 f-16 o7 d- o8 a-4 > e o8 d-32 o8 d4 o2 e8 o6 e+16 < a- o4 b4 o9 c8 < g+4 > e o2 f- > c4 < d-4 o4 a-16 o3 b32 < b8 o5 e32 o9 g o7 f o1 e+4 o4 e-32 o1 f32 o7 c-16 o6 g+32 < b8 < a- o3 g32 o3 b16 o9 b+4 o5 b16 o5 c+4 o6 f+ o9 a-8 o2 d-4 o3 f16 o0 g+8 o9 d32 o2 f-32 o9 e32 o5 b+16 < b < e16 o7 c8 < e+ o0 e o4 c32 o1 b-4 o2 g+8 o8 e+ o8 b-4 o5 d-16 o6 d-4 o4 d16 < b-16 < a32 o4 d-8 o4 c-4 o3 c-4 o9 e o5 a4 o7 e16 o3 f+32 o4 c+32 o1 c+8 > d16 o7 g4 o9 g+4 o4 a16 < c-32 o3 c-4 o0 e+8 o3 d-16 > b-32 o9 c o0 e16 o5 f-32 > g+8 o9 d+32 o6 d o7 e32 o0 d-32 o8 a16 o4 c-8 o3 a4 o8 c4 o2 e32 o0 e-16 o1 e+32 o6 f- o9 d16 o2 f-4 o5 c-4 o4 e+8 > g4 o4 b o5 b+16 o6 d o9 e- o5 g4 o2 a+4 o1 f8 o8 b4 o2 e+ o8 f4 > b32 o3 e+8 o1 d32 o8 g+8 o5 a8 o6 a-16 o7 f8 o8 e8 o6 c+32 o7 f- o3 a- o5 c o1 f16 < f16 o7 g4 o8 f- o4 c+16 o1 b32 o7 c+ o5 d32 o3 c+ o1 a-16 o7 d4 > g-8 o6 d+8 o6 f8 o9 a-4 < a+ o5 b4 o8 a-4 < c-8 < a8 o1 d32 o0 g+32 o7 e o6 b o7 b8 o7 c4 o9 a16 o1 d- o5 e8 > e- > f- o0 e8 o4 c-8 o3 f4 o6 b+32 o8 c16 o2 b-8 o8 b4 o3 f16 o6 g o9 c+8 o7 b8 o4 d16 o0 c+32 o2 f o5 d- > e32 o9 f4 o3 b-8 o0 g-16 o7 a-16 o8 c-4 o2 f-8 o3 c+4 > g+4 o6 e-8 o4 f- o4 a+8 o7 e o2 a o2 g16 o4 g16 o0 f8 o1 f+16 o5 f32 o0 a16 o6 a+16 o2 f16 o7 e32 o7 g16 o7 f < c+32 o2 g- < b32 o2 d+8 < g+16 o9 a-4 o1 a+4 > f8 o3 f- o2 b-8 < g16 o0 b8 o6 c-8 o1 b o3 b-4 o5 b8 < g4 o3 e16 o5 c < c-4 o6 f16 o1 b+32 o1 d-16 o4 c-4 o1 b8 o9 d4 o1 a-8 o0 b4 o5 d-16 o2 g32 o8 f8 o8 g-8 o7 b+32 o2 d+8 o6 b+16 o9 a-4 o6 g+4 o0 e+32 o4 c o5 d+16 o1 e-8 o5 e32 > c-4 o1 d4 o4 a-32 o4 a+16 o2 e4 o1 b- o7 f+8 o8 g32 o3 f-16 < e- o5 a32 o8 b8 < d-8 o4 c-16 < e+32 o0 f+ o7 f o7 d4 o9 c+8 > c32 o3 e-32 o7 a16 o4 d-4 o8 c8 o9 c32 o3 a o7 a32 o4 f- < a+32 o9 e o5 d+8 < d4 o5 e- o9 a32 o8 d+16 < e-32 o4 d+8 o7 b32 < d8 < c-8 o7 c+8 > f- o1 f- o1 d4 o7 b4 o4 e-8 o2 a-16 o3 c-32 o7 g o1 e+4 o9 a16 o3 e+8 o4 c+16 o8 c o6 g16 < e+32 o3 g16 o6 a4 o0 c- o4 f16 o9 a16 o2 f-4 > f4 o4 d+16 o3 d+8 o1 g+ o8 c+ o2 a+16 o8 e-8 o0 b+ o9 d+ o9 f+4 o6 d8 o0 f+4 o4 d+4 o4 b < a16 o7 g32 o6 e+32 < b+16 o5 b+8 o2 d16 < g-8 o6 e+8 < b16 o1 g32 o1 d+8 o4 a-8
