piano: (tempo! 40) o4 a+16 o6 b- o3 c16 o4 a-4 o8 e16 o8 e > d+8 > d+ o2 g-8 o2 b16 o6 c+4 < a-4 < c- o2 e+32 > f4 o1 e32 o0 e-4 o1 c4 > d-16 o0 c o1 f-8 o5 c32 o1 b4 o2 f16 o9 c4 o9 c+ o6 e- o5 g-8 o7 e32 o6 f-4 o7 g8 o8 b+32 o8 e+32 o6 e4 o0 e4 o2 b o9 a-16 < g32 o0 e16 o1 a+4 o3 e-8 o8 e-32 o7 e- o4 g-32 o9 d4 o9 g8 o4 d+4 o8 f- o7 a+32 o8 c8 o5 f16 o6 a o9 d4 o9 d < f-16 > e-32 o9 g-16 o1 a32 o6 e32 o7 d-4 < b o9 c4 o9 e16 > c-32 o5 f+16 o1 a-32 < e16 o1 e+4 o1 c+32 > b8 o7 b-32 o7 c+16 o8 a32 o9 d- o0 f-32 o9 d o8 b+4 o8 g8 o9 e o2 d+8 o2 e8 o7 c32 o2 b- < a+8 o5 d+ < f o1 b < e8 o2 f o9 c-8 o0 d32 o4 b-32 o5 d16 > f4 o1 g+32 o7 a8 o0 a+32 o2 f-4 o5 a+16 o4 b- o4 a o7 a+32 o6 g16 o8 b32 o5 c4 o3 b+ o0 b+16 o7 c8 o0 d8 > a8 o3 e16 < a32 o6 c32 < e8 o6 d-32 o1 g-4 o2 a+32 o2 e+4 o4 c4 > d32 o8 e- o6 b16 o6 f-16 o9 b o2 f-4 o9 d+16 > g32 o9 a+8 o0 c+ < g+32 o0 g > f+4 < c8 o3 g+ > d+4 o1 f+32 o7 b+8 o1 c+32 o9 e- o1 e-4 o5 c-16 o2 a8 < c-32 > e8 o6 c- o9 b o1 a32 > c4 < e-16 o8 g4 o2 g8 o5 b+ o4 c4 o9 b16 o1 f+32 o7 g+4 o5 b16 o5 d32 o5 c-4 o6 a o2 f8 o3 e4 > g o9 d32 o1 d32 o7 g-32 o4 a32 o4 b+32 o5 c32 o2 a o6 d32 o8 b-8 o9 f32 < c+16 o9 a-8 o1 g4 o8 e+4 o8 f+8 o3 d+32 o6 g8 < c8 o0 f32 o9 a-32 o0 c o5 e+8 o9 a o0 f16 o3 a+8 < c32 o4 b+32 o4 d > d8 o5 a o3 e4 o9 g-4 o6 g+16 < c8 o7 e+16 o6 d+8 o3 d16 > e8 o8 d8 o9 b o3 g4 o5 a+8 < b32 o3 f8 o6 b+4 < b4 o4 f4 o3 f-16 < d-4 o7 a+ o7 d+8 o0 b32 > e-16 o2 a < e4 o1 f32 o9 b+8 o7 d < f4 o3 b8 o3 f o8 g o1 a32 o7 b o0 f32 o1 b16 > b16 > g32 o3 d- o5 d+ o8 b4 < f-16 < f16 o1 c+32 o8 f o9 e+ o3 d+4 o6 b32 o5 g-4 o2 g-32 o8 g+ o7 b16 o7 a8 o5 c+4 o9 g32 > d4 o3 f o4 e16 < b o6 d-8 > d+ > d16 o3 g4 o6 g4 o7 f+8 o7 f-16 > c8 > e+16 o1 f+32 o8 a8 < f-8 o8 g-8 o4 a- o1 d- o2 g-16 o7 f o8 f+ o7 c o6 b o6 g-32 o2 a4 o8 b o0 f+8 o9 e o8 a-4 < b-32 o1 c4 o2 d+8 < d+4 o3 b-8 < a-4 o5 c+4 o1 d32 o6 e-32 > d+16 o4 b+ o6 e-4 o8 e- o3 d16 o1 f+ o0 d-32 < c-8 o0 e8 o1 g+32 o6 a- o2 c4 o0 a o0 a+4 > g16 o1 e-32 < a+8 o0 c32 o6 a32 o1 a+8 o0 d32 o4 f4 o8 c o7 d+8 o6 a > a-16 o2 e8 o0 g4 o3 g8 o7 b+8 o8 g32 o1 g-32 o0 b16 o4 b32 < g o6 a+4 o7 b4 o0 c-8 o5 f+ o8 f-32 o9 f8 o4 d o2 c4 o6 c16 o2 c32 o4 g-8 o6 f16 > c o8 b4 o0 e+32 o7 d-16 > c-4 o1 b+4 o6 d-4 > e- o5 g4 o8 d-4 o8 g16 > e+ > a8 < g-8 o4 d+32 o2 a32 o0 g+8 o0 a-4 o7 a4 o7 g-16 o6 g+16 < f32 o2 d4 o7 a8 o2 b-16 o6 b o9 e o6 e+ o6 e-4 o5 e o4 g32 o9 f8 o6 c-32 > f+32 > b o8 a-16 o1 c16 o8 a o3 c+ o9 e16 o4 f-16 o9 c4 o0 f4 o3 a+16 o1 d-4 o2 g4 o1 f+ < c-16 o9 c32 o7 e+4 o4 b16 o5 e+4 o7 e o2 c16 o9 a o5 a+32 o0 d-4 < g o0 b o3 f+8 o3 c32 o8 c4 > c- o3 c-4 o5 f32 o3 b+16 o9 e- o8 f+16 o0 e-8 o2 g32 o8 d+ o6 g-32 o0 f+16 > d-4 o1 g-4 o9 f o8 a+ > e16 o1 g+ o7 a+32 > f8 o1 d+8 o7 c- o7 f32 o4 b+4 < c+4 o3 g+8 < d+16 o3 e4 o6 d+8 o4 e16 o1 c+32 o3 d+32 o4 e4 o1 d+32 < d- o4 g+32 o0 g-4 o3 b4 o1 c16 o0 e- o0 c-16 o2 e+ o9 d32 o8 c o8 e8 o3 d-32 > b4 o7 g32 < e+32 > c8 o9 c8 o2 d+8 < c-4 o6 b-16 < c16 o3 c8 o3 b-32 o1 f+16 o9 e-16 o4 g-32 o8 g o5 f-8 o5 c o2 e32 > e+16 o6 c+ o4 b8 o6 b-16 o1 a o6 e8 o2 g+8 > g-32 o9 e+32 o3 a8 o9 f16 > e4 o6 e+8 o6 a-16 > a o8 c8 o5 f o1 d-8 o6 b4 < a4 o9 b+4 < a+8 o4 a-16 o4 e8 o2 f+8 > b8 o8 e o6 d-8 o6 b o9 b8 < g o3 f4 o1 d-16 < b o7 e4 o9 f+32 o1 c4 o7 e4 < d-16 o9 c+16 > e-32 > a-32 o7 d o1 f-8 > g o4 c- o3 g16 o9 g+32 o5 a+32 o6 f+4 < e- < f- o2 e8 o7 d-8 o8 f32 o5 e+ < b4 o5 a16 < c4 < f16 o1 d4 o0 a4 o9 g16 o9 g8 < e32 o5 e o5 b- o4 b-8 o3 g-8 o5 c+8 o7 a4 o8 g-8 o5 f-8 o2 g-4 o2 b16 o4 g16 o9 g+4 o7 e16 o8 a32 o3 a-4 o4 g8 < d16 o6 e-8 o5 a- o6 c4 o5 c4 > e+ o9 e8 o2 g-32 o5 b4 > g o4 e4 o6 c o7 b4 o9 c- < d8 o2 c16 o6 e-4 o4 e4 < a+16 o2 f o5 c8 o0 e+8 o6 f8 o0 f- < g-4 o3 f-16 o3 e+8 o5 g8 o8 b o4 e16 o7 c o0 b4 o6 f-4 o5 c-32 o2 d+ o4 a-4 > b16 o3 f-32 o9 a- o6 b o1 d o9 f16 o3 a-4 > g4 o6 g16 o4 g-16 o4 e-32 o2 g32 o9 d+4 o3 a4 o2 g o7 f32 o7 f+4 o3 e-8 o9 e- < d32 o8 f+4 o7 a8 o3 a-16 o6 g+16 o6 g+8 > e+32 o5 c-32 o9 f32 < e8 o2 c+16 > g-4 o8 a+32 o1 g8 > b o7 e4 o3 c8 o6 c16 o1 a4 o6 e+16 o0 e+8 > d4 o9 b32 o8 e8 o6 g16 o0 e+ < c+4 o1 d-32 o0 b4 o9 b32 o6 f+32 o2 b- > c-4 o3 d4 o1 b+32 o7 f- o3 g8 o2 f4 o4 g4 o2 e32 o0 g+16 o0 a16 > b32 o0 a32 o6 c-32

celesta: o4 b+ o9 e-16 o3 g8 > c8 o9 b-32 o0 f4 o5 c+16 o9 f+ o9 c+32 o2 b+16 o2 e- > e- o0 b-8 o8 g32 o3 c32 o0 b o4 e32 o9 a8 o4 e+32 o3 d+32 o4 c16 o6 g+32 o3 a < d32 < d+ o6 d32 o9 f-32 o5 e-8 o1 b-4 < a o7 f16 o7 a+ > g16 o1 c16 o9 d4 o7 a8 o5 d+4 o0 c-4 o1 f+8 o5 d-16 o1 a+32 > b32 o9 d o4 f32 o6 d8 o6 f+ o4 f8 o4 a > g+ o1 b+8 o4 g+8 > g16 o0 c16 o9 c4 o3 b8 o5 e-16 > e+16 o0 a o9 d-16 o4 e+4 o8 e-32 o0 d4 o0 g8 o0 a o4 b+8 o5 a-16 < d-32 < c-32 o8 d+8 o6 b16 < d+16 o0 a8 < c-32 o9 a4 < f+32 < f-8 o8 g o8 d-16 o7 d32 o2 d+8 o9 c- o3 e-8 o7 e-32 < c32 o9 a+ o0 f-4 o6 c32 o5 a+8 o1 c- o0 c-32 o7 b > a+4 < a16 o9 b-16 o7 g > f-16 o7 c+4 o1 e8 o4 a-16 o2 b8 o2 e-8 o3 f+8 o3 c o3 e-8 o4 d4 > d+16 o1 a+32 o0 c-8 o0 b16 o9 g-8 o6 b4 o8 g-4 < f-32 o3 b+32 o6 b o6 e-32 o5 a8 o7 d- < a- o4 d-16 o9 a- > c-8 o6 g+ o7 f16 o4 c16 o3 e-32 o5 d+16 o8 a+16 o4 b-32 < e32 o2 e8 o2 d8 o8 b+32 o0 g- o6 c- o3 d o2 f+ o4 g+ o5 b4 < b+4 o2 e4 > g4 o5 c32 < g o1 b+ o6 a-4 o9 f+8 < e8 o6 b8 > f16 o1 c+4 o0 c8 o3 g16 o0 e+4 o9 g+4 o4 c32 o4 e4 o6 b32 o6 g+32 o6 f-8 o3 g- o7 a8 o0 f16 o8 f-8 < d- o8 d32 o4 f4 o9 c-4 o1 f- o4 f8 o4 g32 o2 a4 o1 d16 o0 c+ o1 a+8 o8 a+16 o8 g16 o9 b o0 d+ > a-32 o2 c-4 < g+8 o7 g32 o0 b-16 o4 e o8 f32 o3 c+ o9 d8 < d32 o2 f16 o0 a o6 g-4 o9 a+ o4 b- o1 b-32 o4 b32 o4 f- o9 f4 o1 e4 o0 e-4 o2 d o6 b-4 o1 g- o8 f16 > b o1 c-16 < a+32 o7 f4 o7 d32 o4 e o1 b+16 o8 e+16 o5 d+ o6 b+ o8 f32 o3 d o9 a32 o8 f4 o1 c16 o7 e+32 < f16 o7 d > b4 o2 f4 o9 b > f8 o1 c4 o8 e-32 o5 d- o5 e < d+ o8 a32 o7 e4 o8 b32 o0 e32 o2 b- < g16 o2 e4 o7 d+16 o6 e16 < a8 o7 e4 < e-8 o1 c+ o2 b+16 > d32 o7 a-4 o8 b+32 > f o8 f+8 o2 d32 o8 b+8 o6 d8 o1 c32 o3 c4 o0 a o6 b-16 o9 a+16 o4 b+4 < e-32 < c4 o6 e-32 o5 a- < a4 o0 g-16 o8 b16 o7 c8 o4 e16 o9 c-16 o3 a-16 o3 e o6 e32 o0 e4 < e-16 o8 d4 > c-8 > f4 o5 b- o1 f+16 o7 d o1 c+32 o0 e4 o9 g-4 o6 d4 o4 e+ o7 g8 o5 b-16 o4 a+32 o7 b+32 o8 f32 o2 e4 o4 f+ o4 e4 o2 g4 o6 a4 o9 b+4 o1 e o8 d16 o6 e8 o6 e+4 o6 a-8 > f8 o8 b-4 o3 b-8 o2 g+32 o8 a+16 o7 c32 < b+4 o6 g+ o8 c4 < d+4 o0 f8 o0 b-32 o2 d32 o9 a32 o8 d+4 o7 d8 < f32 o4 c-16 o3 a-32 o2 e-4 o9 d8 > g32 o5 c o3 d4 o3 f32 < e16 o8 d8 o7 c-16 o8 e16 o3 b8 o5 a-16 o5 a8 o0 e o9 e4 < a+8 > a16 o0 a+4 o4 g32 o3 g+4 o3 d- o5 c-32 o2 g-32 o5 g4 o9 a8 o0 g32 o0 d-32 o3 d+32 o7 a o3 e+16 o8 g+32 > g8 o7 f-8 o2 e-16 o3 e o2 d-16 o7 d o7 f-8 o7 e32 o2 e+32 o7 b-32 o5 e-32 o4 f+ o4 a+32 > f+4 o0 g8 < f16 o2 d-32 o3 f+4 < d-16 o6 f+32 o6 g4 < c+16 o1 b+8 o0 d8 > g+32 o2 a > f-32 o5 c+32 o1 c8 o4 f-8 < g8 o7 b32 < d-32 > g32 > a- o1 c+ o9 c+8 o8 e-8 o0 d-8 o7 f32 o3 b-16 o6 a-8 o0 d+4 < f-16 o1 f8 o1 b32 o5 f+8 o7 d32 o7 d o6 a- o2 f-4 o8 c32 o1 d-32 o3 b o3 a+32 > e8 o2 d+ o6 f- o4 a32 o5 c+ < b-4 o4 f+ o9 d16 o3 d-32 o6 e16 o3 d-32 o1 c8 o7 g- o3 f o3 b+8 o5 d4 o6 f32 o9 e-4 o2 a+16 o5 g o7 a+ o4 b o1 e-16 o4 a16 o9 d8 o0 g8 o0 a+4 o8 a32 o4 b-16 o2 e+16 o4 f8 o9 e < e-4 o3 b+8 < e+ o8 f o8 f8 o2 b-8 o9 b16 o3 g+32 o9 g8 < g o6 e4 o5 b+4 o4 d- o2 e+16 o4 b32 o5 d4 o8 e8 o3 g32 o5 g8 o4 g- o4 d+ o7 b o9 f+16 o7 g+16 < a8 o0 b- o7 d8 < c4 o0 d-4 o0 d16 o5 c-32 o9 a+ o0 f+16 o9 f16 o5 f32 o0 f+8 o0 a-32 o4 b-4 < f- < a-4 o3 g32 > a+ o4 c16 o1 d-8 o7 g-4 o9 f8 o1 g32 o9 f-16 o7 g4 < g32 o8 d+32 o4 d o9 b16 o3 g-4 o1 c-4 < c+ o9 b-16 o1 f- o7 a4 o5 a8 o5 a o4 c16 o0 b+8 o0 g-4 o4 g8 o5 c o3 e32 o6 d-16 o8 f32 < c-8 < g+8 o1 d o3 d8 o1 a4 o7 a16 o4 c16 o1 a-4 o1 c8 > b32 o0 e+32 o3 b+32 < a+4 o1 b-16 o1 e- o6 d16 > e o0 g4 o6 g16 o4 a-4 o4 c-4 o8 a8 o2 g+4 < g+ o5 f32 < a16 < f-4 o7 a+ o1 g16 o1 b-16 > c- o0 e8 o4 g+8 o6 a o3 f32 o8 g32 o3 e8 o5 g+32 o4 b8 o4 a8 o0 g-4 < b o6 d16 o8 f4 o7 d o2 e+8 o8 d+ o4 e-8 o5 g16 o0 g+ o2 e o3 f-8 o7 d16 o3 g-32 o9 d16 o3 d16 o9 b < a- o1 a4 o7 c+32 < f o1 e+8 > f16 o6 c32 o8 g+32 o2 f o1 d16 o1 g o4 e16 o2 a o9 f32 o7 c+16 o5 f o9 e32 > a8 o3 b-4 o8 a16 o5 a o9 a8 o0 b16 o9 b-8 o7 e-32 o3 g8 o4 b < c- o6 a+4 < e-16 > a-16 o1 d-4 o3 f o6 a16 o5 g o6 d+16 o3 f+ o8 f+4 o3 a32 o4 e4 o5 e8 o3 a-4 o7 g+16 o3 e o1 b32 o2 d-32 o3 f4 o9 e-8 > b+ o1 e16 > b o8 g-16 > f16 o9 c-4 o9 a+4 < f16 > a-8 o9 e+ o6 g8 o1 a-16 < g-16 > e32 o4 a- o0 f-4 o1 f32 o8 b32 o8 f+8 o7 f-8 > b-8 o3 d-8 o6 e o4 f32 o6 c32 o6 d4 o6 e-4 < c+4
