piano: (tempo! 60) > b4/d/c/b/a2/e2 o5 d/e4/f4/d/c4/b2 o5 g4/b4/b/b4/g2/b > d/f4/g4/d2/e/a2 > b/c4/d4/f/a2/g4 o5 c4/d2/a4/g4/e4/g2 o4 d4/e2/e2/a4/f/f > a2/d/e/f/g4/f2 < b2/e4/d2/d4/e2/f o6 f4/c4/b2/e/a/a2 < g/a/f4/f2/b/f2 o5 c/e2/f/c2/c2/a o3 g/g4/f/d4/c2/e o6 a4/d/g/e2/a2/f o3 g/f4/e/c2/e4/b4 o4 d4/c2/a2/a4/c2/e o4 a/d/e/c/d2/d4 o3 e/f/e2/f/g2/a o5 b4/d4/c/d2/c/d o3 c2/g/d2/e4/g/g o5 e/b2/f2/e4/b/e4 > d4/b/b4/f2/f/d2 > f2/f/f4/a2/a4/f2 o6 c4/a/d4/g4/c/g4 o3 b/e/g/e4/c2/f o3 d2/a2/e2/d/g4/e4 > e/e4/f2/a4/a2/d2 > f2/g2/b2/c4/e4/f4 o6 c4/f4/c2/d2/f/a o3 a/b2/f/b2/b4/c < f/a/g4/c4/g4/g2 o5 c/f2/f2/g4/a/f o4 e/a2/g2/b2/g/a2 o5 d2/c2/e/a/a/f2 > d2/b4/d2/f2/g/d2 > f/b/b2/d2/a4/e2 < a/a2/g/e2/f/c2 o5 e2/a4/e2/e4/a/g o3 d/g4/c/g4/d4/b4 o6 g4/g4/c2/e4/g2/e o6 e4/c2/g2/a2/e/e o5 e4/c/g4/a/d/c o5 b/g4/b2/a4/c/f o3 f4/b4/e4/c2/d2/e2 > a4/e2/f/c4/b2/e2 o6 d4/f2/b2/g2/b4/c > f4/b2/a/a4/d/c2 o3 g2/d4/f/c4/e2/c2 < e4/a/b2/f/f/d2 o5 b2/b2/g4/e4/d2/f2 o5 c2/f4/a/f4/d4/g > e/a/c2/e2/a4/f2 o3 c2/b2/a2/b/d2/a4 o3 b2/b4/d/e4/d/f4 o4 g/e2/a/f4/e2/f4 > f/f4/b4/e2/b/e4 o6 g4/b4/d/g2/a2/f2 o6 c4/d4/a/b4/d2/g4 o5 d2/f4/b2/e4/c/c4 < b4/a/d/g2/f/g > e/f4/d2/a2/b/g2 o6 b4/f2/c/g/a4/d2 o4 c4/d4/c2/e2/g/e < c/b4/e/e4/g/f2 < a2/g2/a/c/g2/g o3 b/d/c4/f4/e2/e4 < e4/e2/c4/d/e/f4 o4 g4/g/g/e4/d4/b4 o4 f/d2/e4/a2/d/a o4 c4/a/c2/g2/b/f4 o5 b4/g4/d/a/b/a2 o6 d4/e2/a2/b2/b4/a o4 b4/d2/d2/d2/e/f o5 b2/g/g2/a2/g/d2 o6 b/g4/g2/a2/b/c2 < b2/e4/a2/e/f4/c2 o5 g4/a/c4/e2/d/g2 < a/d2/d4/c/b4/e4 > c/d2/b2/d2/a/d > d/b4/a/b2/b2/e4 < g/d4/g/a/b2/d4 o6 d/g4/c/g/e2/a o4 d2/b2/a4/f4/e2/g4 o5 d4/f/f/e4/d4/b2 o4 b2/c4/c/b2/c2/b4 < d/g4/c4/e4/d2/e4 o3 b2/b4/a2/a2/b4/g4 o3 g/b4/g/a2/e4/c4 o3 b/b/b4/e2/a4/e o6 e4/e2/c2/a/b4/g o5 f4/b2/c2/d/a2/c2 o3 g4/e/b2/d2/d4/b4 o4 d4/c4/a4/d2/g2/a2 o6 e/d4/e4/e2/d/d o3 a4/b4/a/e4/d/d4 o5 g/d4/f2/e/a/f4 o5 f4/a4/f2/f4/e/d o4 e/e4/e4/e4/g2/f < g2/d2/e4/d/c4/f2 < g2/e2/a/d/g2/d o4 b/e/f4/b4/f/e2 o4 d2/g2/a/f4/a4/c4 o6 c4/g/e/g4/g4/b2 o3 e4/f/f/f/b2/b > b4/g4/b2/e/d4/d o3 c2/b2/g4/e/g2/a o4 e/b2/c/c2/b/g2 > b4/b4/e4/d4/c2/f o3 c2/a/b4/f2/b/f < f2/e4/g/d/c/f4 o4 d4/e2/a/d2/d2/a2 o3 e4/a/c2/b/c/b4 o4 e4/c4/f4/f4/d4/f4 o5 b/d/c2/f/c/e4 o4 b4/c2/b2/g2/d2/e o4 d4/g/b/e4/g4/e2 > g2/e/f4/e/a4/d2 o3 e/d2/d4/a2/d/c < g2/g/f2/e2/d4/a2 o6 a4/b/g/a4/a4/d4 o6 d/a/f4/e/g4/f4 o3 b/b4/f4/a2/b2/e2 o5 e4/f/c2/g2/d/f o3 c4/f2/b/c2/g2/e4 o3 e4/g/c4/e4/c4/g4 o5 e/d2/g4/g/b/f o4 f/b/a4/g/d/c2 o3 c/c2/e2/d2/f4/e4 < e/g2/f2/g2/f4/f o4 e2/c2/d2/c2/g/d o5 c/d/b4/e2/d4/a2 o5 f/c4/b4/b4/c4/a o3 d/f/c2/c2/d2/f2 o6 e2/d4/d/a/e4/f4 o4 g/d4/f4/g2/b4/c > b4/d2/b/f2/c4/d2 o6 f4/b2/d2/b/e4/c o4 b2/a2/d4/c4/a2/f o6 c2/f2/c/g4/g/a4 < f4/b2/e4/a2/e2/a < e2/g4/b/c/e2/g4 o4 a/d/d4/c2/f/b2 < a4/c4/c2/d/g2/f2 > e/c/b2/b2/b2/a2 < b4/c/b4/e2/d/g2 o3 f/g2/c/c2/f4/g4 o3 c/e/b4/d/b2/a2 o4 c4/a2/c2/f4/c2/f4 o5 f/g2/d/d2/c2/f2 o4 d/g4/g2/a2/d4/f4 o3 g4/e/f2/f4/c/g4 o5 c/a2/d/g4/a/a4 o4 e4/a/b4/g/a4/g2 o3 d4/d/c4/g2/a2/b o5 c/a2/a2/a2/b/d o3 c2/b/f2/b2/g4/b2 o6 b2/f4/b2/f/a/a2 o5 b4/c4/e/a/b4/d2 o6 f2/e2/a2/c/f2/c4 o3 b2/a/g2/c2/g4/c4
