piano: (tempo! 60) o5 b/f/e4/d4/a4/b2 o4 g4/b4/d2/f4/g/c o6 f2/c4/d4/e4/c2/d4 < e2/e4/b4/b2/d2/c4 > b2/g2/g4/b4/g2/a2 < e/a4/b/a2/b2/e4 o5 d4/f2/c/c4/a2/a o4 a2/c2/a4/c4/g/e > d4/b4/b2/b/f4/g4 o3 a/e/b2/g2/d2/e4 > c2/f4/e/c4/f/g4 < e4/f4/e4/d2/f/d o3 c2/c4/c4/g/e/b o4 c2/f4/b/g4/d4/g > c4/b4/e4/f2/g4/e2 o3 d/b2/g2/f2/e4/e2 o3 g/f2/f2/e2/f4/c2 o4 e2/f4/d/g4/c4/f4 > a/e2/a/b2/c/e o3 b/g4/c/f2/a4/b2 o3 c4/g2/b4/c2/g4/a4 < e2/g4/a4/f/c/g o6 b/e2/b2/a4/e2/f o6 e4/g/e4/g4/f4/d > a4/a2/c2/e4/e4/e2 o5 b2/c2/f4/g/b2/c2 o3 e/c2/g4/f2/c4/a4 > d4/f/b2/f/b2/d < a4/c/b/f4/b/e4 o6 b2/c4/b4/d/g/e o3 d2/f4/f2/f/f2/c2 o3 a2/a2/f2/f/c/f2 < e/g2/e4/f/f2/a < d/b4/d2/g2/a/f > b/d2/d/f2/e/f o3 f/b/f2/g/e/e o4 g4/b/g4/g/d/f2 o4 f/e2/b/b4/b/d o3 a/d4/e4/f/a4/g2 o3 f4/e4/b2/c2/b/g > c/d4/a4/d2/e4/a o5 e/f2/e4/d2/g/e2 o5 c4/c2/f/a/f/f4 < b4/c4/f2/g2/e4/e4 o5 c/c4/b2/d4/g/e2 o5 e4/c2/e4/e2/b4/g4 o6 b4/b4/d4/c4/f/d2 o6 b/e2/d/c/f2/a o5 g/c/e/b4/g/d2 < a/e/g2/c2/a2/c o6 b/a4/d/b/c4/b2 o6 g4/e4/d4/d/g2/d2 o5 c2/a/b4/f4/g/d2 > a/e4/d2/d2/g2/b o4 f2/e/d/a2/b2/e > b/b4/b4/g4/a2/f4 o6 d/g4/c4/e2/b2/f2 o3 a/d4/a/e4/b/c o4 e/a2/d4/a/b/e o4 c2/a4/c/b4/e/e4 o5 g/d2/f/g2/f/e2 o6 a4/f/c2/c2/g4/e o4 a/b/a2/g/c/d o4 c2/f2/c4/b4/b4/g o3 d4/e4/f/b/c2/d o4 e/b4/g2/d2/g4/e2 < c2/g/e2/f2/g4/a o6 d2/g4/c2/b/b2/f2 < c4/g4/f2/c2/b4/a4 > e/g/b4/d2/f/f > b2/e2/e2/b2/f2/d o6 f/e/a/g4/f2/c > f4/e2/f4/c/e2/d o6 g/c2/g/b2/c/c4 > f2/g2/d/f2/g/c o3 e/f4/e/b/g4/e2 o6 e2/g4/f2/e2/a2/e4 o6 b2/e2/a2/a/c/c2 < b2/e2/c4/c4/d/a o4 e/b/f4/b2/c2/e4 o5 e4/c/g2/c/a/d > f/f4/b2/d4/a/d o3 a/c2/f4/a4/d2/c2 < c4/d/g2/d/d2/g4 o3 g4/g2/d4/f2/e2/c4 < c/c4/f4/e4/c2/g4 o4 b/f/g/g/g2/b4 > e/g/d2/b2/f4/f2 o3 e2/b/c2/d4/b4/g o6 f2/g4/g2/a/e4/a4 o4 g/g/f4/g/e/e2 o6 c4/a4/e2/d/b2/g2 o4 d/a2/c2/d2/f4/a2 o5 e4/c2/d/g/g4/e > a/g4/e4/f2/a2/c2 o4 f2/b4/e/a2/e/b > b/e4/b4/d2/g/e > a/c2/g4/c4/a/d4 > e/g/f4/f2/a4/a4 o6 f/e2/a2/b/e/d4 o3 e4/g4/g/e/a2/b4 > f2/d4/a4/f4/e/g o4 e2/e2/f/g4/a/f4 o5 c2/e/c/e4/d2/a4 o5 g/e4/c/e4/d4/b4 o4 a/e/b/g/g2/c2 o3 f/c2/a/c4/d2/g4 o5 g/b4/f4/b4/d/g4 > f2/d2/b/e/c4/a4 < c/c/d2/e/a/g4 > b2/f4/c4/d/d2/g o4 b4/g/e/d/f/b2 < d4/b2/c2/c4/f/g2 o3 d2/d2/e2/e2/c4/d4 > f2/d4/c4/c/e2/g4 o4 e2/a/e/f2/f4/e o5 a/d2/g/d2/c4/b2 > a/f/e/f4/f4/g > b4/g4/c4/b/e/d4 o4 d4/d4/e2/e2/f2/a < d4/c4/f/c/b/g2 o3 b/e2/b2/c2/f4/f2 o3 d/c/b/e2/d4/a4 o4 b2/d/c2/f4/g2/a < e4/d4/d/g4/f2/b2 > f4/b/g/g4/e/a4 < g2/c/f2/d4/b2/c4 o3 e2/d4/d4/g4/b2/a4 < f/d2/b4/f/f2/e < d4/e/f4/d/e/a4 < a4/f/g/b2/d/a4 o4 a/f/c4/d4/g/b o5 f/c2/a/g/c4/c o5 f2/b4/b2/g4/e/c o5 b2/f/g2/d/b2/e o5 c4/b2/e4/a4/f4/a > d/a/e/g4/e/e2 o3 d2/g2/d4/g/a2/e o4 g4/e/a2/e2/a/g2 o4 a/c/c2/d2/b4/a < b2/f/a2/b4/g4/b2 > e/f2/g/a/c/b o4 b4/b2/g4/f4/g4/b < c/b4/a4/e/g/g2 > f/a4/d/c/e/a < d4/b2/c/a4/f/f4 o4 c/d2/a4/f4/c4/d4 > f4/g4/b/e4/b4/b4 o4 c/c4/d4/c4/g/a2 < f4/a/d4/a2/f/a < e4/a/g4/e4/b/g4 > a2/g/g2/g2/b4/b < d2/c4/b/c4/a4/a4 o4 d2/f4/f/b4/c/c4 o3 f2/g/a2/e4/e4/f2 < a4/g4/e/g2/b2/f4 < f2/c4/b4/c/e/a4 o5 e2/f2/g4/f2/g4/d2 o6 f4/a4/d2/d2/a/g2 o6 g/e2/a2/f/a2/c
