piano: (tempo! 60) > d/e/e2/c4/b/e2 < f4/a4/f/e/g/b2 o6 b2/f4/f4/a/g4/e2 < c2/a4/e2/g2/b2/g > a2/e/g2/b2/b4/e4 < c4/b2/g/a4/a2/d4 > a4/e/g/b/b/c4 > g/e2/f/a4/a2/d4 < a4/d2/f/a4/f/g2 o5 b2/a4/b/g4/d4/g2 o5 c4/g2/e/a4/c4/d4 < d4/c/b4/e4/c2/f > g4/g4/d2/f2/b4/d4 o3 d4/c2/g2/a2/f/f2 > e2/c/g/a2/e/b2 > d2/d4/d/b2/b/f2 o5 e/b4/f/d4/c4/b2 o4 c2/c2/a2/f2/d/b4 o5 c4/a/c2/c4/g4/e o5 f/f2/g2/b2/e/a4 o5 e4/d4/b2/e2/d4/b2 o3 f/b/d4/g2/g/c < e4/c4/a2/g/a4/f o3 d4/d2/g4/b4/d4/e2 < c/e4/c4/e4/g/g4 < g4/f2/a4/f4/g2/a o5 b2/b4/c4/g2/e4/d4 o3 a4/g4/c4/e/c4/d4 o5 f2/c/f/e4/c/b o3 f4/d/c2/g2/e2/a4 o5 e2/g4/e2/e/b2/e < a4/d4/c/c/e2/f4 < c2/b4/f2/f4/b4/a4 o4 e2/d/d4/e/d2/f2 o3 e/e4/e/a4/b4/d2 > f2/d4/a4/e4/b/f2 o3 a2/d2/e4/e/f2/f2 o3 a4/a2/d4/a2/f2/a2 o3 b4/g4/g2/c2/c/f o5 a2/g4/d/e/c4/b4 o3 g/d/g/d2/d4/f < g2/d2/b4/f/f2/e o3 f4/e2/a4/f/e/g2 o3 a4/d/e2/a/d/c4 > f/f4/c2/d/c2/a2 o4 c/b2/b/f4/d2/g2 o3 f/e2/g2/d/d/d2 o3 c4/c2/f2/a/c/e4 o3 e2/c4/e4/g2/b2/e2 > d4/d2/c4/c/f/d4 o5 c/b/b/b4/a4/c4 o5 g/b2/a2/e/c2/e4 o6 c/b2/a2/d2/a4/e o3 g2/c/b4/f/d4/e o3 e4/f4/g2/b2/f/a o6 c2/c2/g4/a/g4/f2 o6 f4/c4/b2/a2/e2/g2 o6 b/e/e2/d/g2/e > b4/g4/d2/b2/c2/g2 < a2/c/f/e2/b4/b < b/a/f4/e2/e4/c o4 e2/a4/a4/b4/d4/d2 o4 e2/g/g/f/a4/g2 o5 a2/a2/f4/g/f4/b4 o6 f2/a2/e4/g4/a2/d4 o3 f2/e2/d2/c4/a/a < a/c4/f2/d2/c2/g4 < g2/f4/f/c2/c/d o4 c/b2/f2/g2/d4/a2 > e/g4/c2/f/d/e2 o6 d4/e4/a2/c/d4/d4 o3 a/c/c4/d/c/e4 o4 g4/d4/a2/c4/g2/a o4 f2/f4/b/e4/d4/g4 o3 f4/e2/b4/a2/g4/d2 < e4/e4/e/g/d2/g o5 d4/c4/a4/c4/f2/g2 o3 g4/d2/b2/e4/c/g2 o3 e2/f4/f2/c/c4/g4 o4 d2/c4/c4/b/b4/g4 o4 b2/f2/e/b2/a/g4 o5 g4/c4/c2/c/a/e2 > c4/e2/f/b4/f/c o4 g/e4/c2/g4/a/b4 < d2/e2/a2/e2/f2/c > d2/e/a2/g/c4/c o5 e/g2/g2/f/e/a4 o3 e2/g2/b/d4/d4/e2 o4 f4/g/a4/d/a2/c2 o6 g/f4/c/b/a4/e o6 a2/d2/d/g/g/e2 o6 g/c4/b/g4/d2/f o5 a4/c2/f/g2/f4/a o3 a/a2/e4/e/f2/g > a2/d2/e2/a4/e/c2 o6 g/d/f4/a/d2/c2 o6 d2/b/e/b2/g4/e2 < g4/c2/c/c2/a2/d4 < g/a4/g4/d2/c/f2 o3 a/f4/g/a/b4/d2 o6 g4/e/b/f4/g4/f2 o3 f4/e2/f2/e/d4/b o4 b/c4/e/g2/e/c < c2/e/d4/g4/a2/e4 o6 e4/c4/b2/b/f4/b o3 g/e2/f2/f/c4/e2 < a2/e4/d/c4/f/b4 > b/g2/a/c4/d/c4 < b/f4/d2/g/d4/e2 o6 a/b2/d4/d4/e2/d2 > f/c2/e/f2/c/b o6 b4/f/d/f2/c/b4 < c/c2/a4/c/a2/a4 o4 d2/e2/e/f/b2/b2 o4 b2/f/e2/f4/d4/f o4 a2/d4/g2/c/a2/f o6 g2/g4/d/f2/f2/d4 o3 e4/c4/f/f4/e/g4 o6 f4/a4/g4/a2/g4/b4 o6 c/d4/f2/f/b/g o4 f/c/d/c2/e2/b4 > c2/c4/g2/e/g2/f4 o5 a2/a/e2/f4/b/b o6 b2/g2/b4/f/f/a o4 a2/d4/d/b/b4/e o3 b/a/f/d/c2/d4 o3 a4/g4/c2/b4/g2/e o3 e2/a/c4/c4/a/e4 o4 c2/f4/d2/f4/f/g4 o5 b2/d4/f4/e4/d/e > b/g4/a/a4/f4/c > b4/f/a4/f/f4/e4 < a4/d4/a4/c/d2/f o3 f/g2/c/e4/e/c4 o4 e2/a2/f/e/d2/g2 o3 f2/g/f/e4/d4/a4 o3 b/f4/f4/d4/e/b2 o5 g4/g4/f2/c/c4/b o4 c2/e2/a/d/d/f o4 d4/b2/c/f4/c2/f < g4/b4/a4/a2/b4/c o3 g4/g/f/a2/d/f < a2/e4/b4/b4/a4/c2 < e2/a2/a/b4/d2/b o4 d2/e4/b/b4/g/f < f2/a4/e2/b/f2/g4 > b/d/b4/a2/c/f2 < e2/g/c2/f4/c4/e o4 b/b2/c4/e/d4/e4 < a2/d4/g2/c4/g2/b2 o4 e2/d/d/b/f4/a < f4/c2/g/d/e4/b2 > f4/f/f/c2/d/g2 o4 g/c4/g/g/c4/c2 < g/c4/a4/a/b4/c4 o4 b/b2/d2/g/e/b4 o3 b4/b2/c2/g4/f/e o4 a/c2/e2/a4/d/e > f4/e2/b/e2/a4/a2 o6 f2/d4/b2/a4/g/f
