piano: (tempo! 60) > c/a4/c2/g/b4/c4 > d2/a/e2/f/b2/g4 o4 g/e2/e2/c/a2/e o3 e/b/e4/b4/e4/e2 o6 b/g2/g2/e2/f2/d4 < d4/f/b2/g2/c4/b o6 f/d4/g2/a/d/d4 o5 e4/e4/b2/c/c/b4 > a4/b/d4/a/a2/b2 o4 a4/b/d4/a/b/f4 o3 g4/c2/c4/b2/f2/e4 > e/f2/b4/e4/f/d4 o4 c2/f/g/b2/b/f2 o4 b2/a2/c2/b/e2/c2 o6 b4/d/a4/d2/c2/a4 o4 a4/c4/g4/f2/a4/g o3 d2/b2/d2/c2/c4/c4 o4 g4/e/f2/f2/e2/c o6 a/d2/b4/c2/b/c2 > g4/b/g/c4/b2/a4 o3 f2/f2/a/a2/f/a > d2/b4/b2/f2/b/b2 o5 f2/b2/c2/b/d/d2 o6 a/c2/e/f2/e2/g4 o6 c4/d2/g4/b2/a/f4 < a/f2/d/c2/e2/e2 o4 e/c/e/b2/b4/f2 o4 f4/a2/c2/g4/c4/d o3 a/f2/c2/c/g/b o4 e2/f2/e/g4/c4/f4 o5 g2/b4/e2/b/c/g4 o4 c/g2/d/c4/e2/e o6 e/e/f2/a2/f/e4 o6 c4/b2/d/g4/f2/e4 o6 g2/a4/e2/e2/c4/b4 < g/e2/a4/g/b/e > b2/b/f/e4/e2/a4 o6 c/f4/c4/c4/a2/f o6 c/f4/c4/b4/e4/g4 o6 c2/f/a/f/e/a4 < c/b/e2/c4/a/b > b2/c4/d/a/g2/a2 o6 b4/d4/b/e/e4/e2 o5 b4/a4/g/a2/e4/d > f2/c4/c4/d2/c4/c2 > g/b/f4/d2/f4/b2 > a2/g4/a/d/f2/d4 o4 b/e4/b2/b/c4/e > b/f/d/a/g4/a4 < b4/g2/f4/a4/e2/f4 > a/c/c2/g2/f4/g o4 d4/a4/f/c4/c4/g4 o5 d4/c2/c2/c/b4/g2 o5 b2/c2/a2/f/e2/g2 o4 c/g/f/a2/c4/d > a4/c2/f4/e4/e/f < a/e/e/b4/a2/d o6 e/b4/f2/c2/e2/g o5 c/a/d/c/f/g4 < d4/e4/e/a4/c/g o4 f4/g2/a2/g4/c4/b < g/f/d4/f4/g/a4 o5 f2/f/b2/e/c/d4 o6 g4/e2/b/a4/a2/a2 < f2/e4/e2/b/c/c2 < c4/e4/g4/f4/c2/a4 > a/e/e4/b4/b2/e4 o3 a/e4/f2/e/f4/c o4 a/g/g2/f/g2/a4 o3 d4/f/f4/d4/e2/c2 o6 d4/a4/c2/f4/f/f o3 c/d4/a4/f2/g4/b < g2/d/g4/d/a4/e4 o3 b4/c4/a4/a2/a2/b o3 e4/d2/c2/c4/c2/f4 o3 b4/g/f4/e2/b/b2 o3 c/g/e2/e4/c2/b < a4/f4/b/f4/b2/a4 o3 c/f2/g/a4/g4/d4 o3 a/a2/a4/f4/f/d2 o6 e2/a/d4/f2/d2/c2 > g2/d2/d2/f4/a/c4 o6 d4/g4/b/c/c/a > e/g2/b4/a2/c2/f4 o3 a4/c/b/b4/d4/c2 o4 c2/a4/g4/f/d/b o6 e2/c4/e2/g4/c2/a o4 b/d/g2/g/b4/b4 o3 g4/d/b2/c4/b2/b2 o6 b2/e4/e2/c4/e4/b o6 b4/c2/a2/g/d4/b o6 b4/d4/a2/e/g2/f4 > c4/g2/f/g/b/d4 o6 c4/f2/a4/e/g2/f4 o6 c2/a2/c/e2/f2/f4 o6 b2/f2/e4/f4/b2/a2 o3 e/e/g4/d2/e2/e2 < a4/f2/c4/e4/c4/b2 o6 e2/a2/b4/a4/e/d4 > b/a4/c2/a4/f4/a o5 e2/g2/d4/f4/e2/c o5 g4/b/e/d2/b4/g < b4/a/g/c4/a/b2 o3 f2/g2/f/d2/c4/g2 < d/d4/g2/d/a/a2 < a/d4/c4/e4/g4/g2 < c/g2/e2/g2/g4/g4 < e2/d4/d2/b4/d4/g o6 f2/a/g4/g/f/e4 o6 a2/f2/b2/f/g2/d2 o4 g4/f/g/b2/d2/a2 o6 a2/c2/e2/c4/b4/f4 o6 e4/a4/a2/e/b2/d2 o4 b4/g/d2/e4/e2/a < b2/a2/d/a2/f2/d o5 d/g4/g/a4/g2/a2 o6 g4/g2/g4/d/b/c2 o3 f2/d4/e4/b4/f2/b2 o6 g4/f2/f/a/d2/e2 o6 g4/e2/d/e4/g/d o6 a/d/g4/g4/a4/b2 o6 b2/c4/e4/a2/d4/b2 > e/e2/c/e2/b4/f4 o5 c/a4/c4/b4/b/a4 o6 e4/a/f2/d/e/d > c/e4/b2/d4/b4/c4 < a/f4/c4/b2/f/f2 o4 f/a2/b4/a/c/c2 o5 b2/b4/d4/b/g/a2 < a2/c2/f4/g/a/b4 > g/e4/f/g2/f4/e > g/b2/b/e/f/d2 < f/c/e2/e/f4/f4 > d2/c4/a/c2/g2/a > f2/g4/g4/d2/c4/f o5 e2/d4/c4/a/d4/g > a4/a/g4/g2/b4/g4 o4 e2/c4/e2/f2/f2/b2 o6 g2/d4/a2/g/b2/a2 o4 c/f4/d/f4/c2/b2 > g4/a/b2/a2/b/b > g2/e4/e/g4/d4/b < f2/f/e2/c2/f4/e2 o4 g/g2/b2/f2/c/b o5 c/e4/g2/e2/g/c o3 c4/c2/d4/e4/a2/g o4 a2/e2/f2/c/a/e2 < f/d4/a4/e/a4/b o4 a4/d2/f2/a2/c4/e2 o5 c/g4/e2/f/a/b2 o5 c2/a2/a/a/a/a4 o3 d4/f2/c/b4/d/c o3 g2/b/c2/e/f4/g2 > f2/a4/a/f2/c4/g2 o6 d2/e2/b/g2/a4/b4 o3 f2/a4/c4/e/e2/f4 < e/c/f2/c2/f2/b4 o3 d4/e/a4/d/a2/g o5 c2/d/c2/c4/b2/g4 o3 b/c2/e4/b4/a2/e2
