piano: (tempo! 60) o6 f4/f/e/b2/b4/b o4 a2/a4/f2/b2/g2/c2 o3 e2/e/f/c2/b4/e o4 a/b2/g4/a2/a/a o6 b4/g/b2/g2/g4/c o3 f2/d2/c4/g4/f4/f2 o4 c/a2/c2/d4/g2/d4 > d4/e2/a2/b/b4/b4 o4 d/c2/g2/g2/e4/b > g4/g2/f/b/c2/a2 > e/c4/g2/c4/g/d2 < e2/d2/a2/f2/d4/d4 o6 g2/f/g/d2/c2/b4 > a/a2/a4/b/g/a2 < a/d2/g4/f4/b2/c4 o4 b2/a4/e2/e4/g2/c > f/e4/b/a4/a2/c2 o5 d/f2/e2/g/e2/a2 o3 d2/f4/e2/d2/b/e > a/f/g/c2/b4/a o6 e2/e/d/f2/g/f2 < d/a4/d4/a/d4/f < c4/f4/d/d2/d4/a4 o5 c2/g/b/e4/f4/b2 o4 e/c4/g4/b2/b/e4 < f2/e4/g2/d2/b/c2 < f2/d/a2/f/a4/g o3 e2/g4/b4/b2/a/e4 < f4/b/d4/c2/d/e4 o5 g4/d2/a/e4/a4/c o6 d/b/d2/e2/d2/g2 < a/c2/d4/e/c/a4 o4 d/c4/a4/e/b4/e2 > e4/d2/f2/e/e/e o5 f4/g2/c4/g2/a/e4 o6 f4/g4/b/f/d4/g2 o5 e4/f/d/g4/d4/g4 o6 d/f2/f4/a/d/f o4 d/a2/b4/b/b2/e4 < b2/a4/g/a2/c/e o3 c2/b/g2/b4/c4/d4 o3 e4/c2/b4/d/a2/f > e2/c/d2/f4/b4/f4 o3 d2/e2/d/c2/a2/a2 o6 e2/b2/f4/b4/f4/f2 < f/b2/c2/a2/a2/b o6 d4/a2/c/e2/e4/b < a2/e4/g2/c/b2/d o3 g/c/a4/a2/d4/g > d/a/e4/b/d2/a2 > e2/a4/g4/d2/f/c o6 e2/d/b/f2/g4/c4 o4 g/c/g4/e2/g4/g2 < f/a2/a/e4/a2/f2 o3 b2/b4/f/d/f/a4 o4 f/e2/c2/g/e4/b > e4/a4/a2/d/f4/c4 > g2/b/b2/b2/d2/a2 < g/f4/e2/g4/f2/e2 < g/b4/c2/c4/f/d2 o6 e4/a2/f4/b4/g2/b2 o6 e4/d2/c4/b2/d4/e4 < d4/g4/b/c/a2/d > a/e/e4/a4/a/g o6 g2/c/e/c2/g4/a o3 c/c2/f2/g2/b4/f < d/b4/f4/d2/a4/d4 o6 g2/b2/d2/g2/e4/b o3 b2/g2/b2/e/a2/g2 o4 b2/b4/e/f2/e/a o3 f2/c/f/a4/d2/f2 o5 b/b4/f/b/e/g4 o6 b2/d2/g/d/d/g4 o5 e2/c2/g2/f/f2/b o6 b/g/d4/f2/g/f4 o3 a4/g/b4/f2/d4/c4 < e/c2/e4/c2/e4/f4 o4 c/e2/f4/b2/b/g < a4/d/a/g4/b4/a4 o4 a4/b2/a2/f/a/c2 < c/g/e4/d4/f/f4 o5 a2/e/b2/d/b2/e o5 c4/g/f2/d4/d4/c2 o3 c/b2/d/d4/b2/a2 > e4/f/g2/d4/d/d2 > d2/g2/g2/g/c4/b o6 e4/g4/c/g/g/a o3 g2/g2/c4/e4/e2/c < d/f4/c/b/a2/b2 o4 f4/b2/g/e/g4/e2 o4 a/a4/g2/g2/c/f2 > e4/a2/f4/g2/a2/g4 o3 b/d4/b4/c4/f4/b o4 b4/g4/e2/g/f4/d o5 c2/f2/b2/e2/g4/e4 o3 f/e/d/a/g/g o6 a/c2/d4/e2/c4/c4 > e2/e/d2/b/b4/b4 o4 f2/a/f2/a4/b/e < d4/b4/b/f4/c4/a o5 a/d4/g2/f2/a2/f4 o5 c4/f2/e4/e2/g4/e2 > e/e/a2/c2/a2/f4 o5 g4/e/a/c4/e4/g2 o3 g2/a2/d4/e4/d/d2 o6 c/f4/e/e2/d/a < a/f/c4/a4/b2/b4 < a2/a/c2/d4/e2/c > a/c4/d2/e/g2/f o5 e4/b4/c2/g4/a2/f4 o5 g2/f4/g4/b4/e2/d4 > a2/e/c/c2/b/a > c/d2/g2/a4/f2/b4 < f/g2/g4/f2/b2/f o5 a/c/c4/g4/e4/d4 o4 f4/d2/g4/a4/f2/d2 o5 g2/e4/e4/a2/c/d4 o3 b/b/c/g/e2/b4 o6 f2/a4/e2/a2/b/e2 > d/a2/b2/c2/a/g2 > e4/a4/c/g2/d2/f4 o6 f4/b/g/a4/c2/d o3 b4/b4/a2/c/e4/f o4 d/b/a2/f/b2/d2 o6 e/b2/e/c2/b2/c2 o3 g4/g2/a4/a/f4/c2 < g2/a2/g2/c/f4/g4 o6 g/b/c/c2/c2/g < e/b2/a4/a2/f2/d o6 e4/b2/f4/c2/e/d o3 a/c4/b/f4/e2/f2 o3 b2/d/f4/f2/d/c4 > c2/g4/a4/b2/d/c < e/e2/g/f4/b2/g4 > g4/d/d2/d4/e4/g2 o5 a2/b4/g2/g/a4/g2 < a/c2/b/e4/a4/b4 > f4/c/c4/g2/f2/f4 o3 a2/e4/f4/b4/f2/b o6 c/e4/b2/e2/a4/b2 o6 d/d/d2/c2/g/c > g/b/a4/d/d2/g o3 g2/a/c4/f4/c/d o3 g4/c/f2/a2/d4/f4 o6 f2/f2/g/e/g4/b o3 e/g/f/f2/g/b2 o5 f/f4/a4/b2/e/d2 o3 e4/f4/a4/c2/b2/f4 o6 g2/g4/g2/e4/f/c o4 g4/f/b/f2/a/a2 o3 f/d/e/e/b/a o6 g4/g2/d4/g4/e4/f4 o3 b2/f4/e4/e2/a/a2 < e/c/e/e/a/c4 o3 b4/e4/g/c/a4/f2 < c4/a/f4/b/b/a o4 g4/a2/b/c2/d/a4 o5 c2/c4/e4/a4/a/d > a4/g/c4/b4/c4/a2 o3 b/g2/g/f/e4/c
