piano: (tempo! 60) o3 e/e/d2/e/f4/g2 > f2/c4/g4/c2/e/b4 < c4/a2/f/b2/g2/c2 o6 b/a2/g4/c/d4/c4 > c/d4/c2/d2/b/a2 o6 e/g4/d4/g/f/e2 o3 c/f4/d/b2/d4/c o6 f2/e2/f4/c2/c2/a2 < a/b/e/b/c4/a4 o4 g2/c2/b2/g4/a2/c2 > f4/e2/f4/d2/f4/c2 o3 f4/b4/f2/c2/e2/c o4 a4/c/g4/g4/e4/c o3 d4/f/c2/f/b2/f4 < g2/f2/e/a/a4/a > c2/d2/b4/d2/c4/f o6 d4/e2/e4/f/c4/d > g/c2/b/b2/c2/c4 < a4/d4/b2/f2/g2/b4 o6 e/b4/d2/a4/a2/e2 < d2/e/f2/a/e4/d2 o4 a2/f2/g/d/b4/b o5 e/b4/e/c/d4/g o4 b2/c2/g2/d/a2/e4 > a4/a2/a2/e4/a4/a2 o6 f2/f2/g/c2/b4/b2 < b2/f/g2/e/b/a4 < c4/a2/e/d4/a2/b4 < c/f/d/f/g2/f2 < e/d/d2/e/d/e4 o6 e2/g2/e/e4/b2/d o3 g4/a/f4/e4/f/g4 < b/g2/d4/d2/a2/b o5 b/b2/g4/g2/b4/c o6 e4/g2/g/f4/a4/e o6 d4/b4/c2/e/f/b2 o6 a2/c/b2/d/g/e o5 d/g2/a4/f/f4/g4 o4 b4/d4/a2/e2/e/e2 o6 d/b/a4/e/g2/f4 o6 b2/c2/d4/b/a/f o4 f4/f2/g2/d/f4/c o5 b2/d2/f4/b2/e4/b o5 c2/e4/f/b4/a4/d4 > e4/d2/f/g2/e4/a o5 f/e/f2/d2/e4/c2 o6 f4/f2/g4/b4/a/f o4 e4/c/e4/g/d/g2 o6 g2/f4/d/d/g2/d4 o5 g/a/e/b/c/d4 < c/a4/a2/a4/e4/d o4 a4/e4/f2/a/a4/b4 o5 f/a2/f4/c4/g2/e o5 b4/e2/c2/g/g/e4 o5 a2/a/c4/f/b4/c o6 g4/b2/g2/c/a/g2 o5 e4/c4/c4/g2/f4/d < b4/e2/a/e4/g4/c2 o6 b/d4/c4/c4/d4/b2 o4 f4/e4/f4/g2/d4/e o6 a2/c4/e4/f4/b4/c o5 g4/g/c4/b4/d/c2 o6 c4/c/b4/g4/a4/a o5 d4/d2/f/e/a/e o6 d2/g2/a4/c2/g2/c o6 b/d4/c/c/g/b4 < c/f/f2/c2/c/b4 o3 b/g2/a/d/b/e4 o4 d/e4/b/g/d2/f > c/g2/a/a/e4/d4 < c2/g4/b2/c4/c4/c4 o4 f2/e/c4/g2/b2/a4 < b2/b/f2/g4/b/b2 o4 e4/g2/d/f2/c4/b o4 b2/g4/f2/g4/e4/g4 o5 a/a/g2/d/a4/f > c4/a/b/d4/d4/g2 o3 d2/g4/d4/a4/f4/a4 < f/c4/g4/d/c2/a4 o4 b2/f/c4/f2/b4/a4 o4 b4/e2/a4/d4/e4/f2 > b/d2/a4/d4/g2/d4 < b2/e2/b/g/a2/g4 > c4/d2/d/a/e/f4 < f/b/b/a/b2/f o6 b2/g/e/g4/a/g2 < f4/g2/g4/f/d2/c4 o4 d2/c4/d2/d2/b4/a2 o6 f2/e/e2/b4/e2/f2 o6 d4/a4/d4/d2/a2/f4 o4 d4/c4/f4/e4/b2/g o5 c4/b/b2/c4/g4/g2 o3 g4/b/c4/g4/e4/b4 o5 a/d2/c4/g2/a2/c4 o5 a4/c2/e2/e/e4/f o6 a2/g/c4/b2/d2/f > f/c2/a4/b2/c/d4 o6 a/e4/d2/d4/c/f2 o4 g2/a4/b2/e4/c2/a2 o3 f/a2/g/g2/f/g o3 f2/e2/f4/c2/a/e2 o6 f2/d2/g2/b/e/f2 > c2/a2/f2/b/c2/b o3 f/a/d2/a4/e4/a4 o3 g4/f/d4/g/e4/a2 o6 d2/g4/d4/a/g/c2 o6 e2/g/g2/a/e/e2 o4 d4/c4/a/g4/b4/a o6 g2/e4/c2/d4/g/g4 o4 a2/f4/f/d/e2/d4 < a/d/a/g4/b2/b2 o6 b4/g/c2/g4/f4/f < b/f/f4/b/d/f2 > f2/a/b2/e/c4/b o4 e2/d4/c/d/d2/f2 > e2/b2/e2/f4/g/a4 < a4/d2/b/d4/c/c < b4/c4/a4/e4/g/c o3 g2/d/g2/a4/c2/a2 o5 g2/a2/e/g4/d2/c2 o4 f2/e4/b2/e/c4/d4 o3 g2/c4/e/f4/c4/d < f4/b4/f/f2/e2/c4 o4 b2/c/c2/g4/e/b2 > g4/c2/e4/d2/g2/g2 > f2/f4/e4/g2/b4/d > f4/e4/g/d4/a4/g < g/c/a/c/e2/b4 > d/c/a2/d4/g4/a2 o6 f2/f4/e2/f/e2/d4 o3 g2/f/b2/e2/a/g2 o5 c4/e2/e/f/e2/d2 > g2/e2/c4/e4/b/a o4 b/d4/b4/b2/f4/e < d/b/e/b/a4/c o5 b4/a4/c/d/f/c2 o3 c4/b4/c2/b4/c4/f4 > a2/c/d2/g4/d2/e o3 a/b2/e/c4/f4/b4 > f4/c4/f/d4/e2/e2 < c4/c4/a/e4/g2/b o3 f4/g2/c2/f4/b2/f2 o3 c2/g2/e4/e2/b4/a4 o6 c4/a4/f/f4/f/b4 < f4/b2/e/e2/e/c2 o3 d4/g/a/f/g2/a > f/c/g2/e/d4/f2 o3 d4/d4/e/a2/e2/g2 < e4/b2/d2/e2/e4/d4 < g/f2/b/a4/e/f2 < g4/b/f2/e4/a/f2 o4 f2/a/g2/e2/d4/b4 o3 b4/a2/a2/b/g4/f > f2/c4/g4/a2/f/f4 > a/f2/g2/f4/c/c o3 b2/a4/f/e4/g2/b4 > g2/b4/e4/e2/b4/b o5 d/d4/f2/b4/f4/f4 o3 g4/e/a4/e4/d/c o4 d4/b/g2/f4/c4/c4
