piano: (tempo! 60) o5 g2/b/d4/a4/g4/b2 o6 c/c2/d4/e/d2/a4 o6 g/f/g4/d4/e4/c4 o5 e/f/g/b4/d4/a4 > a/e/d2/g4/b/c2 > d2/c4/f/b4/b2/e > e2/e4/a2/e/b4/b2 < d/g2/e4/g2/g/a < f2/g/b/b2/g/b2 o6 f2/d4/c4/e/b4/a o6 a2/d/d2/a2/a4/g o3 f2/g/c2/g/c2/e4 o5 b/c2/e4/a4/a4/f2 o6 c4/b2/g/f/a/c o3 c2/e/f2/c4/d4/e4 o5 e/e4/d2/e2/c2/c4 o4 c4/f4/f4/c/g4/a < f4/b4/g/e4/e2/f4 o4 g4/e/b4/a/g4/c2 o4 b/c2/f2/f/e/c o6 d/c2/b2/a/e4/b o5 c2/a2/c4/f2/a/f o4 d2/g4/c2/a2/a/b2 o6 f/g2/f2/d/a2/e4 o4 a/a2/g2/e2/c2/f2 < e2/f4/f/a2/g2/e4 < f4/e2/f/b/d/d < c/d/a4/f/d4/f4 o6 c4/g/b/g2/d/c2 o5 e4/e4/a/d/g2/d4 < a/b4/c/g4/c4/a > e2/g4/g/b4/c4/d2 o3 d2/b/c4/d2/e4/b2 < d4/d2/d4/f4/f2/f2 > g4/d/d2/c2/d4/g4 > f4/f2/e2/e2/g2/c > g2/d2/f2/a/e4/d2 > g4/e4/d4/d4/g4/c2 o5 b/f4/c2/g4/c/a2 o6 c/e4/a4/b4/c2/b4 o6 e2/e4/e2/g/d4/a2 o5 f4/a2/b2/f4/c2/d2 o6 b2/d4/g4/f/c4/f2 o4 c2/f2/e2/d/g4/e2 > b/e/f4/d4/c/d4 o4 b4/c4/a/g2/a2/c < d/c/a4/e2/a4/d > g2/d4/b2/g4/a4/f4 o4 b/a4/d2/c/d2/b2 o4 e4/g/f2/f/g/e o5 d2/d/f2/d/a4/c4 o5 e2/g4/c2/a/b/a2 > a/c4/a/g4/d/d > a4/e2/c4/a4/g/f o5 a/c/f4/d4/c4/f4 < g2/b4/f/b2/d2/f2 o6 f4/b4/e2/c4/f4/b o6 b2/d4/g2/g2/e4/a o4 g/b2/b4/c2/c4/e4 o6 c/g4/c4/a4/e4/f o3 c4/d/a4/b4/e/e < e2/g4/b2/c/b/b < g2/c4/c2/a4/g/a2 < g4/g/c/f/f4/a4 o4 b2/f4/a2/c2/f4/a o5 g/a4/g4/g4/a4/g2 < e2/a2/g4/c4/d2/f4 o6 b2/e4/b4/e2/e/f2 > d/b2/b/e4/g2/c4 o5 d2/c4/d4/d4/b/f o5 c/e/f4/e4/a4/b2 o3 b2/e2/g4/g/b/g o5 f4/b/d4/c/d2/d > a4/c/b/f/e4/c4 > e2/a2/b2/b2/g/b2 o5 f/c2/d/d/b2/a4 o5 a2/e2/b2/f2/d/b o5 b4/d2/d/g4/d/b4 o5 b4/b4/e/b/f4/g2 o3 g/b/e4/e/f2/b4 o5 g4/b2/d4/g/e/b2 o6 g2/g2/b/g2/b/g4 o6 b/a/e/c4/b4/b2 > g/g/d4/d/e/b4 o6 g2/g/c2/b2/c2/d2 o5 f/b/a4/e/e2/d o3 g4/c4/e4/g2/b2/d o3 b2/f4/g/g/b/a o4 c4/g/e/f2/e/a4 < f4/c4/e/e2/a4/g2 o5 d2/e/g2/c4/f4/d > c4/e/c4/b2/c/d < e4/c/e/e4/f2/g > e2/a4/a/e/g/e2 < d2/d2/c2/b4/a/c o6 d4/a/b4/d2/f/c2 o5 c4/d4/c2/f/g2/c2 o6 b2/d4/a2/d2/c2/b < g2/a2/e4/g/d4/d > d/e4/b4/f4/a4/e2 > c4/e4/e4/g2/a2/c2 > a/e4/f/a2/b/g o3 f2/b/a2/f4/f/f2 > c2/c/a/e/c/c2 o6 f2/g2/c/c/e2/g4 o6 a4/e4/b/d/c/e2 < b2/a/e2/a2/b4/g4 o4 a/c/d/g2/g2/a o4 d4/d2/f4/e2/c4/g4 > b/a2/c/f/e4/d > c/d4/f2/c/c2/d4 o5 e4/c/b/d/a2/e < f4/d4/e4/g4/a/f2 o3 c2/a4/f4/e/a/a2 o6 b2/b4/f/b/a4/c o4 c/b2/a/b2/c4/g2 o4 d4/f/g/f/b/a4 o3 e4/d4/c2/a/a/g2 o3 a4/e2/f2/a4/e2/e2 > f/g4/b4/a/g2/d4 o4 a4/c/b2/d/g/b4 < c4/g2/a4/f2/d4/a4 o3 e4/g2/e2/b/c2/g4 o3 g/d4/d4/g2/b4/b o4 e/d4/c2/a/f2/e o6 b2/e/d4/e4/d4/e < e2/d2/b2/c4/d4/c o3 g4/a2/f4/e4/a2/g o5 b/d/c2/b4/g/a4 o4 b2/a2/a4/g2/d4/a4 o4 g/a4/g4/d2/c2/d4 > d2/b/e2/a2/a4/b2 o6 b2/d2/c2/b2/d2/b2 o3 b2/f4/f4/f4/e/f4 o5 g/a2/c2/e4/d4/f o6 b2/f4/c4/b/e/d4 o3 f2/d4/g/e4/d/b > a2/b2/a2/d2/f4/d2 o6 b4/f4/c2/g2/c2/g4 o4 a/d2/e2/c/d/e4 o3 c4/b/f4/f/c2/a4 o6 d/a4/c/d/b2/e2 < b4/f2/b/b4/g/g2 o6 g/b/g2/b2/f4/a2 o3 d/a4/a4/a4/b2/e4 o4 c2/f/a/d2/f2/c2 o4 e2/f4/f2/c2/d2/g2 o4 f2/g2/a2/d2/f2/g o4 d/d/b2/c2/e2/g o4 b4/c/g/a2/d2/e > c4/b2/c2/d/d/g2 > c2/a/c2/c/b/d > f2/c/f4/a2/c2/c o3 a/b/b4/c/g/c2 o5 g/e4/a/a/c4/f o4 c2/b/d/c/b/g2 o5 c/b/g/g2/e2/f < a/c2/g/d2/a2/e2 o6 f4/b2/f4/e2/e2/f4 > e/a4/g4/f/a2/d2 