piano: (tempo! 10) o6 f-4 > f+8 o4 c32 < b+4 < c16 > d-8 o4 f+ o4 c4 o4 e+ o7 a- o6 e- o6 c8 > g8 o7 f+16 o5 c+4 < c+8 o7 c+4 o4 b- o6 c+8 o5 d < f+ o5 g+8 o7 g-8 o7 a- o4 e32 o3 a-16 o6 b8 o7 c+16 < g32 < d+32 o5 a4 o6 b-4 o6 d+8 > f-32 > b-8 o5 a- o7 b16 o4 e-8 > b16 o4 c o3 d-16 o7 d32 o5 e8 < c4 o3 f8 o5 a16 o4 d-32 o4 g-16 > f o6 f-32 > g-32 o3 a-4 o3 f4 o3 g-32 o5 f+4 o6 e4 < g4 o5 f8 o3 a4 o4 c16 o5 g32 o7 g4 o7 d-8 > c o6 d16 o3 d o3 f8 o4 g o3 c+4 o6 g+4 o3 b+4 < b8 o6 b+8 o6 f32 o7 a8 o4 a-8 < b+32 > a-8 o7 a-16 < c4 o5 g+4 < c o4 g o6 e > d+ > c16 o6 g8 o3 g+ o4 d-32 o6 f+32 o3 f o5 g-16 < b-32 o5 d- > d+16 o3 a16 > a-16 < b8 > d o7 b-16 o3 f+4 < f4 o4 b+ < a+8 o4 e < c4 > g o4 f-16 o6 e+32 o6 d-32 o4 g-8 o3 f o7 e o5 b+ o3 g+4 o7 b+ o4 d+ o5 d o7 e-32 o6 f+4 > g+ < d+8 o5 e+32 > b8 o4 d-16 > a-16 o4 d32 o3 b8 o6 b o5 d-4 o5 e o7 e4 > d-8 > d16 o7 d4 > d8 o7 e-32 > b16 > b o5 c o4 g32 < d+8 > d4 o4 f-4 o7 d32 o7 a8 > a+ < g+4 o4 e-8 o3 a- < e8 o3 d32 < e+32 o6 f4 o5 b4 < e-8 o3 b+32 o7 a16 > d16 o6 g+8 > a8 < d4 < b+32 > d- o3 c16 < f+8 < a > e32 o6 b4 o6 g+4 o4 f4 o6 c4 o5 f4 < b+ > a o7 f-4 o4 a+4 o5 g4 o3 e16 < f32 o6 a o6 c o6 d-4 o4 b32 o7 d8 o4 f16 o5 g+8 o6 f+16 > a-4 < b+16 o6 b+8 o5 c4 < f-8 o6 d-16 o6 e32 < c32 o7 a-32 > g+16 > e-8 o6 d-16 > a16 > a+4 o6 f4 o3 c+8 o5 d+16 < a16 o7 a4 < b+8 > f-16 o6 a-16 o4 c+32 o7 e32 o3 b-8 o7 a-32 o6 c4 o5 b o5 a16 o6 c+4 o4 b8 o5 b8 o7 d+16 o4 f4 > e-32 o7 c16 o4 d-16 < b+32 < a-4 o6 g+ o4 a4 o4 b+32 o7 c-4 o6 e+16 o3 e+4 o5 d+4 o3 d+4 o7 g+16 < b+32 o6 g-16 > f8 o3 g8 o5 a o5 b32 o6 b+8 < c+32 < b16 o7 g+8 o6 d-32 o5 a-32 o5 e+32 > g- o7 d+ o3 g4 o4 e16 o4 c+16 > c+16 o3 g4 o7 c32 o5 b+ < c-4 < c16 > e-32 o4 d8 < a4 o4 b4 o6 e-16 o6 c16 o7 g- o6 a32 o5 d8 > c o5 d4 < g16 > g+32 o6 f+32 o7 b8 o4 e-16 o6 g-4 o3 d32 o3 a- < e+4 < f4 o6 d32 > c-32 < a8 o3 c+32 o3 g+4 o5 g4 o6 c8 o3 d o6 c o6 f-4 o6 g+8 o3 a+32 < e+16 < e8 < c32 o3 b- < f-32 < f-8 o4 g+4 o6 c < g+32 o3 f8 o3 a+16 < c+16 o7 e+ o3 a4 o6 c-8 o3 e-8 o5 a+ o4 f4 < e-32 o5 g-32 o7 g+ o7 g < f-16 o4 f-32 o6 a+4 o5 e o6 f-4 o6 e+16 o4 c+16 o6 d32 > f+4 > a+32 o7 g+4 > f-16 > b+4 o4 b32 o7 a4 o3 f32 > g4 o4 g+4 o4 f- o5 g8 o4 a+ o6 a+ o3 f+32 o5 d16 o7 e8 o5 b4 > c16 o5 e4 o4 g o7 a-8 o7 e- o7 d8 o4 e+4 < e8 o6 a+16 o4 f8 o7 b+32 o5 a16 o4 c-16 o6 c4 > d+8 o5 a16 o3 e16 o3 e+16 > b4 o6 f+16 o6 f+8 o4 f-16 o7 g16 < c32 o3 d+4 o6 f8 o7 g-4 o6 c+16 o5 b8 o3 d+32 o5 c-16 o5 b8 < d+8 o5 b-4 o4 b-16 o4 e o3 d4 o7 b o3 b8 o6 e-4 o4 d32 > g16 > f-8 o3 g-8 o3 c32 o7 a4 o7 g16 > g+32 o5 e-4 o4 c-16 o4 e-32 < c-16 < f32 o5 d+16 < c- > c4 o5 a > f+4 > f-8 o5 f+32 o5 a8 o6 g-4 o6 a-16 < d32 o7 e-4 < d8 o7 b+ < b+ o7 b-16 o5 g o6 c8 < d-8 o4 d8 o3 g16 o3 c8 o7 d32 > c-8 o3 c+16 o3 d+32 > d-4 o6 b+16 < d-32 o7 d16 o7 b4 o6 f32 o6 b-8 o7 b8 o6 g+32 > e8 o3 c8 > c+8 o4 f+16 o6 g8 < a16 o5 c o3 f o3 c+8 o5 b+16 o7 d-4 o3 c < b+32 < e8 o6 f-4 o5 f+16 o5 a+8 o4 d8 < a+ < g32 o6 g o6 f32 o5 b+32 > a < d- o3 e8 o4 b-4 o7 e+4 o7 d-32 o6 e o6 b+8 o3 f4 o4 f8 o4 d+16 o3 g32 o4 f+32 o7 b32 > c o7 c16 o3 d32 o3 g > f+8 o5 d+8 o3 e8 o3 f+32 o5 f32 < a- > g-16 o4 b32 > b32 > f-32 o5 g32 o5 c8 < e-16 o7 f+8 o7 a+32 < a16 o6 d32 o7 b-4 o6 g4 o3 f16 o4 b4 > b8 o4 c+32 o6 e-4 > b+ > f+16 o6 f16 o3 c+ > g16 > c+8 < d8 > a4 o4 c+16 o7 d+32 < g32 > c+32 > d- > d < c8 o6 g+16 o7 f o6 f-16 o7 g-8 < c+4 o3 g16 o4 d+4 o3 c- o5 e+32 o4 c8 o4 f+16 > f-16 > g+ > e4 o6 a+4 o4 f16 o7 e- < d8 o4 e+16 o6 g-32 o3 f-32 o5 b8 o3 g8 o4 e+8 < c+32 o5 g-4 o5 e+16 > c32 o6 b+8 o4 f+4 > f-4 o4 e32 o4 c16 o4 f4 o3 b8 > b4 > f16 o5 e8 < f-8 > g4 o4 e+8 < c-16 o6 a16 o3 e32 < c+16 o6 f+16 o3 g16 o5 a+8 < g o6 d-16 < c32 o3 c o5 e-16 o7 d16 o5 d-4 o3 d16 o4 a16 o7 c+4 o7 c-4 o4 d-32 o4 g+16 < e o6 e4 o3 a32 o5 f-16 < f8 o7 e+ o3 c-16 o5 d4 o3 e-32 o7 e-32 o3 e+4 o4 g16 o5 c4 > c-8 o4 g o7 a16 > f+8 < g4 o3 e16 o7 g16 o3 a+32 o7 f8 o7 a4 > e+8 o4 f-32 < d32 > e-16 > b-16 o4 d+32 > c+16 o3 d o5 g+4 o5 c+ < a o6 g16 o5 d32 o7 c-32 o6 g o5 c16 o3 e8 > d32 o5 c32 o3 c- o5 g32 o3 g > b > b+32 o3 a+ o6 f16 o3 a16 o3 f8 o3 d-4 > f16 > c o6 b8 o5 f4 o7 g16 o6 f o6 f8 o6 g-4 < c-8 > b8 < c4 o6 a-4 o3 a+16 o5 e+16 o3 d16 o7 g-4 o5 f+4 o5 f16 

midi-honky-tonk-piano: (tempo! 10) > e+16 o3 d+4 o3 g32 o6 b4 o3 a+32 o6 d16 o5 g+4 o6 e32 o3 e+32 o5 g o3 c > d+16 < b+32 < f+16 o6 e-8 o4 a-32 o7 d o4 a32 o6 g+8 > d-4 < e8 o7 a32 > b-32 o7 g8 o3 b32 o6 f32 o7 a-16 o4 g o3 g8 o6 a+4 > a+8 o5 e4 o5 e+16 o6 b-32 > a4 o5 b+4 o7 c+4 o6 a32 o7 f16 o7 g o7 c8 o3 g4 o7 g4 o4 f+4 o3 f-4 o4 f32 o6 c32 o7 c+ < f16 > c > g4 o4 f+32 > e8 o4 e4 o6 g- o6 b- o6 e4 o3 g-8 o4 a-8 o3 d16 < b o7 a8 < a+32 o6 f16 o5 d16 o4 d- o5 c-32 > d4 o5 g+16 o7 e16 o6 g32 o5 g-4 o3 e32 > b < e16 > c+ o7 c+32 o7 d32 o3 c+ o4 f-32 o3 b+ o7 f-8 > a+16 o7 b8 o3 b+4 > a+16 o7 b+4 o7 e32 > a32 o4 c16 < e32 > b-16 o4 c8 o3 g-16 o7 g-8 o5 b o5 b8 o5 g-4 o3 d+32 < g+16 o7 f8 o6 c- o3 e16 < a32 > c4 o3 f16 o4 e- o4 e-16 o3 f-32 o4 d8 o7 g4 o4 b+32 < e- o3 e4 o3 b16 o4 c+4 < c-4 > b+4 < e32 o6 d- o4 b+16 o5 d- o4 a4 < d+8 o3 c-32 o7 e- < a16 o4 c32 < f16 o7 b+8 o3 g-8 o7 b32 o3 d16 o5 b-16 o6 c4 o6 f-16 o5 f+8 o3 b-32 < e4 o6 g+32 o7 b-8 o6 e o7 c32 o7 b+8 o7 b-8 o3 c-32 < g16 o4 a-4 o5 d o5 f-16 o7 d8 > b32 < e16 o7 d16 > e8 o3 a o3 c+8 o5 f32 < g16 < g-32 o5 c8 o6 g-8 > f+16 o3 e-4 o5 e32 o4 c+ > e+4 > b+16 o3 a4 o6 g-16 o4 b8 > d- o3 f+16 o3 a16 < b+32 o3 b+4 > e+ o7 c- o5 e32 o4 b-16 o4 f32 o6 c+16 o4 d32 > e32 o3 f-4 o6 a16 o6 c+8 > d8 o7 g-32 > d o6 c+ o4 f+4 > b+16 o7 f-32 < d o3 a32 o5 d8 o3 a+8 o5 g8 > f4 o4 a-16 o3 b16 o5 b8 o3 e16 o4 g-4 > b > d+16 o6 d32 o5 g8 o5 a+32 > g o6 b+4 o5 g+32 o5 a-8 > c32 o6 e-8 o6 e32 o4 c-8 o5 a-16 o3 e o3 f16 < c8 o3 e-4 o7 g o7 d- > c+4 > g- > f-16 o7 a16 o4 b-32 o5 d > d-16 < b16 o3 c+4 o6 d-8 o4 c32 o3 c16 o3 f+4 < d4 o6 d16 o4 g+16 o5 a16 o7 d16 o5 d16 > a32 o7 d+ > a-16 o4 f+ < b4 o4 c-32 > b+32 o7 f-16 < e o3 e-16 o6 g4 > f- o7 f o5 e32 o7 b-8 o6 g+8 > a16 o7 a4 o6 c+4 o3 d4 > b+32 o4 g+ o7 e8 < d o7 d-16 o4 f32 < e-8 o3 c+16 o4 f < f8 o7 c8 o3 d16 o3 g4 o4 e32 o6 a o5 g-8 o3 f+ o4 d+4 o6 e-16 < d- o5 a o5 c32 o3 b16 o7 f8 o5 b+ o5 b-8 < a-8 o7 d-16 o3 g+4 o4 a > e-32 o6 g8 > a- o7 c+ o6 e4 o5 c32 > e- < b+ o5 d o5 a < f+16 < a+8 o6 b8 o6 b4 < c o4 f+32 o3 d+32 o7 e-32 o6 e16 < c32 < b+32 o3 c+4 o7 c-4 o6 d o3 d32 o6 e+4 < g32 o7 f8 o4 d-8 o4 e4 o4 g16 > g- > b32 o6 c- o6 c-16 o3 c+32 o3 a8 < b- o5 c+16 < b32 > b-8 o6 b < f4 o5 b8 o4 d-16 > e16 o6 b32 o4 c > c32 o6 b+4 > e-4 > d32 o5 a-8 > c4 o7 a+ o4 g32 < f8 o7 e8 < a32 o5 b o7 f-32 o6 g+ < g16 > b32 o7 b4 o4 a-32 o3 a8 o6 f-8 o6 g-32 o5 e4 < e16 < e-32 o4 a-8 o3 e16 o4 d4 o3 d o7 e16 o4 b8 > d-8 < d+4 o5 a-8 > b-8 > b- o5 c o3 c o3 f-8 o3 e > f o4 c-16 < e4 o4 e32 o6 c > g o6 g16 o5 c16 < a-32 o7 a-16 o6 g-4 < a32 o3 b- o4 d32 < f o3 f+ o4 g16 o7 e32 > f-32 o3 f+8 o3 a+4 > e8 o3 b8 o4 e+ o7 d o7 f16 o3 g+32 o5 d-8 > a- o3 a32 > f+32 o7 f o4 a32 o4 b+32 > a+8 o5 g32 o5 g+4 > b+32 o3 e+4 o3 d4 > e32 > g4 o5 e32 o5 a+32 o3 d-4 o6 d+ o6 f o7 d- o4 e4 o5 d-16 o4 g o4 d32 o6 f16 < a+32 o4 c-32 o5 f8 o6 d-32 o6 c+32 o5 e+16 < b32 o3 d+8 > c8 o7 e-4 > b-32 o6 c4 o6 a32 o3 c o4 c8 > f4 o5 c8 o5 c+ o7 g-32 > g16 o4 g+32 o7 c32 o5 g-8 o7 c4 o5 a+ o5 f4 < f-8 o7 b+ o6 e4 o7 f-8 o4 b4 o4 g o6 c4 o7 a+8 o4 c-16 o6 g-8 < b > e+4 o7 a- o4 g o7 c4 o4 g-4 o7 e32 o5 c16 o6 g-4 o3 e4 o7 d-32 o6 c-32 < f32 o5 d16 o4 a8 o7 a32 o7 b+ o6 c+ o5 b16 > g+4 o3 b- o5 g32 o4 a o5 d-4 o4 e o3 d-32 o7 a8 o5 d+8 o3 b8 o3 d+32 < c+16 o4 g32 o6 g16 o3 g+16 o6 g-8 o3 f-8 > f+ o3 b8 o6 f4 < f-4 > f8 o6 e+16 o3 c+ o6 d+4 o7 d o4 d-16 < g32 o5 b16 > c8 o4 e8 o5 d+4 o5 b+16 < f16 o5 b-4 o3 c-4 o5 b+32 o5 g- o7 a32 o7 a-16 > g- o5 a- o5 b16 o5 g8 < a+32 o5 b+8 > a-8 o4 d16 o4 f o7 e+32 < e o7 f16 o3 e4 < a-32 o6 b-16 o7 c-32 > e+ < d+8 o4 g-4 o3 f-4 o7 b32 > d+8 o7 a+16 o4 f32 > b-8 o4 e32 o4 g+32 o3 b+4 o7 a+32 < b-8 > f-4 o5 c o5 d32 > c+32 o7 d32 o3 a+16 < g-16 o7 d+8 o6 c8 o4 a > e+32 o6 f4 < e16 < a+16 o5 a4 > a-16 o5 c+32 o6 c16 o6 c+ o7 f+4 o7 b o6 a+16 o3 e16 o3 a o5 a+4 o6 g < f32 > e16 o7 g- < e8 o5 e-16 o5 f-8 o4 c8 o4 e-32 < f32 o3 f+ o3 a < g32 < f8 o5 a o4 c+8 o7 c16 > g16 o4 d-8 o6 d16 o3 b32 o7 c16 < f o3 b8 o3 e+4 o5 b+8 < f+4 o3 d16 o7 d o4 e+32 o7 b8 o6 g16 < e8 o5 f o3 a+ o7 f+16 < a o4 b4 o7 f+4 o7 e < a8 o6 a16 o5 e+32 o7 b-4 < c+ o6 f-4 o6 b-8 o3 e-8 o6 f+32 o4 e- o5 c o3 a-16 o7 g4 > c16 < d32 o3 f-16 

midi-bright-acoustic-piano: (tempo! 10) > d16 o7 f-8 < a+32 o3 a > a- < d16 < e+32 o5 b32 o6 f > g o5 a32 o6 c16 < d4 o4 e16 o5 f8 > g16 o6 d > e32 o6 c-4 o5 a8 o7 f-16 o7 e+8 o3 b4 < e8 o4 f+16 > c-32 o4 c-8 o3 g-8 > d o7 f o7 f8 o7 f32 o4 a+32 o4 a o4 c+16 o4 d32 < c4 o3 a4 o7 e+16 o5 g8 o3 d+8 o4 b-16 o5 d16 < f+ o4 a-32 o4 a16 o6 a o5 a16 o5 g4 o7 c+32 o6 f < a32 o7 a-16 > f4 o6 a4 o4 d32 o3 f+32 o3 d16 < a+4 o7 g-8 o5 d o5 d-32 o4 c8 o7 e+32 o7 c4 o5 g8 o6 c4 o6 c8 o5 b-32 o6 e+8 > g16 o6 c32 o3 b16 o3 d4 o5 e8 < e+16 > f- o7 c+16 > d > d4 o6 b+ o6 b+32 o3 d-16 > g+16 o4 c+4 < e < d4 > a-16 o6 f- o7 b- o5 b32 o7 c32 o7 g16 o6 c32 < d8 o5 c4 o7 a+ o4 g16 < d8 o7 a+8 o6 b+32 > e+32 o5 g-4 o6 g8 > b4 o5 b16 o3 b4 o7 g8 o4 c4 < b8 > g o6 g4 o3 a-4 o5 d-16 o3 c- o6 b32 < f-8 o7 e-4 o5 e4 o7 d4 o5 b+16 > d+ > e-8 o3 d+8 < a-16 > b+8 < a16 < g-32 > e32 o6 b+8 o3 c16 o5 d-16 o7 g16 < a+16 o7 e16 o7 b+ o4 e32 < e16 o5 d+8 < b4 o3 e-32 o5 d+8 > g16 o5 a4 > f o6 c16 o5 b-4 o3 g32 > a+16 > c32 o5 f-4 o4 b < f4 < d-8 o5 d-32 o5 d+4 < b-4 o3 e8 > f4 o4 e32 o4 a4 o4 f- o5 f-4 > d8 o3 c-16 o4 b4 o6 b32 > a-16 o4 c16 o4 g o7 b+ o6 b+4 o6 f+ o6 e+8 o6 c+8 o4 f+4 o5 f+ o7 c+32 o3 f+ o4 a4 > f8 o5 d o4 a+32 o7 e+16 o6 b+8 < c-8 > a-32 > e+32 o5 b8 < g-32 o6 d > f+4 o6 g+16 < a+ > a8 > b-32 o5 g-8 > b-8 o6 d+ > e-4 o6 g- o6 b-8 o7 f4 o3 f-16 o3 b4 o3 g- o4 g o6 f4 > f-4 o4 d o3 e-16 o3 g16 > g-8 > a o6 d o5 e8 o3 d4 o7 f o7 d8 o7 d16 o6 a o3 b16 o4 g8 o5 e8 o6 f32 < b32 o5 e32 o3 g16 o4 d o4 b32 < b4 o3 g32 < c4 < b32 o7 c+32 > b o3 f32 o3 g- o5 a16 > g-4 o4 d+16 < c32 o7 d+ o5 c+32 o5 g16 < c4 < d+ o6 e o6 f- o7 c-32 o7 d8 o5 e8 o3 e+8 < f o7 b32 o3 c+4 o7 g o4 a32 o4 e < b32 < a-4 o3 c+ o7 e32 o5 g4 o4 a-16 o7 b+32 o6 b o6 e16 o7 g-16 < a+4 o6 e8 o3 a+32 > b8 o6 d > e16 > a8 o3 b4 o7 g- o5 d32 o7 c+16 o4 e-16 o4 g-4 o3 c-8 o7 d32 > g+ o5 f+16 > a8 > e-16 < b4 < d-4 o6 b4 o4 f+32 o7 a8 o5 e8 o5 g > e < e-16 o3 d8 o5 f+32 o4 g16 o5 c32 > f-4 o4 f32 o7 e-32 > b16 o6 a8 o7 e- < c-4 o7 c+8 o6 b+8 o3 c+ < f+ > c-8 < e o5 e32 < e+16 < b- o4 g8 o3 b4 o5 e16 o5 a+ o4 g+4 o4 b-4 o5 c-16 o5 f-8 < f32 o3 f16 o7 b+4 o7 e4 o6 c+ o5 g+16 o5 c32 > a > d < e8 o6 b+ o4 e4 o5 g16 o4 e+4 o5 g-16 o3 d o5 f+8 o3 a16 o4 d+16 o4 b-16 o6 c4 o4 e16 < d-16 o7 d+16 < e o6 d32 o7 e-4 > c+4 o5 e8 o4 e-8 o7 b-16 o4 c8 < e+4 o3 e16 o3 c+8 o3 e o5 c16 o6 b-16 o4 c4 o4 d+16 o6 c-4 > a16 > b o6 g o5 d16 o5 a+32 o5 d4 > f-32 < a32 o3 b8 o5 b+8 o4 e+16 o5 b-16 o7 e < b-32 < f-32 o6 a+16 o6 g+8 o6 g-4 o5 e-4 o3 g8 o3 c+ o6 c16 o7 a > b-16 < g+8 o3 a+8 o7 a < d8 o5 e4 < g+32 o3 e16 o3 f+ o7 e16 > c8 o6 g-16 o3 a16 o6 d4 o3 c32 < b o6 c32 o5 c8 < e4 o5 d8 < b-32 < e > g32 o7 f32 o4 g8 o3 a-4 < e+ o3 g-8 o5 e-4 > d4 o7 f+8 < c o6 d8 < e16 o5 e o5 b+16 o7 e4 o6 g o4 d16 o7 b+8 o3 f+ o3 c+16 o5 a+4 > c < e o7 a-32 o4 d-32 > a- o7 d4 < a32 o5 b+32 o4 a32 o4 d4 o3 d32 o7 c8 o3 c-4 > d+8 o4 c o3 e+8 o5 b32 o6 g-8 o3 g32 o3 f+16 o4 f8 o6 g-16 > f o7 e+4 o4 b-4 o3 a4 o3 e- o7 c16 o6 c4 o4 f+16 o3 d8 o3 g+16 o6 a-4 < b16 o6 c+8 o3 c-32 > f- o5 c-4 o5 e+32 o4 b-8 o3 c32 < g- < a-32 o7 e32 > c-16 o5 f+4 < e32 o5 c-8 o7 d+8 o3 b-4 o5 f o5 a-16 > e8 o6 e16 > a32 o7 b o3 a32 o5 f+16 o5 d- o4 a-16 o5 g8 o5 e+32 o6 e32 o3 d+8 o6 e- < a32 o6 g32 o4 a+ o5 g-32 o4 c+8 < a8 o4 c-4 o4 d-4 < d-4 o4 b-32 o5 c o7 b16 o4 c+ o7 f32 o3 e- o4 g-32 < a32 o7 f+4 < f+32 < f4 o4 a-32 o4 e-8 < c4 > a+16 o5 b-16 < b4 < a4 o7 b8 o5 d+4 o4 a+8 o5 c- > d16 > f+32 o4 e+ o6 d-16 < c-4 o3 e+4 o4 f32 o5 g8 o7 g16 o3 e16 < g32 o7 a-16 o5 d < b o4 a-32 o6 b8 > c4 o5 d4 o6 g-8 > g-4 > c16 o6 g32 < g-16 o4 d16 o4 d+8 o5 a+ o7 c+8 > b+8 o4 b-32 o4 f+16 < f o4 b8 > d o4 a > g4 o6 a-32 < a+ o3 c+16 o3 c4 < f4 o3 g4 o4 b8 o5 g+32 o6 d+4 o6 f+8 o6 g+ o5 c- o4 e-8 o5 b+16 > b32 > b32 o3 f32 < g+32 o3 c-16 o4 d+8 o5 b-16 < c+4 o4 d4 > a16 > e+4 o4 b- o6 d-32 < g < c o6 d16 o6 e+32 < a- o7 c+16 o3 a+32 o3 b16 > e8 o4 g+ o4 d8 o3 e32 > b- o6 g+4 o3 b > d8 > g32 o5 f8 o6 g4 o6 d8 o7 g+4 o5 a4 o7 f+16 o3 d+4 o5 b+32 o4 g-8 o5 d > d+16 o4 e- o5 f- < g+ > b- o4 b32 o6 g+32 o3 c-32 o6 d+4 o4 c+4 o7 d o3 d32 < a4 o6 b32 o5 c+ o5 d+32 > g-32 o4 a-8 o3 g+32 o4 f+4 o4 a16 o3 b+16 o4 e+8
