piano: (tempo! 40) o4 c32 o3 e4 < a+4 > c8 o4 a16 o6 f+32 o5 g16 o4 g4 o7 a-32 o3 f16 o7 b-4 o5 f32 < c8 > d8 > a-4 o7 f-16 o4 e+32 < b-8 o4 f-8 > g < d4 o7 e32 o7 f o5 b32 o4 a32 o6 e+4 o3 b+ o7 f o5 f+8 > e-4 o5 b16 o7 g16 > e16 o3 e+8 o5 a8 o4 d+4 o7 g-8 o6 f-4 o6 e-4 < b+16 o7 f+8 < d8 o4 b o3 e+ o4 d8 > g+16 o7 c4 < f8 < d32 o4 e+16 < a-4 o4 c8 o5 c32 o5 e-4 < d-32 < e-16 > b+4 o5 d o5 g+8 o6 d-16 > a16 o3 e-32 o4 c-16 o6 b o5 d-16 > d o6 d+8 > e+16 o7 a-16 > g < g-8 o7 g16 o5 f4 o7 g-16 o4 g16 o6 e-8 o7 d-4 < a16 o5 d+8 o3 a o3 c-16 o3 b16 < f-16 > g-4 o7 a-32 o6 c8 < d < g+ o6 e+32 < a o4 c32 o5 d-8 o3 f32 o5 g32 o4 f+ o5 d+4 < e8 o3 f8 > f-4 o4 a-4 o5 g-8 o3 c- < f+8 o7 a-16 o5 b+4 o4 c32 o4 b16 o6 e-32 < f16 o3 g16 o4 a4 < f+ o7 b16 > b4 o5 g8 o3 f16 < a4 < e-32 o6 f-16 o7 g32 o7 a+ > d-32 o5 f4 > c+16 o7 d16 o6 g16 < e8 o4 g o3 g o3 g-8 o7 g32 o6 b-16 o5 g16 o7 f4 o4 e o4 a-8 o4 f-16 o6 b+ > g-4 o3 c32 o4 c32 o3 d o6 g+32 o7 b4 o6 c-8 o3 a o3 a16 o4 f-8 o5 g8 o4 a+32 o3 d4 o4 f-32 o3 a+8 > f+16 > d-4 o3 c-8 o3 g-4 o6 d32 o6 b- o4 g+8 o6 a4 o5 f-4 o4 c8 > b4 > b4 o4 g8 < d8 < a+ < c16 o6 g32 o4 a-16 o4 g8 o5 c4 > d32 o5 f+4 o7 e o6 a4 o3 g o7 a+4 > b-8 > e8 o5 g-4 o7 f+32 o3 g32 > d+8 o6 c-4 o5 d o6 d+4 o6 d16 o5 a32 o5 c4 o7 f32 < c+32 o7 b+8 o6 b4 < a- o3 d+16 o7 a o3 g-8 o3 c+ < f- o5 c32 > f32 o6 d16 > e-8 < b4 o5 g4 > c32 o4 a+ o7 g-16 o3 d4 o6 e > c-8 < g16 o7 d < e32 o5 a-4 o3 f+4 o6 c32 o5 g32 < a-8 o3 b16 o3 d+8 < b-4 < b+4 o4 a32 o5 a16 > a-32 > d+4 o5 a16 < c16 o4 d+8 > f32 o4 f-16 > g32 o4 f-32 o6 d+32 o6 c32 > d+32 > c+32 > g+8 o4 c- o5 e16 o4 d-32 > f o7 a o5 g-16 < d+4 o5 g o5 c16 > g4 o5 b4 o4 a32 o3 e- o4 b16 o5 b8 > c8 o7 g-16 o4 d+32 o5 f32 > d+8 o4 g o7 g32 o7 c32 o6 a+ < d16 o7 c8 o5 e4 o5 g+32 o7 b-32 o7 a o7 f8 o4 a+4 o7 c- > g16 o4 g+8 < a32 o5 f8 > b32 o4 g8 o7 b16 o7 a32 o4 b > a32 o5 c-16 o3 g o5 d4 o3 a o3 b- o5 b-16 o5 a32 o3 e+32 o6 e+8 o5 g16 > d < a8 o6 b8 < e+8 o5 a32 > g-32 o4 f-8 < e+16 o6 c+32 < b4 o3 f o3 c32 o3 g-32 o3 a4 o7 b4 o4 a4 o3 c8 > c32 o6 g4 > e4 o6 c o5 d8 o3 g-16 o5 g < e o5 e4 o5 g4 > b-8 o5 c32 o4 e4 o4 f+32 > g32 o6 d+16 o5 b+8 o6 g16 < e4 o7 e-8 o4 c4 o6 a32 < g- o7 a-32 < a-4 o6 a32 < c+16 > c8 o7 e4 > a+ o6 f o6 d+8 > e-8 o5 f+8 o7 f-4 o5 e16 o5 a32 o4 c- o4 d4 < c4 o5 c+ < c+32 < f32 > g- < e32 o5 f-4 o7 a16 < b+16 o7 f-16 o5 f-8 o3 g8 o6 f4 o4 e+8 o3 b-16 o6 a-8 < c8 o7 b+4 > g32 o5 a16 < a- o4 b16 < c16 o6 g+ o6 c-32 o3 f- o6 f+4 > c32 o4 a16 o7 a+32 > f+16 o7 b > b+32 o6 b+32 < c4 o3 g-4 o5 b+32 < g+4 > e8 o6 d32 o4 f+8 o7 a16 o3 e-32 o5 a+ o6 e16 < c16 > c o5 b+ o4 f-8 > f-8 < a-4 o3 a16 < c4 o6 g-8 o6 d16 o3 b4 o5 b+16 o5 b4 < e32 o4 a o4 a-32 o4 a-8 o7 d8 o6 g+8 o7 a+16 o3 c16 o7 g8 o5 g-32 > d4 o5 b8 o4 g16 o6 g-32 o3 c+16 o5 e8 o6 f+32 o6 b+4 > c+ o7 f+32 o4 g16 < g-4 > a32 o3 b-8 o3 b4 o5 a32 o5 b- o4 e8 o7 c+8 o5 g-16 > g+4 o6 f4 < e8 < f-32 o7 c8 > e+16 o5 d+ o4 a4 < b+16 < a4 o4 f-32 o6 d o3 g o4 a+32 > a8 o5 f32 o5 e-8 > c16 > d16 o7 g8 > f8 o5 c+ o7 a32 o3 c8 o5 c- > a16 o4 f+ o7 a4 o5 g8 o7 b+ o4 f+16 o6 g > b16 o3 d+32 o3 d16 o4 f8 o4 a+ o6 e- < a+8 o3 a4 o5 e8 o4 c-32 < c- o5 e o7 f-16 o3 a+ > c8 > b4 o4 c4 o6 g+ o5 c+4 o7 f32 > e16 o6 a-4 o5 b32 < e4 o6 f4 o7 a32 o5 d8 < b-4 o5 c4 < e+16 o4 f4 o7 f- o6 c8 > c-8 < e+16 > a+8 o5 g+ o6 a-8 o3 d32 o4 c4 o3 d16 < f4 o6 c+ < g-4 o5 f32 o3 b4 > f16 o7 a > e-4 > g+8 > c32 o7 f32 > g+32 o3 c-32 o4 a4 o6 a+4 o3 d-16 o4 f4 > e32 < c32 > b16 o4 d+ > d4 > c8 o4 f-32 > d8 o5 f16 o3 f4 o3 b- o7 c o3 a- o7 b4 o4 e32 < c o6 a+4 o4 a8 o4 a-8 o5 f-16 o7 b-16 < d+32 < d+4 < g-8 < g32 > g+16 o5 e4 o6 c4 o4 c+ o3 c o5 g+8 o4 e+ o3 g32 o3 c32 o5 d8 < b < c- o4 d+32 > d32 o4 b+ < e4 < c4 o6 c16 o6 c+16 o4 b+4 o3 b8 o4 g-16 o4 a+8 o3 e-32 o6 d-4 < e+16 o3 e o5 e > d-8 o5 e8 > b16 o7 c4 o4 c8 < b32 o4 c-4 o5 g+8 > a4 o3 a32 < c+16 > g32 o4 e+8 o4 f4 > f-8 o4 c-32 o7 e-16 o5 a4 o4 d4 o7 e-8 o7 e4 < d-8 < a8 o3 c+32 o6 f16 o7 e4 o3 e-16 o5 f4 o7 b16 o6 e-16 > a4 o5 a8 o5 e+ > f8 o7 g16 o4 e16 o7 g-32 o6 e+32 o7 f+4 o7 a16 o3 a4 o6 g+16 o3 e32 o4 b+4 o5 a-8 o3 f- o7 d4 > g4 o6 b o7 g o5 e16 o4 g+8 > d+32 o7 c-16 o6 c4 < g-4 > a32 < d16 o3 c+32

midi-honky-tonk-piano: (tempo! 40) o5 g4 o4 d- o7 b16 o3 a16 o3 a+32 o5 a4 > b32 o7 a32 > g+16 o5 e-8 < b32 o3 g+4 o4 d-4 o4 c-32 o6 f-16 o3 b-4 o6 d+4 > b8 o3 g32 > g32 o7 a-16 o6 c32 o5 b+8 o4 g- o3 b-4 o5 d4 < a16 < c4 o3 f-16 o6 f8 o5 c16 < f32 o7 b4 > e o7 a4 o6 f-8 o7 a-16 o5 c16 > c o7 g+32 o7 e16 o3 e-8 > f- o4 f4 o3 f+32 < f8 o3 c+4 o7 b4 < b o4 b8 o3 b4 o7 f4 o3 d16 > c+32 o4 c16 > c o5 a-8 > g o4 a- o6 b-32 o6 a32 o5 c4 < e o6 a-4 o7 e8 o4 c+32 o3 e o5 c+ o4 e8 o6 d-32 o6 g o6 c-16 < f-32 o3 a8 > d- o5 d+32 o3 e+16 o4 b+32 o6 e+ o7 g8 o3 c o7 d-32 o4 c-16 o7 c4 o4 b-4 o3 d4 o6 g+ o5 c+16 o6 c > e+16 o5 f+16 < e-4 o5 e32 > a+8 o7 a+4 o3 b4 > c-8 o5 a-4 o5 a- o5 g- o7 a4 o5 f-4 o4 e16 o5 d- o4 f4 > a-4 o6 b+8 o5 a o5 g+4 o4 e32 o7 a+32 > e o4 a o3 g-8 o4 e+32 o4 g-8 o5 a+8 o7 e4 o6 a o5 c16 < g+ o5 d32 o4 f8 o7 g- < d32 o6 a+4 o5 g o7 a-8 o7 e4 o5 g8 < a-32 o5 e16 o3 a4 < f- > g32 > b4 > g16 o4 e+8 o4 e4 > d4 o7 f8 > e-16 o7 b o6 b32 > b+32 o7 c16 o4 d o6 a o6 e o4 a32 o7 f16 o6 f32 o7 a- o6 e+16 > a32 < f16 > b-4 < c4 o4 a8 o6 d4 > f4 o5 c+32 o3 a8 o3 b+ < f-4 o7 g16 < d32 o5 a-4 > a16 o3 e-32 o4 e8 o3 e+8 o6 e-16 o5 c o6 g < a+ o6 e16 o4 c-8 o5 a+16 o4 a8 o5 a8 o3 c4 o7 c-4 > a32 o3 e o3 b-4 > g8 o5 c32 o5 e-32 < g32 o3 g- o5 a8 o3 c32 > a8 o3 b32 o4 c8 o4 b+16 o7 d32 o4 a8 > g+32 > a+32 > d32 o6 a+32 o7 b+16 o7 d o7 e8 > b o5 f-32 > b4 < a8 > a+16 > e8 o3 g o7 c+4 o5 c+ o7 g32 o4 b4 o5 f8 o4 c+8 o6 a+8 o4 d+8 o5 f4 o7 e- o7 b16 o4 c+16 o3 d32 o4 a+16 o4 a4 o5 a32 > d16 o3 c8 o6 f < e-32 o4 c+16 o7 f32 o5 a+4 o7 e o5 a16 o3 e4 o6 f- < d-4 o6 e32 > f+4 o5 e4 o7 e+ o6 g+4 o5 f+8 o5 a o5 d-32 < f+ o6 c+16 o7 e4 > f16 o7 c o7 e16 o7 c+8 < b-32 o7 c32 > e-8 o3 a16 o4 e16 > d32 o6 a32 o3 d- > b- o4 b32 o3 d+8 > b-4 o6 b o4 c < b-4 o3 b8 o7 e8 > c32 < f+4 o3 g- o4 d- o5 e16 o7 f4 > c16 o6 d16 o7 c+4 o7 b-4 o3 f- o7 d16 > f+ o7 f16 o3 e > e-8 o6 g8 o5 a8 o3 b16 o4 a-32 o7 f+8 o6 a-8 o6 a o5 b8 o6 d32 o5 g+4 > f- o3 g+32 o5 d- o5 c+ o3 e8 o7 b+8 > a+32 o5 d-8 o7 c4 o7 a16 o7 c16 o4 b4 o5 d4 o4 g+8 < c o4 c o3 g+ o6 b32 o5 c-16 o6 c4 o3 f-8 o4 f+ o3 f+8 o4 c+ > g- o3 g- o5 e16 o6 c8 o6 e+4 o4 c+16 o7 f8 o3 c- < f+32 o7 a+8 o6 e-8 o5 e-16 o3 d+16 o5 a4 o6 b-4 o7 c4 o6 e o5 g16 > b16 < d+4 < f+32 o3 a- > c16 o7 b+16 o5 b o6 c16 o7 d+32 o7 b-16 o4 a-32 o6 b4 o5 g+8 o6 a- < g4 o5 g o5 e16 < f32 > b32 o7 c-32 > c8 o5 d32 o4 a+4 o5 b8 o3 c+8 o7 d4 o5 e- o3 f+8 o6 g+4 < c16 o4 b+16 o7 e o5 g+4 o6 e+ o6 f+8 o5 e4 o3 e o7 f+8 o5 c16 o6 d4 > d+ o7 d o6 b+32 > b8 o5 a+16 o6 a8 o6 a32 o6 f > d4 o5 c-32 < b+8 < c+32 o7 b+32 o4 f-16 o5 f-4 o4 b8 o7 c < f+16 o7 b16 o3 c32 > d-4 o4 d4 < f+8 o6 d-32 o3 c-32 > f-8 o6 f4 o4 f-32 o6 f8 o4 a16 o3 a+ o3 c-8 < e4 o4 b32 o7 f4 o4 f-16 o7 a o4 a+8 < g-4 o4 a8 < a+32 o7 f+ o3 e- o7 b-32 < b-32 > b+16 o6 a-16 o6 d- o5 b4 o5 c16 > b- o3 b8 o7 a4 o5 a+32 o5 a+4 o7 f+8 > g-8 < e-4 < e-8 < c8 o6 g-4 < f16 < c+16 o3 c+ o4 a-4 > c-32 < g+32 < b-4 o4 f16 > a4 o3 g-32 o4 a-8 o6 g32 o3 f-32 o6 b+4 o7 d32 o6 b8 > g+32 < f-4 o7 a o5 g+16 o3 g4 o5 b+32 o3 e+4 o3 e-32 o6 g8 < b-32 > b-16 > b o4 d+4 o6 b+32 o4 f- o6 d16 o7 f+4 o3 f o7 g16 o5 g4 > b-8 o5 a > b32 o3 d+8 o4 b+16 > f o7 e- o6 g+ o4 c16 o5 f+16 o7 c4 o4 a+32 o6 f+4 o5 g+16 o6 c+ > b8 o3 e+ o5 c+8 > b32 o4 g+4 o7 e+32 o3 b4 o7 f+8 < a16 o4 e+ o7 e-16 o5 e8 o6 g-32 > b+8 o5 f8 > e+4 < f32 < f-16 o3 e-4 o6 e16 o5 d o4 e+32 o6 d-16 o3 d-32 o5 c32 o6 a > a o6 g4 o6 a-8 o6 d-16 < g-32 o5 b32 o3 d+16 o7 d32 o6 a > b4 < g4 o3 f16 o7 d+ o5 b4 o7 c-8 o3 e16 > b o3 g+4 o7 b16 > e o6 c-4 o7 g+ o6 c+32 o5 g-32 o7 b16 o7 a-4 o5 b-32 o7 e+8 < d-32 < e8 < g-16 o4 e+ o6 c16 o5 a o5 c+16 o3 a o3 g4 o4 f-32 < c o3 g-4 o5 c8 < f- < e4 o6 c-4 o6 e+8 < b8 o5 d8 o3 b o6 b32 < f-32 o5 b4 o5 b+8 < g16 o6 d-16 > g o6 d4 o7 g4 o3 e4 o3 c8 o5 d-32 o7 c-8 o5 d+16 o4 a+8 o7 a- o3 g32 o5 g+4 > d16 o3 e+ o6 d+32 > a- o5 e16 o4 f- o7 a32 o6 d4 o5 c32 o6 d- o7 f32 > a8 o4 d-16 o5 f16 > b32 o7 a16 o5 e+8 > f+ < a32 o7 f < e < d4 o7 e o7 e32 > b o5 g- o4 d- o6 a o4 g o4 e+4 o3 c-8 o6 b o7 f32 < d-16 > b+16 o5 c8 o4 a+8 < a+ < c32 o6 c-16 o6 b-32 o4 f+8 o3 a- o6 a4 o6 a+ o3 b8 o6 f-32 o6 f16 > e8 o7 b32 o7 d+4 < e+8 < g- o4 b+8 o7 f

midi-bright-acoustic-piano: (tempo! 40) o7 d-8 o7 e32 o3 f+16 o4 a-16 o7 b+8 o5 d-8 o4 a4 < a-8 o7 f16 < c-16 o4 f8 o5 a+16 o4 f+ o3 f-8 o3 d+8 < a32 o5 d-32 o3 a4 o3 f32 o7 c+16 o7 g8 < g-8 < d16 o3 a-32 o4 b+8 o4 e8 o5 b8 o6 e16 o3 c8 o6 f+ o4 b+8 o3 f o4 f8 o4 e4 o6 d32 < a8 o5 e8 o6 g4 o6 b8 o6 f16 o5 g8 > a-32 o3 g+ o3 e+ o4 d+32 > f- o3 c > a-16 o4 e-8 o7 a4 o7 g-8 < c- o7 f o7 g-8 < c4 o6 f-16 < e > f8 o6 f o7 d16 o3 c+32 > a16 o6 d+ o5 c16 o4 d+8 o4 g+8 o5 d+32 o7 a-8 o6 a8 < g-32 o3 g4 > f32 < f- < e-8 o3 b-8 o4 g+4 < e+32 o5 f-8 o4 b+ o4 e+16 < d4 o5 g+8 o5 b-8 < c < b+ > g- o4 c32 o5 f+ o5 b32 o3 g16 o7 e8 o4 a4 o7 e+ o5 e32 o6 d+8 o4 a+ o5 e+ o4 b-4 o7 a16 < d4 o3 b+16 o6 d+ o4 g-16 o3 e-16 > f-32 o7 b-8 o5 g+ < b+32 o5 e-4 o3 e32 o5 b32 o6 b o6 e8 > a16 o5 a32 o6 b16 > c-16 o5 a-8 o7 f32 > b o3 f- o5 e8 o3 c4 o5 b32 o5 a+ o4 b- < e+ o6 b o3 c4 > d4 o7 b+ o3 b-4 < a-4 > g+4 o5 e-32 > g8 o7 d+16 o5 e+4 o7 c32 < e8 > f+16 o4 a8 o3 d+32 > c32 o7 c o4 a-32 o3 a8 o3 a4 o7 c- o7 e4 < a-16 > e16 o5 e16 o7 d16 o4 c4 o3 b4 o3 d32 o7 c+32 o6 b16 > a- o3 e+16 o4 a16 < f32 o4 d+4 > f16 o6 e-4 > d32 o5 b+8 o5 b- o7 c-4 < a8 o6 d+4 o5 g8 > e-32 o4 e8 < e+32 o4 d-4 o5 c16 o7 e+ o4 a- o5 a8 o6 a32 o5 g-32 o6 e32 < d-8 o5 f4 o3 c- > e+ o5 g16 > e < e8 o5 e+16 o7 b8 < d4 o3 d8 > c4 o4 c-8 o6 c-4 > f-8 o6 a8 o5 f+8 < f- > c8 o5 c+4 > d16 o7 a+ o5 g8 < f32 o5 b-32 o5 d8 o7 g-32 o6 f-4 o4 c-16 o5 a o4 f > f-4 o7 f8 o6 f+8 o4 g16 o6 g16 o5 f-32 o3 d4 o6 c+16 > f o3 c-4 o5 e8 o5 d+32 o4 a+16 > f o3 f16 o5 g4 o4 e-4 o6 b4 o7 g32 o4 c4 o3 d+ > g+4 o3 a+32 o3 b16 o4 b16 o3 g4 o4 e+32 o7 g+ o7 c32 o5 b+4 o4 e+16 o5 c-32 o4 c-16 o7 b16 o3 c8 > g16 < e-16 o6 c+32 < f32 o6 b4 o6 e4 o7 g8 > f32 o6 d+8 > b+ o6 a4 o5 e8 o7 e+ o6 g+ o4 b4 o7 a o4 g+32 o5 c32 > f+8 o3 d+16 o4 a32 o6 g16 o4 d+4 o5 d16 o7 d+ o6 c+32 o6 e8 > b- > a8 < g4 o7 c+32 > d-8 o5 g16 < b4 > b-16 > e+ o5 a32 o3 f- o7 g-16 o5 c8 o3 e+ o6 g8 o7 e32 o6 b- o6 e o3 d+16 > f-4 o6 d-16 o5 d+4 < b16 o7 g-32 o7 e- o3 b+8 o4 b32 o3 f < g+ o6 c8 o6 g+ < f16 < f-32 o3 e+ o4 d o5 b32 > b+16 o6 g-32 > g-16 > b-8 o7 c32 o4 d+ o4 a32 o3 e+8 o3 e+4 o5 d16 o5 e16 < b-32 o5 a-8 o5 d-8 o7 d o4 a-16 > b4 o4 d8 o3 a+32 o6 c o4 b+ o7 a+4 < d16 o4 a-32 o4 c+ < b- < e-8 o6 f32 o4 d32 o4 e+16 o5 d+8 < e4 o7 d o7 g+4 < g4 o3 e o5 c16 > e-32 o6 d-4 o3 a8 o6 e-16 o7 b-32 > d+8 > f o4 e32 o3 c-8 o7 g+8 > d+4 < d+16 > e-4 o4 e8 < g8 o7 b+16 o7 g16 o5 d16 o5 f-4 > c+32 < c8 o3 c4 o3 b-16 o6 f+ o6 e-32 > e-16 o4 b o3 a-4 o4 c8 o6 e- o7 a32 o4 e8 > g-4 o7 e+4 o7 b-32 > c-8 o6 g32 > a32 o4 g8 o5 g+4 o3 b32 < d+8 o3 e16 o3 c16 o3 g16 o5 e-16 o3 a+8 > d-8 o3 f32 o3 a-8 o4 g+16 o4 f32 > b-8 o6 d32 < b-32 < b+16 < d32 > a+32 o7 e8 o7 a8 < b+4 o4 e8 o6 b+32 > g-8 > e+32 < c8 o7 g+8 o7 a+ o7 g+8 o4 f+16 o5 g-4 o7 b16 o4 e+4 o7 e o3 b16 o4 c o6 d-32 o6 d- o7 f4 > c8 o6 b16 o3 f+8 o5 g-32 o3 c+4 o7 c16 o5 a4 o5 e+16 o6 a32 o7 c4 o4 b8 o5 e32 o7 f4 o5 f-16 o4 f+16 o5 f32 o3 g-8 o6 a8 o3 c32 o6 d-16 > a4 > a+8 o7 c8 o4 e+32 o4 d-4 o6 c-32 o6 e32 o3 b4 o7 a+32 o7 b- o7 d+ o4 d+32 < d+32 o3 e+4 o3 d-16 o3 g16 o6 c4 o7 g32 > g4 > e16 o7 g-8 o6 b+8 > d4 > g+ > c+ o3 f+4 < a8 < d o3 e- > d+32 o7 b+ < g o3 c < d32 > d+4 o7 b32 o7 g4 o3 g32 < f32 o3 g-32 o5 c+16 o3 c < b o5 d16 o3 d+16 o5 b o3 b-8 > d4 o4 c+32 < c16 o5 b4 > d-32 o4 f o6 a+32 o5 d+32 o3 e8 o3 c o7 g+32 o6 d16 < a8 o7 d+16 o3 g-4 o4 c16 o5 b o5 e o4 d+ > b8 o5 e8 o6 e- o4 d4 o6 e+ o5 c- < g+4 o3 c4 o4 g+32 o3 f32 o7 e32 o6 e8 o5 a+ o7 g+32 o5 g-32 o3 f4 > b32 > d+ < f > e-4 o5 c-32 o6 d32 o4 b-32 o5 f32 < b- o5 d-32 o3 f- o5 a16 < c16 o7 a16 < d > e+8 o5 d+ o6 c8 < f-4 o3 f > c+16 > b-32 > g+ o4 c+32 o7 f32 o5 f-8 > e-16 o5 b- > b-16 o3 g32 < e32 o4 e-32 o5 a32 > e+32 o6 c-4 o3 e32 o5 d4 o4 b-4 o7 e8 < f-4 o6 d o7 e4 o7 d+4 o6 g < g16 o7 g8 o6 g16 o5 c+8 < b32 o6 g+16 o5 c-32 o5 c-32 o7 d-8 o6 a-8 > c-32 o4 a4 o4 d+ o5 d16 o7 c+ > a8 o7 c+16 > c < a-4 o5 c4 o7 f- > d32 o3 c8 o5 g-8 < e o5 d4 o7 d4 > a-16 o7 f+ o7 f-8 o3 f-8 o5 a+ o5 b8 > f16 o7 d8 < e4 > a-16 o4 c32 o5 b8 o5 f o5 f4 o5 b16 o5 b+32 < c-32 o6 d+ o5 f- o3 d > c-32 o4 b-16 < f+8 o3 f-32 o7 c32 < d4 o6 e+4 o3 f8 o6 b32 o4 e32 > d8 < c+16 o5 e < a16 < b+32 o7 c8 o6 a < a-4
