piano: (tempo! 30) o7 e-16 o6 b32 < d32 > b4 o5 d4 o4 d-32 o6 f4 o5 f-4 o4 e-8 o3 g+ o5 e-4 o7 c16 o6 e- > d > e32 o6 d16 > d o4 a32 o4 e+8 o5 f8 o3 f+8 o6 c-16 o3 g-4 o7 b+16 o6 f16 o4 d16 o3 b16 o3 c+16 o4 g-32 o5 c+16 < c4 o6 a o6 e32 o4 f4 o3 f- o7 e-4 o7 g32 o6 c16 o4 e4 o6 e- o3 b4 o5 g-4 o5 g+32 o6 g4 o5 c16 o3 f o4 a32 o4 e4 < a+4 < a > b8 > c+4 o3 g16 o3 c-4 > a o4 g o6 c-16 < g4 o7 e+32 o7 f > d+32 o7 a8 o6 b+8 o6 e- o5 e+ o6 a32 < e-32 o3 g-8 < g o4 f4 o5 e- o3 c+ o7 c+ o7 g o3 c-4 o5 e4 > e8 o7 c+16 o3 e-4 o4 a-32 < e-16 o3 a4 o4 b32 o5 c < c > f+32 o7 b8 < e-32 o3 a > g+32 > b32 > a- o4 f+ o7 f+4 > f-8 o6 d+ o5 d4 o6 g-4 o3 e > b-8 o3 c-8 < f8 o6 c16 < b-32 o4 f-32 o6 e32 > c4 o7 f-4 o3 a8 o7 e-32 o3 d+32 > c16 o6 c-8 o7 g- o7 e-16 o6 f+32 o5 b16 < a-16 > b+8 o7 e+8 o6 a > c16 o7 c-4 o4 f32 o4 e+16 < d+ o5 f+32 > g4 o3 d8 > a-32 o5 e+8 o4 c o6 b o3 c8 > c-4 o5 g- o3 g+4 o3 e4 o7 a32 o4 e- > d+8 o3 b-4 o6 d4 < g-4 o3 f+16 < e o5 d+16 > c4 o5 c8 < f- > a o4 c o6 c32 o4 f-4 < g+16 < c16 o6 b-4 o5 d4 o5 a+8 < a-4 > d8 < b o4 a+16 < d+8 o6 c-8 o4 d32 o3 f-32 o6 f+ o3 f+8 o4 d16 < a4 o7 d+8 o4 g+16 o4 b32 o3 a o5 b8 < f-8 o6 d+32 < b8 o7 g-32 o6 e16 o7 a+32 o7 e32 > e+8 o7 g+16 o7 b32 < b- o4 f32 o4 d+8 o5 c4 o6 b16 > e8 < d8 o5 g+16 < b-16 o6 f32 o4 d+8 o6 c o4 f8 o7 b+16 o7 d-8 o4 b32 < a8 o5 d+32 o7 c32 > e+8 o5 f8 o3 b16 > g+32 o5 g-16 o5 a4 < a- o5 f+4 o5 g16 o3 b-4 o5 b-32 < b8 o3 d8 o7 g+32 o4 b-16 o3 g16 > a- o3 e- < b16 o5 g-4 o4 b o4 c32 < a32 o7 f < f32 < c-32 o5 f32 o6 a8 o6 e-16 o6 e+8 o5 c+16 < f4 o4 d-32 o6 f+ o5 f-8 o4 c-4 o7 f+ > c4 o4 e- o4 d16 o4 e32 o6 a16 o7 c o7 a16 o3 f32 o7 e8 o5 e+4 < b+8 > e-8 > f+ o7 f-32 o5 g4 o3 g- < b16 < b32 o7 e4 < f+4 o6 a4 < f o3 g32 o6 c32 o5 e-16 < b32 > e+8 > c32 o5 b-4 > e4 > f-4 o6 f16 < a-4 o6 e+4 o5 b8 o7 g-4 > e-32 o7 f+ o6 e- > d+16 o3 f o3 c-32 o7 g o6 b16 o5 e16 o4 g+4 o5 d-16 o3 g+ o5 c+4 < d+16 < d- o5 d-4 o5 c16 o5 e16 < b-8 o3 a-32 o6 b4 o3 a-8 < c+32 > b8 o7 d8 < f-4 > d-32 o3 b+ o4 c-16 > b32 o6 f o4 c4 o4 g16 o7 a+32 o3 d- o3 g8 > d- > c+ < e+16 o7 a8 o7 a32 o7 f16 > c-16 o6 b-32 o3 a8 o4 c-8 < d-8 > e+32 < g16 o6 b+16 o5 e-16 > g16 o5 b+4 > a16 < f8 > b32 o4 a+4 o5 c32 o4 g8 < f8 o3 f+32 o5 d16 o4 b16 o3 f8 o6 d+16 > g16 o4 f o5 g-16 o7 c+32 o3 f+4 o7 a32 > c-32 o5 b+8 o4 e4 o7 a4 o7 a8 o3 a+8 o7 b+16 o4 b4 o7 c > a8 o4 e+32 > b-4 o3 d-4 o3 g-8 o6 g16 o4 f- o3 g o7 c8 o7 f4 o5 f < c32 < d+32 < e16 o4 a8 > f16 o6 c8 o7 b8 o4 e32 o3 d8 o5 g4 o4 b4 < d16 o7 g-4 o7 d4 o6 b-16 o4 a32 o5 a8 > b- o3 e+4 > a- o5 b-16 > f-32 o5 b-4 o6 e-4 o7 e o3 e-32 o4 e8 o4 e32 < f-4 < c-32 < f- o7 g+32 o5 g+4 o4 b+ < b16 o3 e+4 > e-8 o7 g+ o3 b4 o3 c+16 o3 g+4 o7 b8 o5 b-8 o3 b+ > c32 o7 g16 > d- < g16 o5 c o3 a-4 o6 f- > a8 o6 b o5 e4 > a o3 a+32 o3 c- o4 d+16 > g16 > f o3 a- o5 c-32 o4 b16 o7 b16 o4 c16 o4 a32 o7 g8 o6 b- o7 b4 o3 d+ o4 a-16 < f8 o4 a32 o5 e16 o3 e-16 o5 c < g+4 o4 g o3 c-4 > g32 o6 c-4 o7 b < c4 < f-8 o7 a16 o4 b > c+8 o6 g16 o6 g4 o7 f4 o3 f16 o3 a32 > e+8 o7 b32 < a+8 > b+ o5 f-4 o3 b4 o3 c-32 o6 f-32 o7 a4 o3 c-32 o3 c+8 o7 d+4 > c-8 o5 e+4 > e+8 o6 c-4 o3 g16 o6 d+16 o7 f-32 o4 d- < e32 o6 c32 o5 a o5 g16 < f-8 o4 f32 o3 f-4 < b+4 o7 f32 o3 g-16 o7 d-4 > f-16 o5 c < f+32 o7 f16 o4 g32 o3 g32 o3 f+32 o5 a+16 o4 g-8 > e8 o3 g32 o5 a-4 o7 e8 o5 a4 o7 e16 o4 c-8 o7 c+ o4 e+32 o7 g+16 < e8 o4 c4 o3 e32 > f+ o4 g16 o3 g+ o3 a8 o5 e32 o7 b+32 o5 c32 o7 c+8 o7 f-32 o7 d+4 o6 d > b+4 < e32 o5 c+16 o3 c > b16 o6 b+16 < d > g > c32 o6 b-32 o6 b+32 o6 f16 > f < f o3 d < g8 o5 a+32 o7 b- o3 d16 o4 d4 o6 b16 o3 d-32 o3 d16 o7 g4 o3 c8 > c8 < c+8 < b8 o6 g+ o6 b32 o4 a-16 o7 g-8 o7 f- o6 f-8 o4 a8 o5 c16 o6 d- o6 c < f+ > d16 o7 a16 o7 c8 o4 f32 o6 e+32 > g16 > c-16 o5 b-8 o5 e-16 o5 c8 o7 e32 o7 f32 < c16 o4 c8 o6 e-4 > a-16 o7 c+ o5 d-16 o5 e32 o6 g- > f o7 f+ o6 g- o3 d4 o4 g32 o4 e4 o7 f+4 > a16 o3 a-16 o5 d16 o5 c-16 > c > a+16 < e4 o5 c+32 < b4 o4 a-16 > d16 o7 a4 o3 d-32 o5 c o3 g8 < a+ o7 e8 o5 b8 o3 a4 o3 a+ < e+32 o3 d32 < d+4 o7 b16 o6 d-4 < b8 o6 f+4 > a+4 o6 f-32 o7 d16 o6 b+ o4 g8 > a- o7 b+16 o3 f32 < b32 o3 c o3 a-32 < c32 < c32 o5 d-32 < a-16 > c o6 c+8 o5 b4 < f32 o3 b8 o7 b32 o3 d+32

midi-honky-tonk-piano: (tempo! 30) > e4 > a o3 b16 o5 e4 o3 b+32 o6 d+16 o6 f16 o7 g32 > f16 o3 c-4 o5 c4 o6 g+32 o5 d+4 o6 e+16 o3 e+16 > c+8 o7 a4 o6 e+16 o6 d-8 > d8 o7 b-4 o7 d o6 e o6 g+ o5 f4 o7 c8 o4 b > g8 o4 d > g-32 o6 b+ o3 e-4 o7 b+32 < f4 o5 e8 o6 e8 > g-8 o6 b+8 o3 c8 o7 d+32 o3 g-8 o6 b+ o3 c+32 o6 g-16 o7 b o6 d8 o4 d-4 o7 d o3 e32 < c8 o5 c32 o4 e8 o3 a+32 o3 b+8 > b o6 e8 > d-16 o6 d+4 o4 d16 > c32 o7 f+ o5 e o5 g16 o4 d o7 d-4 o3 g16 > g8 > d8 > f+16 o7 d4 o4 a- o5 b16 o4 d8 o6 g+ o4 c+32 > g16 o6 d4 o6 d-16 o7 a-8 o4 a-4 o7 f o7 a-4 > a < a+ o6 f o4 a-16 o6 a-16 o5 f16 o3 b+8 o7 g-32 o5 c- o4 b4 o4 c+ o3 f8 > g-16 o4 f+4 > g+32 o5 a-16 > d-16 o5 c-16 o5 b-32 o5 d o3 d o5 g-32 o4 a+4 < e+4 > e4 < a32 > c+ > e32 o4 g-16 o6 d16 o6 b16 > a4 o4 d4 o7 c+4 o7 d-32 o3 a o3 g- > e+16 o5 f+32 o6 f- o6 f4 o6 e16 o4 d-8 o3 d16 o4 f-8 < b-8 o5 e8 o3 f16 o6 g o5 b+ < b+32 o4 f-32 o6 a+ o6 c+8 o7 g32 o7 g+8 o7 a-8 > d+8 > d8 o4 f-32 o6 g- > d8 > d-32 > b16 o5 d-16 o4 e8 o4 e4 > d8 o6 d16 o3 b+ o4 c4 o4 d8 < f+16 < e o5 e32 > a-32 o6 d+ o6 d o6 d-32 o6 a-8 o3 a-32 o6 e8 > a32 o3 d16 o3 e16 o3 g4 o5 c- o6 b+4 o5 c+4 o6 b- > a32 o5 a-4 o5 f > e8 o3 g16 o6 d- o6 c4 < e+8 > d32 o6 d- o7 g+ o5 c32 o5 e16 o7 b-4 o7 f-32 > b-4 o5 c- o7 d+4 < f-32 o4 a32 o3 a-8 < d-4 o3 d8 o7 e > g-4 o3 d32 < f8 < e16 o5 g+8 o6 g- o5 e+16 < e-8 o7 g8 o6 d-16 o3 f+32 o4 e o3 c- o7 c+16 o7 d- o5 c o7 g-16 > e- > c-8 > b- o5 g16 o7 g4 > a16 o6 d16 o7 d-8 > f-32 o7 e o7 a32 < g+4 o3 a8 > a-4 o6 c8 o4 e > c o6 g+32 > f+4 o3 a o6 b-16 < b o3 c16 o6 c-4 < e16 < d8 > a-8 o6 g+8 o5 f+4 < e32 o5 d-4 < g32 o7 a4 o6 a-16 o6 f8 o4 b+ o7 f o4 a o3 a+ < c32 o7 g-8 > a+16 < f16 > c+4 o3 e4 o6 g16 o4 f- < g32 o3 d8 < f32 o4 b+ o4 d16 o3 f4 o5 a+8 < d16 o3 a-16 o4 f-16 o7 c16 o5 d-8 o4 e+8 o4 a+16 < f32 o4 d4 o6 c16 o5 d-16 > g16 o3 e-16 o7 g-8 > b+32 > f32 > d o5 d-32 < e8 o5 a+8 > e+8 < f8 o6 d-32 o4 g < e+4 o6 c+32 > g+8 o3 b4 o5 g16 o6 f+8 o5 g-4 o6 a-8 o4 a+8 o3 b+4 < c8 o3 f-8 o7 b+ o5 c32 o4 e- o3 a o5 e4 o4 c-32 o7 g- o6 d- o7 g-16 < g > g32 o5 c4 o7 b+16 o4 f+32 o6 e-4 o5 b32 > c > c4 o3 f32 o5 d+8 > e+32 > a4 o4 c o7 b4 o6 c+16 o5 d32 o4 c16 o4 a4 < g16 > g32 o7 g+32 < d4 o3 f+16 o3 d-4 o3 b+4 < d8 < g4 o5 a8 o5 f+ o7 d+8 o4 g32 o6 b32 > b-4 > b+4 o7 c+16 o5 b16 < b-8 o6 f32 o4 g16 > d-8 > b32 < c+4 o5 b-32 < f4 > d-4 o3 a+ o3 f-16 o7 d4 o5 c16 o4 c-4 o5 d4 > f16 o4 a8 o3 a16 o3 b8 o7 f+16 < a4 o6 g16 o5 e+8 < f4 o7 c4 o5 e-8 > d4 < f-8 o4 b o3 c8 o3 c16 < e8 < c- o7 e8 o7 a-16 < f-4 o3 a32 < g32 o3 f+ o4 c+16 < b-4 > a32 o5 c-32 o6 d+4 > c+32 o6 c4 o4 a32 > e4 o5 d+4 o7 c32 < g4 o5 a+4 o5 d16 o7 e-32 o3 a+32 o3 c-4 o3 a-16 o4 d-8 o3 b+ o7 d32 < a16 o7 a8 o7 d-4 o6 g+ o5 c32 o3 f-16 o7 d+16 < e o5 e+8 o7 f o6 g4 o6 b+ > d8 o4 g8 o5 g-32 o4 d8 o6 c4 o5 d+32 o4 d+8 o4 f4 o5 c-16 > f-32 > g4 o3 d+16 < g+8 o3 f16 < d o5 b-16 o5 a-4 o5 c8 o3 c > g+8 < d+8 o4 a-8 o3 b+16 < d-32 o6 d- < e16 o6 b4 o6 e-16 o5 g-32 > c+8 o6 g+32 o5 c16 o6 a-16 o3 g-4 o4 c8 > g o6 b-32 > e+32 o6 g-32 o6 g16 < c o5 a16 < a+8 < b4 o7 d32 o3 f16 o3 c+16 o4 b+32 o5 e-16 o7 c32 o4 f+4 o3 c- o7 g8 o6 c16 o6 d32 o6 a+16 o3 e-8 o4 d32 o6 a o7 a+ o6 g-16 o3 c+16 o3 a4 o3 a32 > f4 o4 g4 o3 a+ > b o3 a8 o3 a+8 o5 b16 o4 d16 < a- o3 f+8 o7 b-4 o7 a-4 o6 e-8 < g16 o5 f+4 < e4 o5 a8 > g+16 o4 e+32 o4 e+ o6 a- o4 a+32 o7 b-8 > d4 < b o7 c- o7 g8 < d-16 o5 b8 o4 a4 > e32 > b > e4 > d8 > c-32 > a8 o6 e+8 > b-16 o7 d-8 o3 b+8 o7 f+32 < d32 > d+ o5 d+4 o4 b o7 d+4 o7 c16 < a16 > g+ > d-8 o7 b > b+4 o3 f8 o3 d+ < a > b- > e+32 > b4 < b8 o3 g+8 o6 b-16 o7 b+32 o7 b o3 d16 o4 a-8 < g16 o5 a16 o6 g32 o5 c+ o7 e+8 < g-8 o4 c+8 o7 d16 o5 d+32 o6 a-4 o7 c-8 o6 g16 o6 b4 < d+16 o3 d o4 b o3 b+32 > f16 > a+16 o4 d-16 o7 g4 > d32 < c-16 o4 c16 o5 f+32 < g < g+32 o4 e+4 > c16 o4 g-32 < d o3 a+4 o5 e16 o5 d8 o7 c o4 d- < e- o4 d16 o6 e+32 < b+32 o4 e-32 > c-8 o3 b+32 o5 c4 > f- o3 c+16 o4 e4 o5 f- o3 d4 o5 c-4 o4 f-8 o7 c-4 o3 g-32 o5 c > g8 o4 f-8 o5 b-4 o4 f4 o5 g+32 o6 a8 > b- o4 f32 o5 d4 o4 e32 o4 a+16 o4 a32 o7 e o7 f16 > f32 o3 f8 o6 d8 o6 d16 o4 d16 > b- o7 e8 o6 c < f-16 o3 f-16 > f32 o7 d- o4 g+16 o6 a-32 > d-4 o5 a o5 d8 o6 c16 > c < c-4 o7 g-4 > f32

midi-bright-acoustic-piano: (tempo! 30) < c+ > e16 o7 b8 o3 b16 o4 b+16 > d4 > c+ o5 c+32 o6 c+8 o6 c-8 o5 f4 > c16 o6 a8 < f+4 o4 c4 o4 f-8 > e-16 o5 b16 < c4 o3 f8 o7 e- o3 a-32 o5 c+ o4 f+4 < g-16 < c32 o4 g-8 o4 c+32 o6 c+16 o5 b-32 o6 a+32 o4 d o5 e+32 o7 e4 > f+8 o3 a+4 o4 a o3 f8 o3 d16 < f-4 o4 b8 o3 g+32 o4 d16 > f16 > d+8 o6 f32 o4 g8 o7 e8 o4 e+ < e+4 o5 f-32 o5 g o6 g32 < c- o6 a4 o7 b+4 > c8 o7 c o7 g o3 g4 o7 f+16 o3 f- o6 b32 o4 d+ o6 a8 > a+ o6 e-16 o6 d16 > d-16 o3 d-8 o5 e- o6 c+8 o3 c- < g < d o4 d+4 > a16 o4 e8 < a4 o4 g o4 e16 o3 e4 o7 a+16 o3 a+8 o4 g4 o3 c-8 < c32 o5 b16 o6 c+8 > g32 < d8 > e+ < g4 o5 c-32 o3 b+ o7 d4 o5 a+8 o6 f4 o3 c+ > a- < c4 o7 b- o7 f8 > g16 o4 g- o5 b+4 < f- o7 c-32 > g32 > a+16 o3 c > f-8 < c4 < g32 < d- o7 b+16 < b-16 o3 g+8 o5 f+8 o5 d16 o7 d+ o4 a32 > f-32 o3 g32 > b16 o5 g-16 o7 f8 o7 e-8 o3 c- > e+4 o7 g32 o5 f32 o4 d- > a- o4 c32 < b8 o3 d4 > f+32 o5 e4 o4 f-16 o6 e-32 o5 c-16 > c o7 f+8 < g o3 b+ o6 b-16 > b-32 o6 a8 < b16 o5 e16 o7 b o4 c8 o6 e8 o3 g o5 b8 < a+4 < c+ o5 e32 o6 a16 o7 a16 o4 e8 o6 b o4 c32 > c16 o6 d4 o5 e o3 c16 < c-16 o7 d16 o6 d4 o6 d-32 < a+4 o6 d16 o6 b o6 d16 < d+8 o3 e+ o6 b+32 > a- o6 d-16 o4 b-32 o6 e+ o5 b4 o6 g-16 < b-8 o5 a+32 o5 f16 o7 d16 < f+32 o5 b-32 > c32 o7 b-16 < a+8 o5 g- o5 g-32 < f+16 o5 c+4 o6 a-32 o3 f+ o5 g-4 < c16 > a < b-32 o6 b16 < e16 o7 g-4 o3 a32 o5 g32 o6 g8 o6 a4 o5 f8 o3 a+4 o6 a > e+4 < e+4 o6 g+32 o3 g- o3 e8 > a-8 o6 a8 < b < e8 < g8 > e-32 < d32 o4 e-16 > c16 o3 a32 > g-16 o7 b-4 o3 c32 o4 c8 < b+4 < d+16 > g-8 o3 b+ o4 e16 > a32 o7 f > d32 o7 b4 o4 f32 o7 b+4 o4 f-8 o6 b o4 a-8 o3 f o4 d- o6 g16 o6 g4 o6 e+16 > a o4 a+4 > c4 o4 g+ o6 b-32 o7 c- o6 d+4 o5 a-4 o4 d+16 > c- o3 b32 o5 f o5 d+32 o6 e o4 d32 o6 f32 o4 b o4 g+32 o7 b-8 o6 c o5 b-32 < g32 o5 a-32 < g4 o3 b8 o5 c+8 o6 b+32 o7 c- > b16 o3 g32 < b4 o6 e- o4 f-16 < f-4 o3 c16 o7 g4 o5 f-16 o7 d8 o3 g+32 o6 g+16 > d+8 < g+ o7 b+32 < b-16 < a+8 o4 b16 o6 a-16 > b-16 o5 c4 > e+4 o5 e+16 < c-4 > e-16 > d4 o7 f- < c+16 o5 e16 o4 d16 o4 d-4 o4 e-4 > c+ o3 b8 o3 f+16 o3 b-32 < e+ o6 f32 o5 e16 o5 d o7 d32 o4 g+4 > d16 o4 a o6 e+16 o4 d8 o6 g-4 o4 f+16 o4 g8 o4 f32 > g-16 < c-16 o6 c+4 o6 g16 o7 e16 o7 d4 o3 g-32 < g16 o4 c16 o5 g4 > a8 < f32 < f-8 < g o5 e-8 o6 d- o3 e-16 o3 c+32 o7 b- o3 a < a o4 e+32 o7 c+16 o4 c+16 > d+4 o5 f16 < d+ o4 b o5 d32 o6 d8 o6 g-4 < d32 o7 d16 o3 b8 o3 b8 < f32 o3 b32 o7 f+32 o7 d16 o5 c+8 o4 f8 o4 b4 o3 d-4 o7 c-4 o7 a o5 d16 o6 d32 o4 e-8 o5 e > g- o5 d4 > a8 o3 b o6 e8 > e-4 o4 c-16 o5 c8 o5 a-4 o3 b+ o5 b8 > g o3 f16 o6 a-16 o5 g4 o3 d-4 < d16 o3 e32 o6 b-32 o3 e32 > c8 o3 a8 o4 d8 o5 b-16 o6 f o3 e32 > b16 o6 g16 o4 e8 o6 f+ o4 a+16 o3 d+ o6 c+32 o6 d16 < a o5 b8 o5 c-4 o4 d o7 e32 > a16 o7 a16 o4 d o3 b32 o7 g-8 o7 g-32 < g4 o7 c16 o4 a-16 > c8 o3 c+8 > g+32 > b16 > e-16 > g+ > g+4 < c+8 > g+4 o3 e- o5 g8 o6 d- o4 f o7 e-4 o5 f+16 o7 a < c16 o4 e+32 > d32 o4 e16 < g16 < g+8 < e8 < g16 < g32 o6 c-8 o7 b-32 < c32 o5 d- o4 f16 o4 e4 > b16 o4 e+16 o5 b4 o4 e+ o7 c-4 o7 b > c-8 o6 f-16 > f o5 c-8 o5 b4 o4 f- o3 c > g32 o5 e8 o5 g16 o3 f-4 > b+ o6 b- o5 c+8 o6 c- < e16 < b o5 f+16 o3 g+8 o3 c32 o4 f16 o5 d+8 o3 c4 o6 c-4 o4 b o3 g8 o7 e-16 o6 d-8 o7 c- > a16 o4 b- o5 e16 > e < c+8 o7 f32 < e8 o4 g-16 o7 g16 o6 c- o3 e o6 b-4 o7 g32 o4 d-16 o7 a8 o3 e4 o7 e-8 o6 f8 o5 a16 o5 e+32 o6 f- < e+ o3 e8 > b32 o6 b+4 o4 f+16 o4 c32 o5 d-32 > c16 > f16 < a+ o4 d-8 o6 d8 o4 c16 > f+32 o3 a+16 < a+ o6 e4 o7 b+ o4 c+16 o7 f8 o7 c4 o5 a8 o7 d+ o6 f32 o4 c32 o7 f+4 o7 a4 o4 d16 < a+16 o3 g+16 > c-32 < b+16 o7 g32 > a- o4 c o5 a4 o6 a+4 o3 a- o7 e16 < g o3 f8 o5 d+ o7 a+32 > b8 o5 d8 o7 g-16 o4 e4 o7 a-4 o3 e o7 b+8 o3 c32 o3 d8 o3 f+32 < a+8 o3 c8 > b-32 o3 b < a+32 o5 b32 < c+8 > a16 < g o4 a-4 o6 g16 o7 e8 > e+32 > d o4 c-4 < e-4 < e8 o6 e-32 o6 a8 o5 b-4 o7 b4 o5 a-8 o7 c > d > d-4 o7 b8 o4 b+16 o6 b+ < c8 o7 c+32 > b+ o5 a16 o4 d-8 > c8 o5 a o3 f-4 > b o4 f-4 > d-16 < b-8 o6 e < c-16 o5 a-16 o6 a o6 d4 o5 f8 o6 g4 o6 d16 < a-8 o7 d32 o7 f4 o7 d+32 o7 g < b-32 o6 b-8 o6 f+4 o3 f+8 o6 f-32 < g32 o3 f+ < c16 > f o7 g < e32 < c4 > d-16 o6 e+8 < b+4 < c16 o3 g-4 > d-16 o6 e16 o6 d4
