piano: (tempo! 10) > b32 o6 b32 o3 a+16 o6 a+8 > b o4 a16 o7 c+ o4 g < e8 < e-4 o3 e+ o4 d8 o7 d o6 b4 o4 e o3 b-32 o6 b-32 < e4 o7 f-32 o4 f+32 o4 b16 o3 g-8 o6 e+16 o3 e8 o5 e4 o6 d o3 c16 o3 a+ > g+ o6 e-4 o3 f+4 o4 a4 o3 d16 o7 d+32 o5 a-8 o6 d o7 g < e-4 o5 a-8 > b-4 o6 a-32 o6 d-8 < f16 < g+ o5 d4 < f-16 o6 c32 o5 c32 o7 f-16 > f o5 b+32 o5 f-8 < c8 o3 b16 o7 a o6 e-32 o6 a32 o4 f-4 o7 b o4 g+4 o3 b+16 o3 c8 < d32 o6 e+4 o3 b4 o3 b4 o4 a-8 o4 f-4 > g4 > c8 o3 c+ < e+ o6 b o4 e- o6 g-16 > a4 < f-16 > g- o7 d8 o5 d32 o4 e8 o3 a+16 o7 b+8 o3 c8 o3 a8 o5 d-4 o7 b16 o4 b-8 > e8 o4 g8 > e4 o4 f+16 o5 c-32 o5 e+8 o6 b o6 g16 o6 g < d+4 < f32 > b32 o3 b8 o5 a-8 o4 a+ o5 c+32 > b-16 < e-4 o4 d+32 o4 f+ < d- o7 g+8 < b-16 > g32 > b+16 o4 f o4 e- o5 c16 o6 a4 > f16 o4 c8 o5 e32 < g+8 o6 a-16 > c+ o7 e+32 o4 c+ > f32 o5 e32 o3 b-16 o4 c+32 o5 b+4 o5 a-16 o7 a o5 g o7 g-16 o7 g4 > c+32 o6 a-4 o7 f8 o3 c+ o6 b+4 o3 d4 < f+4 > b o6 a8 o4 g32 o7 g-8 o7 e+8 o4 d-4 o7 e+ o6 a < g+16 o7 g-16 > e+4 o3 g8 > b8 o3 d o4 f8 o4 c32 o6 f+4 o5 f-16 o6 b4 o5 e-16 o3 e-16 < b+32 < e-4 o3 e-32 o5 c o6 d o4 c-32 o6 f-8 > a+32 o7 a+ o3 d16 < b16 o4 b o6 e+4 o7 d- > a16 o6 f8 o4 f-4 > e8 o6 b+4 o4 b32 o7 a16 o3 e-4 o7 c- o6 a+8 o7 a-4 o4 b-4 o4 f+32 o6 e+16 o6 f < d16 o5 f+ o7 g-4 > g16 o4 c-16 o5 g+32 > c+32 o7 a16 o3 d o6 c16 < e-16 o5 g16 o7 f-16 o6 f-8 < g+4 o7 b8 o5 b16 < g16 o7 e4 o3 a+8 o3 f-16 o3 a+8 o3 c32 < a32 o4 g4 o6 b+8 o3 e8 o7 f+16 o6 e-16 < c4 < a+8 o6 a+4 o3 e o6 e+32 o5 b16 o6 a+4 o3 a-4 o3 g- > e-8 o5 d+32 o6 b+16 o6 g+ < e-8 o4 f8 o7 d+16 < e+ o7 b-8 o3 e-8 o5 c16 o6 b16 > g+8 o5 f+16 o3 e32 < d o6 d-16 o6 a+32 > g8 o7 d-16 < b16 o5 c+4 o4 e+16 > b4 > g+32 < a- o5 e+ < b32 o7 d+32 o7 e+16 o5 f4 o3 a4 < e-4 < a- > c+ < f < f+16 o3 a-8 < g+32 o6 c o4 a4 o3 c- o4 c+32 > g16 < b+16 o4 g16 o7 g4 o7 f-16 < b4 o7 a-4 o5 b32 o3 b-8 o7 d32 o6 e > a+16 o7 a4 o7 d4 o5 e- o6 d-16 o5 c+32 o5 f+16 o6 g < g8 o7 f+ o3 a+32 o6 c32 o5 e-32 o7 f-32 < b-32 o4 e-16 o6 d+32 o7 c o4 c-8 < c+8 > c+ o7 a > e < d+8 o6 g-16 o3 d+32 < b4 o6 b+32 o5 f16 > a-16 o7 a+8 o6 a-8 o5 g32 o3 b-32 o4 c16 o4 f8 o5 f-4 o6 f- o7 d16 o7 c+32 > c+4 o3 c+4 o7 e+ o6 f o5 a- o7 b o5 b o4 c+16 o5 c-8 o6 a-16 o3 e8 > e4 o6 a8 o6 a- > d8 o3 c+4 < b8 o3 a-16 > c4 o5 f16 o4 e > a4 o3 b8 o6 b8 o7 e-16 o7 b32 o5 d- o5 f-32 o3 e4 o4 f+32 o6 f8 < d-32 o5 g8 < e16 o5 b-4 < f+32 o6 e-8 o7 d-8 > c16 o4 e+32 o6 e-4 o5 d o4 b-32 o3 g+8 o7 a8 o3 a16 o7 a-4 o5 g+32 > e > e+16 o4 b+32 o3 b > a-4 > e4 < g-32 o6 f-32 < b8 o6 a+16 o6 b < f+16 o3 a+4 o4 d4 o3 b4 o5 b4 > c16 o5 g+8 o5 d-16 o3 d8 > d+32 > d32 o5 a+8 o7 c- < c32 o4 b+32 < e8 o7 d-8 o3 a-8 o4 f o5 a+4 o4 c32 o5 c-32 < g-4 o5 a-32 o3 f+16 o6 d+16 o7 g+16 > a8 o4 c+32 o3 b-16 > f16 < f- > b4 < d o6 e+ < b- o6 b+16 > c+32 > d+ o3 e-16 < b- o6 c4 o3 d32 o6 b16 o7 b8 o6 e o7 c16 o3 c-32 < c+ o4 f+32 o7 b4 > c > f8 o7 b-8 < g-8 o7 f+32 > g8 > c o6 f16 o3 a-8 o7 c16 < a16 o6 g+ o5 a+16 o6 b-8 < a8 o4 f-4 < f+32 < g-32 o6 a16 o7 g-8 o3 f-4 o5 b8 o4 d+4 < a16 < a+8 o4 f-32 o6 g4 o3 e-16 o4 g16 o3 d+16 o6 f+8 o6 b < a-32 > e > d4 o3 f-16 o7 a-16 o7 b+ o4 b+ o4 a32 o5 g4 o6 a+ < f o4 g8 o3 g- o3 a+ > a16 > a+ o5 g16 o3 b o3 d32 o3 d16 o3 f-32 > c-16 o7 b8 o5 e-4 o4 g-4 < b+4 > b-16 o4 b o4 f4 < g+32 o7 e4 o6 c+ > d-8 > e4 > d16 < c- o4 d- o5 a-32 > e+32 o3 a32 o6 g4 o7 f8 o5 b-32 o7 a8 o4 f-4 o6 c o3 d32 o4 a-8 o3 f- > e > a8 o5 d-32 o7 g+32 < e8 o3 a32 < e+16 o6 f-32 o3 g-16 o6 e4 o4 f-32 o7 g32 o4 a-4 < d4 o3 d+4 < c+16 o4 b8 o3 f4 o3 f4 o4 d > g+ > b+ > f+4 > e+16 o6 d4 o4 c8 > b+4 o7 f+ > b-16 o7 e+4 o7 f8 o4 g-8 o3 f32 < d- o6 a8 o5 b4 o6 g32 o5 g32 o7 f+8 < c > b+16 < e8 o7 b-8 > a+8 o6 a8 > d32 > b16 o4 a+4 o4 f > d16 > e+8 o7 d- < b > f-32 o4 d+32 o3 d16 o6 b+4 o7 c-8 o6 c-4 < a32 o3 b-4 o5 a4 o4 a+32 > b-4 o4 b+8 < b32 > g16 o3 d-8 o7 g+ o5 g+16 o5 b-32 o5 b4 o6 b+ < d32 > a-8 > a16 o7 d o7 a- > b-32 o6 a4 o6 c32 > f32 o7 a+32 o3 d+8 o5 g+16 < b16 o6 g o5 a4 o6 b+32 o5 g32 < g-16 o7 a32 < g32 o6 a-16 o4 c4 o5 g o7 a-8 > b+4 o4 b < d-16 o7 c-8 o6 c32 < d16 o7 a o3 d32 o3 b-16 o6 f o6 d8 o4 a-32 o4 b16 o6 a32 o7 g16 o4 b-4 o4 c32 o6 a+16 o7 e+4 o5 e32 o4 d8 o5 e-8 o5 f4 o4 f- o4 f4 > e16 o5 a- < g4 

midi-honky-tonk-piano: (tempo! 10) < g16 o7 e-4 o4 c- o3 c4 o3 g4 o4 f+16 < f16 > g32 > a-32 > a+32 o6 f8 > b8 o3 d- < e o5 a4 o5 a16 o7 g+4 o5 f- < g+16 o3 g-4 o4 d-4 o4 e+32 o6 b-8 o3 a+16 > a8 o5 b-4 o6 d-16 o7 e+ o4 f16 o7 c- o7 g- o7 g4 o3 b-8 < f4 o7 b32 o3 c16 o3 d+16 o4 e16 o4 f o3 a4 > e o7 g-16 o3 b8 o4 a o7 e16 o6 g4 > d-32 o7 g+4 < c8 o3 a-16 o5 a-32 o3 a16 o3 a16 o3 g+32 < c16 o6 c32 > e-8 < a-4 o7 a-8 o6 a-32 < c+ o7 g- > f-32 o5 e-16 < e8 o4 d-32 o6 b-32 o4 c < e-16 > f8 o6 e+32 > b16 < f o4 a o3 c16 o4 a-8 o3 b16 < e+8 o3 e-16 o4 g8 > g o4 g-32 o4 e16 o4 a-32 o4 g+4 o7 a+16 o6 g4 o4 a32 o7 c+4 > f > c4 < b-8 o4 a+ > b16 < e4 o4 a-16 o3 e32 o3 d8 o4 g-32 o6 d32 o7 a16 o4 c8 o7 a-16 o3 b- o3 f8 > f o7 d- o3 b32 o7 a o4 e+ < e32 < a16 o4 d- o7 f16 o7 b-32 > c16 o5 a8 < b+ o6 d4 > a8 o5 b+4 o3 c8 < e+ o5 b+16 o3 c-32 o6 e o3 e- o3 d4 o3 e16 o6 f32 o4 f-16 < g8 o3 f4 o7 g8 o6 a+8 o5 a o4 f16 < g-8 < e- < c-32 o3 f16 > b32 o3 c+4 o5 e+4 o6 f4 o3 d- o4 e o6 a+8 o7 d+8 o6 b+ o6 g+16 o3 e-32 > f-4 o7 e-16 < c4 o4 e- o5 g+32 < g32 o6 e+ > b o3 b16 o7 a-16 o4 d < b4 > g- o7 f+8 o5 e-16 o5 d8 < c+32 o3 a32 o3 b < b-32 o3 g8 o6 f-16 o7 b4 > e32 > d-32 < e4 o5 c-8 < a+16 o3 d32 > g4 o3 e4 > a+8 < c-8 o4 f- o3 e4 < g-4 o6 b+32 < a-16 o4 f-16 o7 b-16 o4 c32 o6 d+4 o6 b-4 o4 a16 o7 e-4 o6 d- < a- > e-32 < g16 o3 e16 o4 e o6 c-4 o6 e32 > c-8 o5 c+32 o3 e-8 o5 f+32 o5 a-32 o5 c > g16 o5 a32 o6 a16 o6 b+4 > d o6 f+16 o7 c4 < c16 < e-16 o7 e-32 > d32 o5 b16 o6 c o5 f-8 o6 f32 o7 d32 < f4 o5 d8 o7 c8 o4 a+4 o6 f+16 o6 f8 < b32 o5 g32 o6 e o3 c-4 o7 g o3 a o4 e-8 o6 c4 < c+16 o5 d16 o6 d+8 o7 g+16 > b < d16 o6 a-32 o4 g32 o3 f-8 o5 c4 > f+32 o4 d4 o4 e32 o7 c+16 o7 a-8 o5 e- o6 a8 < d-8 o3 g+8 o6 g16 o6 a-4 o7 g o5 b-4 o7 b+8 < c16 > a16 o6 e-8 o5 g16 o7 b32 o5 g > f32 o3 a16 o7 d4 o5 d-8 o3 e-32 > f8 o5 b16 o3 e-8 o4 a-32 o4 g+ o5 f-4 > f4 < d o5 d16 < b4 o3 c+32 o3 b- > d < d4 < g4 o5 c-4 < d8 > g16 o3 g- o3 a+16 o7 b-32 > e8 o5 g+8 > a4 > c+16 o4 a- o5 b+16 o3 a+4 > e+8 o4 g- o7 g+ > a-8 o6 f+16 o6 c-16 o4 c o3 b > d-32 o6 b o5 f4 o3 b32 o5 c+8 o4 e32 o4 d+32 o3 d+32 o3 c+ o3 f o6 e-32 o3 g o5 g-32 > g32 o7 g4 < a8 < f32 o6 c4 o3 g-16 o7 f8 o4 f-16 < d-32 o4 a+4 o6 a+8 > g-32 o3 a8 o5 c32 o7 d o7 f-4 o5 g+32 > g+8 o7 f16 o6 b32 o5 e+4 o5 d+ < c+16 o7 e4 o7 f+16 < g o5 a32 > d4 < e16 o5 a32 o3 c+16 > g8 o5 b+4 o4 b o6 a+ o7 e- > d32 o4 g o6 c32 o4 b32 o3 d+8 o5 d+4 o3 d4 o5 c-4 o4 d4 o4 d > a-8 o6 b8 o5 f16 o5 g o5 a+4 o4 d-16 < d4 < e4 o6 d32 o5 a4 < a o5 f o5 f-16 o6 b8 o5 e- o5 c+4 < g+8 > b+ o6 g4 o7 a-32 > g-32 o7 c-32 > d16 < b32 o3 d16 o3 b16 o5 e4 < b+ o6 a8 o3 b o3 b4 < c-4 o7 d-32 o3 g-4 o7 a-32 o5 b+8 o4 g- > e-4 > f- o3 g16 > b+ o6 d+8 o4 b4 o6 d4 o4 c > b o5 f o7 c-32 < f4 > g > f8 < e32 > e-8 o3 e-32 o3 e8 o5 b4 o4 a- o3 c+8 > d > d- o3 g+16 o4 b32 o3 d32 o5 d o7 e4 o7 f32 o3 a8 > a4 o6 c- o7 d32 o4 e o6 b16 > b+32 o3 c4 < a-4 > b+32 < a-4 < g8 < g-4 o5 a-4 > d o6 b > b+16 o3 a16 > d+16 o7 a32 o4 a32 o5 g32 o3 d-4 o4 g32 o6 d8 o4 e+16 o7 f4 o4 e- > c-8 o3 g8 o7 e+8 > e-4 o3 f4 o5 f+ o3 e8 o5 g-4 < b+32 o6 a+8 o6 c+4 o3 f16 o4 e+4 o7 f-32 o4 b16 o5 a-8 o4 a4 o3 g- o4 g-8 o6 e- o4 d4 o3 c4 > f+8 o3 e o6 d-16 > e32 o6 c+16 o4 b+ o7 a-4 o4 g+4 o5 d+16 < a16 > b8 o5 e16 o7 g- o4 b+ o3 c8 o6 a o7 b8 o5 g-32 > a+ < g- < c+4 o5 b4 o5 b- > f32 < b8 o6 a16 o3 g-32 o5 g32 o5 a-4 o4 c-4 > g+ o3 a4 o3 b16 o6 g8 o5 e-16 o5 f4 o5 d- o7 f4 o4 c32 o5 b-4 o3 d+32 > f16 o7 f-32 < d+16 o5 b-4 o6 f32 o3 d16 o6 e-8 < b o7 e+4 o6 g o4 b o5 c8 o7 c-8 o4 c32 o3 e4 o3 c o5 f+16 > g4 < a-32 o5 g4 o3 g+16 > f-8 > c+32 o4 f4 o3 b4 o4 c+ > e8 o4 f16 o6 e32 o4 d32 o4 f-16 > c32 < c o4 d32 o3 g16 o7 c-16 o3 e+ o3 c32 o5 g-32 o3 b32 o5 c o5 e+4 > b+ o4 b-8 > f32 o7 g8 < d16 o5 c-8 < d+16 o4 c < a4 o3 d+4 > g-16 o5 b32 o4 a+16 < e32 o3 d32 o6 f- o5 e+4 o7 a+ o5 e-4 o6 b8 > e16 < d o3 e-4 o6 c8 o4 e+32 o3 d-4 o3 e < d-8 o5 d+ > f o7 e-16 o3 b+32 o3 b4 o7 g o7 d32 o5 f- o6 c+ o4 e+4 o4 c o4 f+8 o7 c8 o5 e4 o5 b4 o5 f4 o4 f+8 > b+ o5 d4 o6 f+8 o6 c < d16 > a o6 e8 > d < e8 o7 f4 o4 g16 o5 d < a+8 o7 a o6 g4 o7 c-8 < a+16 > a32 o7 g-32 o7 a o6 c o7 d+16 o7 c32 o7 f+4 o6 a+32 

midi-bright-acoustic-piano: (tempo! 10) o3 a- o4 b32 > f o3 c4 < c+4 o3 g-4 o6 e-8 o7 c- o5 e-16 o7 e+8 > a+ o7 a+ o6 d16 o6 b o3 g4 < b-32 < f-8 > g+16 o3 e4 o3 b4 o3 a- o7 c-16 o6 b4 o5 a+8 o4 e-32 o4 c- < b-16 o3 d-4 o3 d+4 o5 g32 < b4 < a16 o5 d-4 < g16 o3 d8 < a+16 o5 d+ o3 b8 o5 g8 o7 e- o6 b8 < e32 o5 c+ o3 a8 o6 a- o7 d-32 > g8 o6 c o6 b > e-4 o4 e32 o7 d < b16 > a16 o6 a16 < d+8 o6 c o6 d o4 f-8 o3 g+ o6 d+ < g32 o7 b4 o3 e+16 o5 b+16 o7 b16 o5 c8 o3 g4 o4 d o4 c-8 > c-8 o5 a-16 o4 c+32 o6 b4 o6 d16 o7 b-4 o6 e- o7 f8 o7 g16 o7 a o5 f16 o4 b+16 > d- > a-32 < b+8 o3 e o4 a8 o3 a < b16 o5 d-32 < b-8 > g32 o3 f8 o7 d-16 o4 f4 o4 b-32 > a16 > c-32 < c16 < b32 o3 a o4 d-32 o4 c+4 o4 e-16 o4 d32 o4 a-4 < a+ o3 a+4 o4 b16 < a4 o6 c32 o7 a16 o7 c16 o3 e o7 d32 o6 b8 o4 e+ o5 c o3 g16 o4 a4 > c32 < a o4 c o7 d o4 b16 o7 g4 o5 a+16 < b32 > b16 o5 c < f32 o6 e16 o7 b+32 o4 d+4 o5 b+ o4 c-4 o3 c-16 o4 c8 o5 d4 o3 f+16 o7 e8 > g16 o5 c+ o7 f4 < g-8 o6 e16 o3 g16 o7 b32 o6 f-32 o3 d16 < d4 o6 f8 o5 d16 o6 e16 o5 g4 o6 d-32 > c4 > c > d+16 < b+8 o7 g o6 d-32 o7 e16 o3 c+32 o7 a+16 o5 g+8 o3 b-4 o7 a32 o7 a32 o6 a4 o6 b+32 > g-4 o4 c-4 < b16 o5 f4 o6 a-4 o6 a o3 e-16 < b-16 o3 g16 o5 c+16 o6 b-8 < c-4 o6 e-4 o5 e-8 o7 g32 > a16 o5 b-16 < e-16 o7 c4 o7 d+ o6 g16 o4 a16 o7 f o6 a32 o7 b4 o4 b32 o6 c-16 < g+16 o3 d-8 o7 a4 o4 g16 o4 e-32 o7 e-32 o4 b+8 o5 d-4 o7 a-16 < e-32 < c8 o6 a+ o6 f4 o6 f+16 > b32 < c8 o4 f+16 o3 d+ o4 g-32 o6 g+4 o5 c+4 < b32 o6 d+8 o3 a16 > g > g-8 > d+32 o7 f16 < e- o7 f+4 < d16 o5 e+32 o3 a+ o5 d-4 o7 c+8 o6 g+16 > c16 o6 f o6 a16 < c+4 o4 g4 o4 e-4 o3 e4 o6 d32 o6 c-8 o5 b32 o7 a4 o7 a32 o7 g-4 > b4 o4 b-16 o7 d-4 o3 d+8 o3 g-32 > b-8 o6 c- o3 c o3 b-16 o6 d-32 o3 b32 < c+ o7 e4 o3 c8 < c16 < b4 o7 b+8 o7 e-4 o7 a-16 < d-4 o6 d16 o6 f-16 o4 g16 o3 f < c-4 o5 b+8 o3 f+32 o4 d+16 o6 c16 o6 e o3 d-8 > b16 o5 g4 < c8 < b- o5 g8 o6 b-4 o7 f4 < d o3 b-4 < c+ o6 g+16 o3 b16 o3 d+16 o4 d4 o4 c-32 o4 e+32 o6 c16 o3 b4 o4 c+32 < g- o3 f- > a+4 > g4 > c+32 o7 c32 o3 c16 > d4 o6 b+ o4 d32 < e-8 o5 a8 o3 f+16 o3 c-32 > f8 o3 d+16 o4 g32 o5 a+8 > b16 o6 f32 < c-16 o6 b32 > a o4 d32 o6 e o6 d8 > a+32 o7 e+32 o7 c-32 > a+4 o4 d4 o5 e32 o5 b o6 g+8 o7 f o7 a8 o4 f-16 o5 d- o4 c+4 o7 f4 o3 a4 o3 g+4 o6 e32 o3 d16 o3 e+16 > c8 o5 c16 o3 f o6 g16 > b8 o4 g+ o5 a- > c+ o4 e o4 b4 o3 f8 o6 g- o4 c+8 < g-8 < e+8 < a16 o6 c32 o5 e-4 o4 c+4 < e16 o6 c16 > g-4 > b+4 < e+32 o7 a+8 o7 d+4 < d+8 > b8 o5 b+16 > g32 < b16 o6 f16 o5 g32 o4 a+8 > b16 < b-16 o5 e8 o6 e+4 o5 g-8 o3 f+ o7 f-8 < b+ o7 e o4 b-16 o7 a16 > d8 > g+ > e32 o4 a4 o7 e32 > b < b32 o5 d o4 e o4 d16 o6 d16 > e- o4 g+ o6 g8 o6 b-4 < b8 > c-4 o6 c-8 o6 f4 o5 b16 o3 a+32 > g8 o6 d+32 o4 c4 o5 f32 < a16 o5 d < a+16 o6 b o6 e+8 o6 d8 > d- o5 d-32 > f4 > b+ o5 b+4 > a o3 c o6 c+ < e32 o7 g-16 o4 g+16 o4 d-32 o5 a+8 o7 d32 > f-32 > d8 o6 a- o3 b+16 > b16 < e-16 o3 g4 o5 e+32 o5 e+8 o6 g+ > b- > b-4 o3 g+8 o5 c-4 o4 b+8 < c-16 < a+32 o4 e32 o7 b16 o4 e-16 o3 c4 o5 f+32 o3 b4 o3 d32 o7 g32 o3 f8 o4 c16 o7 f16 o7 a+8 o7 c o5 g8 > b+8 > c+4 o7 a o5 f16 o5 d-16 o4 f+32 o6 g4 o7 e-4 o3 f-4 > e- > e > b- o7 f+32 > a32 o7 a < e-4 o7 f-4 o6 g o3 c+16 o6 b+32 o7 f8 o6 b+4 o7 a+8 o5 e+32 o3 d4 < b-8 o5 a32 o7 b o5 g+32 o5 g4 o3 b+8 o4 c32 > d-4 o4 e-32 o7 g > d8 > f- o6 e o5 f+16 < d+ o4 f-16 > a32 o3 b-32 > a4 o7 f+32 o5 a+16 > d16 < d+4 o3 a o3 c+32 o6 d4 > d-16 > d8 o3 a-32 < a32 o4 b8 o7 g16 o3 d+4 o3 f16 o3 a-16 > e- o4 b32 o7 f4 > b-32 o3 g-32 o3 e-32 o3 f32 o4 f- > f-16 < d16 o4 c32 > c < f+8 o7 b-4 > c+4 < g8 o5 c+8 < b-8 o4 g < e+32 o7 g8 < f-4 o6 a+32 o3 e-4 < c32 o7 d16 o4 e4 o6 b+ o5 d- o5 e o6 d-16 o5 d16 o4 e o7 d+8 > c4 o6 f+8 < c+ o3 f+16 o7 a > e+16 < b-32 o5 c-32 > b-8 < e o7 c-8 o4 e-4 o4 f8 > d+16 < f16 o4 b+8 o4 a-8 o5 c-32 > c-4 < b-16 o4 c+16 > f+ o7 d8 o6 a+32 o3 b32 > f+16 o3 a-16 < g4 < a16 > d o5 c-4 < d < g+8 o7 e-8 o3 c8 < b-16 o4 b < d4 o4 g4 o4 b8 < e32 o6 c16 o4 g+16 > f+32 o3 f16 o6 f32 o6 a4 o5 e-8 < d o3 d+16 o6 g32 < a32 < d- o4 e8 < a16 o6 g16 o6 b4 o3 d16 o6 d-32 o6 a4 o5 e+8 o4 g-16 o7 b o6 f-32 o3 b+4 o4 e16 < e16 o6 d o7 b o5 d+8 o3 e-32 o3 b8 o6 c o5 c > d8 o7 b4 o7 b8 o7 g+8 o4 f-32 o3 d-16 o6 b-8 o7 c+32 o5 e-4
