piano: (tempo! 40) o6 g-32 o5 f+4 o6 d8 o7 g+4 o5 g+8 o4 b+4 < g- o8 e8 o6 e- > a+8 o7 e+8 o4 f+16 o8 f4 o4 b32 o8 c8 o4 g-4 o8 e32 < f16 > d-16 < f8 o8 b+16 o7 d4 o5 f16 o5 c8 o6 a4 o5 g+ o7 e32 o4 d o6 g-4 o7 c-16 > b+16 > g32 o8 a16 o7 d-4 o8 a-8 o6 c16 o7 f4 > c-4 o8 b16 o4 b > e-32 o7 b16 o6 b+16 > d- > d-4 o5 c-8 o5 e-4 o5 g4 o6 b- < e16 o5 d-16 o7 g8 o5 c o4 b32 o8 f8 o8 f4 o7 f-32 o4 c-16 > a-16 > f+8 o7 c-16 < a-32 o7 f+4 o4 c32 < a32 o4 d+32 < b32 o8 b-32 o4 c-16 o6 b8 < g8 o6 c-32 o8 b- o5 f o4 a-8 o8 e8 > b+8 o7 f+16 o5 f4 o4 e-16 > d-16 o8 f32 o6 d-4 o8 b8 > f-8 o5 f o6 a+ > d+8 o4 g- o7 c+16 o5 c-32 o4 f+ < e-16 o7 g8 > e+16 > a4 < d- > a o4 c-16 o8 c32 o6 g16 o5 a-32 o7 a32 < g-16 o6 d16 o4 c8 o4 f+16 o8 g-32 o6 g-16 o5 c16 o8 c+16 > b32 o6 e o7 g-4 o4 a o6 f+8 > b-32 o8 a- o5 a4 o4 c o7 f32 o4 d-8 o8 g8 < b+32 o8 b-16 o5 e4 < c-8 > e4 < e- < b16 o8 d- o7 e32 > d-32 o5 a+ < g8 < c-16 o4 d+32 < c16 o8 b-4 > d4 o5 c-32 o8 f+ > b+8 o6 a+ o4 b8 o7 a16 o8 a+8 > f-4 o7 g32 o6 e-8 o5 b-32 > a-4 < f+ o4 c+4 o5 f16 o8 g+16 < c+8 > c+32 o4 f-16 o8 b16 o4 f16 < b4 o8 c16 > f-32 o6 g32 o5 e o7 e4 o4 c- o8 e4 o4 e-8 o4 d8 > d32 o7 c+ o6 d+4 < c32 > f16 o8 b-8 < d+16 o5 g4 o5 a+8 o6 f32 < a8 < f+4 o4 d8 o7 a-16 o5 b+8 > d4 o8 a4 o8 a+16 o4 f-4 o5 a o7 f4 > a-4 > c4 < a16 o5 b-16 o6 b < f+4 o5 b+4 o4 c+8 < d+4 o4 c-4 > g4 o8 c+ o5 e8 < a16 > d-16 < b8 o5 f8 o5 c-16 o6 e+ o4 f+ o6 a-32 > e+32 < a+8 o5 c+8 o5 b-32 o4 d-4 o8 c-16 o7 b- o8 b4 o4 e- o6 a-4 o4 a32 > d+8 > d8 o7 f+4 < c8 < d- o5 a-4 o8 c- o6 g8 o8 g4 o6 g8 < c8 < e o4 f o7 e8 o4 e+4 o4 e8 o6 b-8 o4 b-4 o8 b-32 o5 a4 o8 c o7 a16 o7 e-4 > a-8 o8 e16 < e+32 o4 a4 o6 b- > e32 < g+32 o7 c- o5 c-8 o7 a-16 < f+8 o7 a-4 o5 a4 > a4 o8 e- o8 e32 o5 e+4 > b+16 o8 e16 > d+16 o6 c- o6 d8 o5 g16 < c-32 o7 g32 o8 a16 o8 e16 > f-4 o5 f+8 o4 a8 o6 b o4 f8 o8 b o5 g16 < a < d16 o6 c-8 o6 d16 o6 c16 o8 a-8 o7 a4 o8 a16 o8 a4 o4 c16 o7 c o8 f > f16 o4 a- o6 c-4 > b8 o5 f32 o5 e8 o6 b- o5 b32 o5 b16 o7 d+32 o7 e+16 o6 d-16 o8 b-4 o4 c4 > d-8 > a+4 o8 g4 o8 f- > g32 o6 d+4 o7 b+32 o4 f32 o6 e-32 < a+4 o6 e32 o7 b8 o4 e16 < b+32 o7 f < c+32 < d o8 f+ < f+16 o8 a+4 o6 b-4 > g8 o6 c16 o4 g4 o6 g+8 o4 f+ < e+ < a8 > e32 o7 f4 < a+16 o6 e+ > a- < e+8 o4 f-4 o6 b16 > b+32 o7 d+ > d+32 o4 b o5 c32 o7 b4 o4 d+4 o8 d16 < d32 o8 f16 o4 e+4 o6 f4 o8 d32 < d+8 o6 e+32 o7 f-32 o5 g16 o6 g+32 o7 a-16 o8 b-8 o7 a32 o5 a-32 > d16 > b8 > d-4 > f16 o4 b16 o4 d+4 o4 b+8 o6 d4 o4 d4 o7 a4 > e-4 o4 f-16 o7 e-4 o6 d-4 > b+ o6 g-16 o6 c+4 o4 e o7 c o8 c+8 > b+4 o8 g-32 o6 a-4 o6 c8 o8 b+32 o6 g4 o5 e+4 < a8 > a4 < b-8 o7 a4 o6 a4 o8 a+8 o7 b-8 o5 d16 o5 d+ > d+4 > a4 o4 f-32 o5 e+ o4 f+4 o8 g-16 o8 d-4 > a+8 o8 e+16 > b8 o6 c- o5 e8 > g4 o7 g-8 o4 a8 o8 f > e+ o8 c+32 o4 b o8 a-16 < e4 > a32 < g-4 < d- o7 c32 o5 g+32 o5 d o7 f+16 o4 c4 < b8 < e4 o4 e+8 o8 b+8 < b+ o4 b4 o7 e8 < a-16 o4 c-16 > e8 o6 f+32 < a-32 o4 e8 > g+32 < d+4 < g+16 < g32 o6 g16 o4 c+32 > c o6 g16 < f-32 o5 e-16 o7 c-4 o7 a+ o8 e16 o5 d32 < a-32 o8 a+8 o7 g+32 o4 d16 > a-32 > e16 o5 b+16 o8 d32 < d-4 o7 g- > b+32 o7 g4 o7 e-16 o6 a+16 > e16 o8 c8 o4 c32 o8 e- o8 a- o5 g+16 > f-32 o4 e4 > b+8 o4 g o6 f-8 < g32 o8 b-8 o5 e+32 < c16 < f < e32 o6 c-32 o6 b o7 a+ > c4 o5 g+16 o5 e32 o5 c+16 o8 f8 o4 f-16 < g+4 o8 b4 o5 b > a4 > d+ > f32 o6 a o8 d-8 < f-8 o4 b+4 o7 b-16 o7 d-8 o6 d32 o4 b-16 < c- > b32 o6 g+8 o4 f-8 o4 g4 o6 c8 o8 g+ o8 c- o7 a > e o8 g4 o5 b32 o5 g8 o6 e16 o7 e+8 o7 c4 o7 c4 o4 b32 > e32 o7 g-8 o8 c-32 o4 d+4 o4 b32 o4 d-32 o5 e8 o8 c16 o4 b8 > d-32 o8 d+ o5 g4 o7 e-8 o7 g8 < b16 o8 g4 o7 b32 o7 a16 o4 e32 o7 e32 o4 d32 o8 c4 o5 c- o7 a- o8 c4 o6 f8 > a+4 o8 d16 o7 g8 o5 f o6 a4 o5 d+32 o8 g- o6 d4 o4 d o4 a o5 a8 o4 e16 o5 g4 o4 c8 > g o5 e16 > e o4 e-16 < e32 o5 c < g4 o7 e+8 > c-4 o7 d-32 < b16 o4 g- o4 a- o7 g+4 o6 g16 > c+32 < f+16 o8 e+ o4 e16 o4 e32 o7 a16 o7 e-16 < c+ o6 b < e-4 < c-16 > f- o7 e8 o5 d-16 o5 f32 o5 d16 < c+ o6 a-4 o6 f o5 e+32 o4 c32 > a- o7 b-8 < d16 o4 g-16 o6 f- o8 a8 o4 b-16 > d-8 > b-16 > e32 o4 g16 > a16 o6 b32 o8 d16 o6 f8 o7 g16 > a-8 o6 f-8 o6 g16 o6 d+8 > b+8 o7 b- o6 a32 o7 d-32 o5 e o4 a32 o8 a o7 g o8 e+32 o8 e o7 c8 o8 b+32 o8 a+32 o5 e- o6 e-

midi-honky-tonk-piano: (tempo! 40) o4 c+4 o7 f-16 o5 f-8 < d4 o5 b+4 o5 d16 > d8 < g o4 a4 o5 f-8 o5 d-4 o8 g4 o8 b-32 o8 d4 > g8 > c16 o5 d-16 o7 f+8 > g16 o8 a8 o4 d-16 > c o5 f+ > d o7 g16 > c-32 o7 g-4 > e-4 o6 g4 o8 a+4 o7 a8 o5 g8 o5 f-32 o4 b-16 o5 b-8 o6 f16 o5 e16 < a+4 o8 f+ > d+ o7 e16 o5 d4 o6 c32 o8 a+ < b-4 < f- < f-32 o8 g16 o6 d+16 o7 a < e- o5 f4 o5 f+4 < b4 o8 b+ o4 b-8 o5 g4 o6 e32 o8 c16 o8 f32 > a32 o7 g16 o6 c-4 o5 f+4 o7 g-16 o7 c+32 o4 c-32 o8 a16 o8 g < g > f4 < b-32 o6 g8 o5 g+8 o4 d+8 o5 c+4 o8 e4 o8 b16 o4 f-32 o5 e8 o5 a4 > g32 < g8 o8 a4 o4 f- o6 c16 o7 e+16 > c-4 < b4 o5 a32 > d+16 o8 a-32 o4 b+8 o5 g+ o5 d+32 o8 g-4 o8 e-8 o8 c32 o8 c-16 o8 f16 > a4 o7 d16 o4 f-16 o7 b+4 > f8 > f4 o4 d-4 o5 b-8 o7 e16 > f-4 o4 b-4 o5 d < g-32 > g o8 f < c8 o4 g-4 o8 g4 > d+8 > a o4 a32 < f+4 o5 g- o5 c+ < c- o5 e32 o7 e+4 o8 c o4 d-8 o4 d+8 o6 f8 < e+32 o6 d-16 > c4 > d-16 o4 f o8 f o8 d16 o6 d-4 o5 a-16 o8 a-16 o8 c o6 a o6 d o7 c+32 > g-4 o7 d16 < b-8 o4 a-4 o8 b o7 f o5 g8 o6 e4 > a16 o4 g o4 g+8 o8 f4 o6 e8 o5 a32 o8 d-8 o7 c+32 < e8 > f- < d+16 < a4 o6 d16 o4 g+8 o6 g4 o6 g-32 > g o6 e16 o7 f o6 c+4 o8 f-32 o4 f-4 o6 f8 o8 d32 < g-16 < e+16 < d16 o4 f16 < c o5 d+4 o8 f-16 > b+32 o7 a > e8 o7 e16 o8 e-32 o5 c-8 o4 d4 o5 g+4 > b o7 g+ o6 f+32 o4 a-8 o5 e+16 o5 g+4 > c4 o5 g+32 o7 e+32 o6 d+ < d32 o6 c+32 > f+ o8 d+4 o5 f16 o4 a-16 o4 d-16 > d-32 o5 g+16 o7 e-8 < g-4 o8 g8 o8 e-8 o4 f+16 o8 c16 < f o8 e+16 o4 g8 o4 f-4 o7 d8 o7 e+16 o5 c16 > a32 o4 e+8 o5 e-8 o5 f-4 o5 e16 > c > g32 o6 c-16 o7 g+32 o8 g32 o7 a o5 b16 o4 c-16 o6 g+4 o8 a+4 < c16 o7 c32 o4 b+ > e4 o8 c+4 o5 b32 o5 g- o7 c+8 < g-8 o4 f4 < c-32 o6 f+ < g-8 o8 e4 o5 d-4 o7 c+8 o5 f-32 < c+4 > e-16 o6 c32 o8 c- o5 c32 < b- o5 e o5 e-4 o7 b32 > d+8 < a+4 o4 e16 o7 c16 < c-4 o6 d4 o4 f4 o8 a+8 o5 d+32 o7 f < b16 o5 b+4 o7 d32 > c32 o6 a- o4 g16 > d-16 o7 b+8 o4 e32 > f o4 g-16 o5 c-32 < a+16 o6 g+32 o4 f-32 o8 b32 < g > d+8 o4 c o4 b+4 o5 e-8 < c32 o7 e16 o7 b+8 > e8 > a4 o7 f+32 o5 c o6 f32 > a+4 o8 a+4 o7 a4 o7 c16 o8 d16 o4 b-16 o5 g- < d32 o8 c32 o4 a4 o6 c32 > b+ o5 c32 < b+16 < e+4 o5 f16 o7 f+8 o6 c+8 o7 f+ o5 f32 o4 c-4 o8 e+32 o6 c16 o5 f-16 o5 f+8 o4 a16 o5 d+ o6 g4 o7 f-32 o5 c8 o4 e- o6 b+4 > b4 < b+32 o7 c+ o6 c- o6 d-8 > a32 o5 a16 o8 f32 o7 d+32 o5 c8 o4 c4 o6 f+32 > g-16 o8 b+8 > e+32 o8 a16 o4 a-8 o8 d-16 < c32 o7 d-8 o7 f+32 o4 a32 o7 f+32 o7 a-16 < f32 > d+16 < a32 o5 c+16 o6 a4 o7 e-4 o5 f8 o6 e+32 o8 e32 o4 f32 < b8 < d+8 o5 c- o6 g-4 o8 e-4 > f16 o6 e16 < d32 o8 g4 o8 c-32 o6 g32 o4 a < d4 o8 a32 o7 g o8 e16 o5 c-16 > a-16 > c+32 o6 b o7 b32 o8 d32 < d16 o7 b+16 < b o6 f+ > f-4 o7 a o4 g16 o4 c-32 o5 b-16 > f-32 > b o6 a-32 > d32 o4 g-8 > f+8 o5 a+16 < b+8 o6 c4 o6 e4 o4 d16 o7 c- o5 f32 o7 g8 o5 g-8 o4 b-4 o5 a8 o7 c8 o6 f32 o4 c-16 o6 b16 o4 d-32 > b-4 o4 a4 o6 c+16 o8 g-8 o4 e+8 < a- < d-4 < e4 o8 e8 o6 e16 o6 b+ o8 c32 > b-4 o7 c > f32 o4 g8 o5 d-16 o8 f+32 o5 d+32 o7 e+16 o8 d+32 o6 c+ > a16 o5 d16 o8 d4 o5 c32 < d-8 > d- < f- < g o6 b-32 o6 b8 < d o6 d16 > b32 o5 f-4 > b-8 o5 g-32 o7 g- o7 b-4 o4 g-4 o5 f8 o4 f16 o4 a- o6 a-4 o4 d16 o4 b-16 < f+8 o7 e-4 o4 c o8 e+4 o6 a4 o8 a > e o5 f16 < e+8 o8 c32 o8 d16 o5 c-8 o4 d8 o4 d16 o7 b-32 o4 f+32 o8 c32 o4 e-4 o6 f16 < e+ < f8 o5 g16 o4 d32 o6 a- o7 g16 o5 f16 o7 c+ o8 d32 o8 a o7 d+8 o7 d16 o5 d- o8 e-4 o7 a+4 o7 b-4 o7 b32 o4 a+ o5 e+ o4 e+4 o4 g16 < c4 < c+ o8 a-4 o7 a o8 d o4 c8 o6 b8 o6 e4 o6 a- < a+4 < a+16 > a+ o7 g+4 < a-4 o6 e4 > f4 < b+ o6 a16 o6 f16 o8 b16 > d-8 o8 f-4 o8 d-8 > b-8 o4 c32 o7 c+ o7 a32 o5 b o6 c+8 > e32 o4 d4 > d4 > c8 o6 f8 o8 d-32 o8 c+8 o8 c-32 o5 e-32 o7 g+32 o5 e4 < d4 > b-4 o6 a+16 > b32 o8 b32 o6 c o4 g16 o6 a+32 o4 b o6 g o6 b32 o4 d+4 < b32 o4 a- o5 e+16 < d+8 o6 g4 o4 d4 o6 f4 o5 a+ o7 b+ > f32 o4 b4 o5 d-8 o6 b-32 < d+16 o5 f+8 < e o5 c o5 b16 o7 g8 o7 d+8 o5 e8 o6 b- o6 e+16 < f > a16 o8 f+16 < c+4 < a+ o8 b+32 > c16 o4 b+16 < e-8 > b-16 o4 c+4 o8 d4 < d16 o6 f-16 o5 d+4 o8 f32 o7 g32 o5 f32 < a32 o6 c32 > f-4 < a16 < f-8 o5 c+4 > c+16 o6 d4 o5 b32 > b+ o7 d8 o8 d8 o6 e8 > f4 > c+ o4 d+32 o8 e8 o8 f+8 o7 b4 o4 d+ o7 b32 o5 d4 o8 b4 > f+8 o5 g16 o4 g4 o8 b+ o4 g-8 o4 e+32 o8 d-32 o6 g+32 > a32 o5 g32 o6 e-4 o5 c32 o6 d8 o6 a
